<?xml version="1.0" encoding="UTF-8"?>
<map version="1.10" tiledversion="1.11.2" orientation="orthogonal" renderorder="right-down" width="100" height="100" tilewidth="16" tileheight="16" infinite="0" nextlayerid="4" nextobjectid="1">
 <tileset firstgid="1" source="../tilesets/grass.tsx"/>
 <objectgroup id="2" name="Object Layer 1"/>
 <layer id="3" name="Tile Layer 1" width="100" height="100">
  <data encoding="csv">
52,52,53,42,42,42,42,52,53,53,42,42,43,62,62,43,53,63,53,63,43,42,62,53,52,52,63,43,42,52,43,42,52,42,63,43,42,52,43,42,62,63,62,53,43,63,43,53,43,42,42,52,43,43,62,63,43,63,63,52,63,53,53,42,43,43,42,63,63,52,53,52,43,52,42,63,53,63,43,53,53,62,42,53,43,42,43,63,53,43,62,53,53,63,63,42,43,43,43,43,
63,63,53,63,53,62,43,63,43,43,43,42,63,52,52,62,63,42,43,42,52,63,53,43,43,62,43,42,63,43,52,53,63,42,63,63,63,53,42,62,52,43,53,53,42,53,53,42,63,63,62,43,63,42,62,63,53,42,43,43,52,43,42,63,52,43,53,62,43,52,53,63,42,52,42,62,43,63,52,62,52,42,53,62,43,63,42,62,43,52,43,63,62,63,63,53,53,63,42,53,
53,43,63,42,63,52,63,52,43,63,43,42,42,62,53,43,43,52,52,62,42,42,62,53,43,62,52,43,63,43,52,42,42,53,52,63,53,42,43,52,53,43,63,53,63,42,53,63,43,42,63,42,43,42,42,63,53,52,43,42,63,63,53,43,42,62,53,62,53,62,42,63,43,43,52,62,42,62,43,42,53,53,42,42,63,42,43,53,62,42,52,43,42,52,63,43,42,53,53,53,
42,53,53,42,53,63,53,63,43,53,63,62,52,63,42,42,53,62,43,43,42,43,43,62,53,62,63,43,43,43,62,62,63,42,43,42,53,53,43,42,53,43,63,42,43,52,42,53,52,53,62,52,52,42,63,63,63,43,52,53,43,63,53,42,53,53,42,43,63,63,62,43,62,52,53,53,43,43,43,43,42,53,62,53,43,42,53,42,53,42,63,43,43,42,52,63,63,63,53,42,
63,52,43,42,62,53,43,43,43,43,52,42,63,43,63,63,63,43,42,53,53,63,43,43,42,43,62,43,63,62,62,53,42,53,42,63,53,63,52,42,63,62,62,53,63,42,62,42,42,53,63,43,43,43,63,53,53,63,43,43,43,52,43,53,42,42,63,63,63,42,63,63,52,53,63,52,52,63,62,43,53,53,43,62,43,43,62,53,43,42,53,52,42,42,52,42,43,53,62,43,
43,53,53,42,43,43,43,63,63,43,42,53,63,42,42,43,42,53,63,52,42,42,43,42,42,63,53,63,62,42,63,53,63,53,42,62,52,43,42,43,62,53,42,42,63,52,42,43,42,43,42,42,63,43,53,63,52,52,43,53,62,53,52,53,52,43,62,63,53,62,53,63,62,42,42,42,63,53,43,53,63,63,53,63,53,52,53,62,53,53,42,42,42,62,62,42,63,42,53,52,
43,53,43,62,63,42,53,62,53,62,42,53,62,52,42,63,42,53,43,53,53,62,43,52,42,42,62,63,43,43,52,43,42,52,43,43,53,62,62,53,53,53,43,42,63,63,63,63,63,53,63,43,53,42,43,43,63,42,52,63,42,53,43,63,62,42,53,62,42,52,43,42,63,63,63,53,43,63,53,52,43,62,53,63,63,53,53,52,62,42,63,63,63,43,52,63,42,42,53,63,
63,42,63,62,53,42,42,63,43,63,43,63,42,42,53,42,53,43,42,52,53,53,43,53,52,52,42,53,43,43,53,43,62,42,52,63,53,62,42,63,43,63,53,53,52,63,63,53,63,53,42,52,42,42,42,62,62,62,62,53,53,43,43,63,53,62,42,43,62,62,42,62,53,63,53,63,42,63,43,43,53,63,42,53,53,43,43,43,42,42,53,63,62,52,63,52,53,43,53,43,
43,63,52,62,52,53,62,53,52,42,53,63,63,42,42,53,63,52,63,42,62,62,43,43,52,63,63,63,43,53,43,63,42,43,43,63,42,42,53,52,43,43,42,62,42,63,42,42,63,42,42,62,53,53,53,62,43,62,62,53,53,43,42,62,63,62,53,53,42,43,63,52,42,42,42,42,42,42,62,63,53,42,42,42,43,63,43,43,43,63,43,43,53,43,53,62,63,63,52,63,
52,53,52,42,53,53,42,63,53,63,62,53,52,62,42,42,53,63,63,43,53,42,53,62,63,53,53,43,63,62,43,53,53,43,62,52,42,42,63,63,63,42,42,53,63,53,42,63,63,53,43,52,53,43,43,63,42,52,62,63,52,53,43,42,53,52,43,42,43,43,42,63,43,42,53,53,43,42,63,53,63,62,43,43,62,62,42,42,52,62,42,62,42,53,43,43,42,42,42,42,
53,62,42,52,63,42,43,43,63,43,63,53,52,53,53,42,63,63,53,63,42,42,63,52,63,43,62,42,63,43,42,53,63,53,52,63,53,53,53,53,43,52,42,63,42,63,53,53,53,43,42,62,63,43,53,42,63,52,42,43,53,43,63,42,42,43,42,63,62,63,62,43,62,53,53,63,53,52,63,53,53,63,42,42,53,63,52,63,52,53,63,42,42,53,63,63,42,42,42,62,
52,62,52,42,43,43,43,52,62,62,53,62,52,43,63,63,52,62,42,63,63,53,62,43,63,53,53,63,43,53,62,62,63,42,52,42,63,63,43,42,52,43,43,43,43,42,42,62,52,53,53,52,53,63,63,43,53,53,53,43,53,42,53,63,43,52,43,52,63,63,63,52,62,53,52,53,53,42,53,42,43,53,42,43,43,52,62,43,43,53,42,63,42,53,53,42,52,43,42,53,
63,52,63,52,43,52,63,62,43,53,42,52,43,42,52,43,52,43,63,43,53,52,53,63,52,52,53,63,42,43,42,43,63,63,43,62,53,52,43,63,43,62,63,62,43,62,53,43,62,53,43,62,63,42,43,43,53,53,43,43,43,62,63,53,62,42,63,63,53,63,62,53,42,63,42,43,63,53,63,63,52,43,43,53,62,42,42,53,42,43,62,53,43,43,53,43,53,42,52,63,
43,43,43,62,43,63,42,42,42,53,43,43,42,62,62,53,43,43,43,42,53,43,63,43,43,53,63,63,42,43,53,43,42,43,62,52,63,62,42,43,42,43,53,42,42,42,63,53,43,62,63,53,62,52,42,42,43,63,52,42,53,63,43,62,62,53,63,42,62,43,63,42,62,63,53,63,63,63,42,43,43,63,52,52,42,63,42,53,52,63,53,53,43,53,43,42,63,43,42,43,
43,52,62,42,63,63,43,42,62,42,53,42,42,42,63,52,53,52,43,43,53,42,52,63,42,52,63,53,43,63,43,52,52,52,43,63,43,42,53,63,43,63,52,43,63,43,63,62,63,43,42,42,43,63,52,63,43,63,42,53,53,53,42,53,53,63,52,53,63,63,63,53,62,43,63,53,53,53,62,63,42,63,43,63,43,43,43,63,43,53,42,42,53,53,62,42,52,53,42,43,
63,53,63,63,42,63,43,62,43,53,53,42,62,43,42,62,53,63,42,42,53,42,42,63,43,42,52,63,43,42,43,43,43,62,62,42,53,42,62,53,42,42,42,63,62,52,43,52,43,42,42,53,62,53,42,62,43,63,63,62,62,43,63,63,53,62,52,63,42,63,52,52,43,63,43,52,42,62,42,62,63,53,42,63,43,62,63,52,43,52,63,53,42,53,53,42,52,63,42,53,
52,52,53,42,63,63,43,52,42,42,62,42,63,53,63,52,43,42,63,42,43,63,62,53,53,52,52,63,63,43,42,42,52,53,42,52,52,63,43,53,42,52,42,43,43,43,43,42,42,42,53,42,43,43,53,53,43,42,62,52,42,63,43,43,63,42,43,53,53,63,62,63,43,53,42,42,63,42,42,43,42,63,63,62,43,63,52,42,52,53,53,42,63,53,52,62,43,52,53,62,
52,42,63,43,53,62,42,43,43,42,52,42,63,53,52,63,62,62,52,52,63,42,62,43,42,42,42,53,63,53,53,62,53,42,63,43,43,42,53,52,63,52,62,43,42,43,62,43,52,42,63,62,53,42,63,43,42,43,62,53,53,63,52,63,62,52,43,63,43,42,43,63,63,63,53,43,42,42,53,53,62,43,63,42,42,53,63,43,52,62,53,63,42,42,63,42,42,42,42,53,
63,53,63,62,53,62,43,42,53,43,42,43,53,62,42,63,42,43,63,43,62,42,42,42,42,63,43,63,63,43,63,43,63,42,53,43,52,52,43,53,63,43,62,53,52,53,53,52,43,53,42,53,53,53,53,63,63,53,53,43,63,42,63,63,42,43,43,53,52,43,43,42,53,43,52,43,43,43,53,42,42,43,43,52,42,43,43,53,62,53,43,42,53,62,63,43,43,43,62,63,
53,43,63,43,43,53,63,63,63,43,43,52,52,63,52,63,62,43,53,43,42,42,43,42,53,63,53,42,42,52,53,43,53,63,63,62,42,42,53,42,42,42,53,42,43,42,63,53,63,53,53,63,62,63,42,53,63,63,63,62,53,63,63,63,63,53,63,62,42,63,43,52,52,52,42,52,63,53,62,63,42,42,63,43,43,53,62,43,42,62,53,62,62,43,42,63,53,52,52,53,
42,52,43,42,43,43,43,63,62,62,62,52,43,53,53,53,52,52,42,43,43,53,42,53,43,42,42,53,63,43,43,63,53,53,42,53,42,53,43,43,43,53,62,43,53,43,43,42,53,42,53,43,63,63,53,62,53,43,52,62,53,43,53,42,52,42,43,53,43,53,53,53,63,63,43,43,42,42,42,42,63,63,42,53,52,42,53,52,62,53,43,63,53,53,62,42,43,42,62,52,
63,53,43,43,43,53,63,42,63,42,62,42,63,42,52,53,62,42,42,42,63,63,53,62,42,43,62,43,42,53,52,43,42,43,52,43,43,42,53,43,43,63,53,43,63,42,43,42,52,43,42,52,63,53,42,52,53,53,52,42,52,43,53,43,53,52,63,63,63,43,43,42,43,42,43,53,42,43,42,53,53,52,53,53,43,43,42,52,43,63,43,43,63,43,53,63,63,42,62,63,
63,62,63,53,43,52,62,53,42,52,52,42,62,42,42,42,62,43,53,62,43,63,42,62,63,62,63,43,63,63,43,52,43,43,43,43,43,62,53,43,42,62,53,43,42,42,62,63,42,43,43,42,52,42,63,43,42,42,53,53,42,42,42,63,42,42,63,52,53,42,42,42,43,52,43,53,52,53,43,53,42,42,62,43,52,63,53,42,42,63,63,42,52,42,43,43,43,43,52,53,
42,63,52,62,42,62,53,62,63,43,63,62,62,42,63,43,63,63,42,43,53,42,63,52,43,42,53,53,63,62,43,63,63,52,62,42,62,62,53,43,62,63,43,42,62,43,62,53,42,53,62,52,43,53,62,43,42,52,43,43,53,62,63,42,43,63,43,42,42,42,63,43,42,42,63,53,43,62,53,43,63,53,42,43,43,62,42,63,43,42,42,43,43,53,53,42,62,63,42,63,
52,52,63,42,63,53,63,63,53,42,43,42,42,63,42,52,63,53,62,63,43,43,63,42,53,43,42,43,53,42,63,53,63,63,53,53,52,52,63,62,62,42,63,43,53,42,43,52,52,63,43,63,53,62,52,63,42,53,42,62,53,52,53,53,53,52,63,53,63,42,43,53,43,52,43,42,53,62,52,53,53,63,53,42,53,42,53,42,43,52,63,52,62,42,53,42,52,42,62,43,
53,63,42,63,52,43,63,43,63,42,63,42,42,43,42,63,63,63,53,52,52,42,42,63,62,42,63,42,53,42,43,42,43,42,43,52,62,63,62,42,43,53,53,43,53,62,43,42,43,52,53,42,52,43,43,52,53,62,43,42,52,52,42,63,43,43,62,53,43,43,43,62,43,42,42,52,42,52,43,43,53,42,43,43,63,42,53,62,53,42,62,53,42,53,62,53,43,52,42,63,
63,42,42,53,43,63,43,42,63,42,42,42,53,52,63,42,62,43,43,62,53,62,43,52,63,52,52,43,63,43,43,62,42,63,52,62,52,53,62,63,53,42,63,42,43,53,52,52,43,43,62,52,43,42,63,63,63,42,62,62,52,43,62,63,53,62,53,42,63,63,53,42,53,53,42,43,62,63,43,62,63,53,63,52,63,52,53,43,52,42,62,63,53,43,53,63,63,53,63,52,
43,63,42,43,42,53,43,42,43,52,52,42,42,52,42,42,63,63,42,62,53,42,42,62,62,43,62,43,63,63,42,53,43,63,63,42,43,62,63,62,63,63,42,43,53,43,43,53,62,52,43,53,42,43,52,63,43,62,43,62,42,43,42,63,52,53,43,63,52,53,42,43,43,53,42,43,43,53,63,52,43,43,42,43,43,53,63,63,42,53,63,53,43,43,52,53,53,53,53,42,
63,43,43,53,42,63,43,53,63,42,53,63,63,63,43,53,53,52,53,63,63,43,42,63,42,53,63,53,52,43,52,52,43,43,43,43,53,53,43,62,42,43,43,62,53,63,53,53,43,52,53,43,43,53,43,63,43,43,42,43,42,43,42,53,53,42,42,43,63,42,42,42,62,62,43,52,43,42,63,53,43,63,42,63,43,53,52,53,53,53,42,53,63,43,62,42,53,43,43,63,
52,43,63,43,43,52,53,63,42,63,42,63,43,62,62,63,63,53,53,43,42,43,52,52,42,63,62,43,52,63,52,42,53,52,53,42,62,42,62,43,42,53,42,53,52,53,43,42,42,53,53,53,53,62,62,53,63,52,42,42,52,62,42,42,63,63,53,52,63,43,43,53,52,43,53,63,53,62,63,53,62,43,52,62,62,43,43,53,42,52,42,63,42,62,43,42,43,42,53,53,
43,63,63,63,42,53,62,53,63,63,62,43,53,42,42,63,53,63,53,53,43,62,52,62,42,53,42,52,63,42,42,63,62,43,63,43,42,43,63,42,53,42,43,62,63,42,63,62,42,63,43,52,63,62,53,63,53,63,53,42,53,53,43,63,43,53,42,63,63,52,52,43,63,63,63,62,42,43,63,43,42,62,43,43,52,52,62,43,62,63,42,62,43,43,42,63,42,43,42,43,
43,52,62,42,43,42,42,63,52,63,63,62,43,42,42,43,42,53,63,53,62,42,53,43,62,42,42,43,43,42,53,53,53,53,42,53,52,43,63,62,63,53,53,43,53,63,43,62,43,43,63,63,53,62,43,43,62,43,43,62,43,42,43,52,42,63,42,42,43,63,62,62,43,53,62,63,63,42,52,42,62,63,53,53,53,42,63,63,63,63,63,53,43,53,42,62,53,63,63,63,
53,52,53,43,63,43,63,42,43,43,62,53,43,42,53,63,42,63,63,63,63,53,53,52,63,63,53,43,62,42,43,43,52,42,53,52,43,63,63,43,52,42,52,43,62,42,53,63,43,53,43,53,43,42,53,52,42,53,43,63,63,52,42,63,42,43,63,52,42,42,52,42,43,43,43,52,63,63,63,43,43,53,42,52,43,43,43,52,53,43,63,43,53,53,53,53,63,43,42,42,
53,52,62,42,42,52,42,42,62,63,63,62,62,53,42,53,42,42,62,63,42,43,63,43,53,52,53,52,42,63,62,43,43,53,42,52,42,62,42,63,52,42,42,63,42,42,53,53,43,53,52,53,53,63,63,53,43,63,62,43,42,42,53,63,42,53,42,42,52,62,53,43,52,53,52,43,53,43,63,42,62,63,42,62,52,63,43,43,63,42,42,42,53,53,52,43,62,52,63,63,
62,52,52,42,62,42,63,42,53,43,53,63,43,52,53,43,42,43,43,43,53,63,53,52,62,62,52,63,62,63,62,42,52,42,42,63,63,63,52,63,53,42,63,52,42,53,52,42,43,53,53,52,63,43,53,62,42,52,52,52,42,52,43,43,62,63,53,62,43,62,62,53,63,52,43,42,53,42,43,53,52,63,43,63,63,42,62,43,42,53,63,53,43,63,42,62,43,62,53,53,
63,63,52,52,62,43,63,43,62,62,62,43,43,43,63,43,43,42,53,42,53,63,43,62,63,63,43,42,52,53,42,42,43,53,63,43,63,42,62,62,43,43,53,53,53,42,43,53,62,52,43,53,53,52,53,43,42,53,42,42,62,62,43,43,63,63,62,43,43,43,63,42,62,62,53,52,63,62,63,53,53,53,53,53,53,63,43,63,53,63,42,43,42,43,42,63,42,63,63,52,
52,62,53,63,62,62,42,52,62,53,63,42,53,42,63,42,42,63,53,63,42,62,53,43,63,52,63,42,52,53,63,42,53,63,63,62,42,53,62,42,43,63,42,43,43,53,53,53,42,42,42,52,43,63,42,42,43,52,52,63,53,53,43,42,63,53,53,43,63,53,43,52,43,62,53,63,42,42,43,62,63,42,63,42,42,52,63,43,63,43,63,52,53,42,63,63,63,42,53,62,
62,42,52,53,42,43,53,53,42,43,53,43,42,42,52,62,43,43,53,42,42,53,63,63,42,43,43,43,53,63,63,62,52,52,63,42,42,53,62,63,42,62,42,53,42,43,63,43,43,62,63,53,62,43,63,43,43,53,53,42,42,43,43,52,42,42,62,53,53,53,53,53,53,53,42,42,43,53,43,42,43,42,42,43,62,52,42,42,53,53,63,53,53,63,43,42,63,52,43,42,
63,43,53,53,63,63,52,43,53,62,63,63,63,53,43,43,63,53,53,53,63,43,62,53,52,52,53,63,63,53,63,42,62,63,53,53,43,63,42,63,63,63,43,63,43,43,63,42,63,43,53,53,62,63,42,52,42,42,63,62,63,53,43,43,42,62,42,53,53,62,52,52,42,53,42,43,43,42,42,53,42,43,53,62,63,43,42,52,42,42,53,63,43,42,42,63,42,42,53,63,
42,53,52,63,43,43,43,52,42,62,62,53,53,53,43,63,63,42,62,62,53,43,63,42,62,42,42,53,42,52,42,63,52,52,62,53,53,52,63,53,62,62,52,53,43,43,63,63,42,53,42,63,53,63,53,53,42,52,62,63,63,53,62,63,53,42,42,63,43,62,43,53,53,42,53,52,43,43,43,43,63,43,43,42,43,53,63,53,52,43,42,63,63,53,53,53,42,63,63,42,
53,43,43,63,42,62,53,42,62,43,53,42,53,42,63,53,43,43,63,63,62,53,43,43,43,42,52,53,63,42,43,42,62,42,42,63,52,43,63,63,53,53,42,63,53,63,42,42,42,53,42,43,62,62,43,63,42,62,42,42,43,63,52,53,53,42,42,43,52,63,62,53,43,53,42,53,43,42,62,42,53,42,62,63,43,63,53,53,42,42,43,52,53,63,42,62,43,42,53,43,
63,42,53,43,42,53,63,53,63,52,43,42,42,43,43,52,62,43,62,63,63,53,53,42,53,53,43,42,63,62,42,53,62,53,53,42,52,53,63,63,42,53,62,63,43,63,62,43,62,53,62,42,53,42,43,43,43,52,53,42,52,53,53,52,53,63,42,42,53,63,43,53,43,43,43,53,62,63,43,53,52,42,43,43,43,53,63,42,62,42,62,42,52,62,43,63,43,52,63,63,
43,53,43,43,42,63,53,53,42,43,52,63,43,52,42,43,42,62,63,42,53,62,42,62,63,43,53,42,42,42,62,43,43,52,63,53,43,63,62,62,43,63,63,43,42,42,43,52,53,42,52,62,53,43,43,42,62,52,53,43,63,53,53,42,52,42,53,43,53,53,53,42,63,63,43,42,63,62,53,42,42,42,43,52,63,43,53,52,63,63,63,43,42,63,62,43,43,62,53,42,
52,53,53,63,53,42,53,43,42,42,43,43,63,62,62,42,63,42,43,63,43,62,42,42,53,53,43,53,42,42,42,63,43,42,53,42,42,62,62,63,53,52,42,63,63,43,42,43,63,53,43,52,62,62,43,43,42,43,63,42,62,63,42,42,42,43,53,42,42,43,63,42,63,52,62,42,53,63,62,62,53,42,53,42,53,53,53,43,62,53,43,52,62,63,52,53,62,42,53,63,
52,63,53,63,43,42,53,63,62,53,53,42,42,43,43,53,42,63,52,43,43,52,43,63,53,63,63,42,63,63,62,42,43,63,42,63,62,63,43,62,42,43,53,53,53,52,62,52,63,43,43,62,62,43,63,43,63,42,63,63,42,53,62,53,43,43,63,42,63,53,42,53,43,63,43,42,63,63,62,62,43,62,43,63,43,53,42,52,43,53,42,42,52,62,53,43,53,42,52,62,
53,42,42,63,63,43,42,62,53,62,43,42,42,43,63,53,53,42,63,43,53,42,63,43,63,42,52,52,42,42,53,62,43,52,53,53,42,53,43,63,63,42,43,42,63,53,53,63,42,52,42,53,42,63,63,42,53,42,63,63,53,63,53,42,42,53,42,63,53,53,63,62,53,62,42,42,42,43,53,52,42,63,63,63,62,63,53,42,42,43,63,53,52,63,42,42,63,53,52,43,
52,63,62,63,43,42,63,63,63,42,53,53,43,62,63,53,63,62,53,42,62,53,43,63,63,43,42,63,53,53,43,53,43,63,42,52,43,43,53,43,63,53,43,52,52,53,63,43,52,43,42,53,63,52,43,43,43,42,42,53,42,42,63,42,42,53,62,63,52,42,43,52,42,53,53,63,53,43,43,52,42,52,63,42,43,63,43,52,53,52,42,62,43,63,42,42,63,43,62,43,
43,43,63,43,63,63,62,52,43,53,63,43,63,53,63,42,43,53,53,62,53,42,42,63,63,63,62,63,62,53,52,43,52,62,63,42,63,52,53,43,63,53,42,52,62,53,62,52,43,63,63,63,63,42,53,53,63,42,53,53,43,43,63,52,43,62,62,43,63,42,62,53,63,42,53,43,43,53,62,62,53,53,42,63,42,53,52,63,63,62,62,63,53,53,62,42,52,43,42,42,
53,63,43,62,43,53,42,42,43,43,42,63,42,53,43,63,52,42,53,53,53,42,43,42,43,63,53,43,42,42,43,42,43,43,62,63,53,43,63,43,63,42,63,53,52,62,43,63,63,42,42,62,62,52,42,53,42,53,53,62,63,43,62,43,42,63,43,43,42,52,53,63,43,42,52,63,43,42,63,42,62,42,43,53,52,62,53,43,42,42,43,43,52,42,63,52,52,43,63,63,
63,62,53,53,42,63,53,63,52,63,43,52,62,53,42,42,42,43,53,53,43,42,63,53,52,43,63,43,62,53,43,53,62,43,53,63,42,63,43,42,43,63,53,42,42,52,53,42,63,63,63,43,42,42,63,42,43,43,52,43,62,53,42,53,63,52,53,53,42,63,63,43,63,43,52,62,43,43,52,42,62,63,42,63,53,63,63,42,53,52,53,42,43,42,52,42,63,63,43,52,
53,43,43,62,42,43,53,42,43,42,43,42,63,43,42,42,62,53,43,43,53,63,43,43,63,62,43,43,42,53,42,52,42,63,62,42,42,43,63,42,43,53,53,52,53,63,63,62,43,42,43,63,62,53,62,52,42,53,43,63,53,53,63,53,63,43,53,52,43,42,63,42,53,52,43,43,52,42,42,42,52,62,43,63,43,43,42,62,63,62,53,62,63,53,43,43,63,42,52,62,
42,42,63,43,63,53,42,62,53,42,63,42,52,42,53,53,62,52,63,52,42,52,43,62,43,53,43,43,63,42,43,63,43,63,52,52,63,63,43,63,42,63,62,52,42,43,43,62,63,52,42,42,53,63,63,53,53,53,63,42,42,63,43,62,53,53,52,53,53,63,62,53,63,63,42,63,52,63,63,53,63,63,43,42,42,53,53,62,42,43,43,43,52,42,63,52,42,63,62,63,
42,63,42,43,63,43,63,53,53,42,53,53,42,43,43,62,53,63,43,53,42,63,53,63,53,53,63,52,43,52,53,42,43,53,43,52,42,43,43,63,53,63,62,43,42,42,42,52,62,42,62,42,42,63,63,43,62,62,53,42,52,53,53,43,53,53,53,53,52,53,42,53,52,52,42,63,43,63,52,53,53,43,53,43,42,53,42,63,42,42,42,43,63,43,42,63,52,53,43,63,
63,43,53,43,43,53,42,42,63,53,43,62,63,42,63,52,62,53,52,43,62,53,43,43,43,63,43,53,62,43,42,53,53,43,42,62,53,52,42,63,43,52,62,53,52,63,43,43,43,62,42,63,53,52,43,62,43,42,43,52,62,53,43,62,42,43,42,43,53,43,42,42,52,43,43,42,43,53,63,53,42,52,63,62,52,53,53,43,63,63,42,53,42,63,63,63,63,53,62,43,
62,53,63,42,42,43,43,63,42,43,43,43,42,52,43,42,53,53,43,53,53,43,52,62,52,53,43,52,63,42,43,43,43,62,63,53,63,63,63,52,43,43,42,42,62,53,53,63,63,53,42,62,43,53,63,63,63,63,43,53,43,53,43,62,52,52,53,63,52,43,43,43,63,52,62,53,42,52,43,63,63,43,63,53,63,43,43,43,63,42,63,63,43,42,62,63,42,53,53,62,
63,43,42,63,52,52,53,63,43,43,53,43,53,42,43,63,53,42,42,52,53,62,63,43,63,43,42,63,52,42,63,42,62,62,43,43,42,42,62,63,52,42,53,42,43,43,53,42,63,53,63,52,62,63,42,43,63,42,53,63,42,42,63,43,63,53,43,42,53,53,63,42,42,52,63,43,53,53,53,43,53,43,42,42,42,43,53,63,43,62,42,52,42,43,63,63,43,42,52,63,
63,53,42,53,42,42,42,62,63,43,63,53,53,52,42,43,42,62,63,52,43,53,43,52,43,63,42,43,52,53,43,63,63,42,43,63,43,42,62,63,62,42,63,53,42,43,53,53,43,43,53,53,42,43,42,43,53,42,53,63,42,43,42,62,43,53,42,43,53,42,52,43,43,42,43,62,62,43,63,62,53,43,43,62,63,42,43,63,42,63,52,53,62,42,43,43,43,62,43,63,
53,62,62,43,63,43,63,43,43,42,52,53,62,43,42,43,63,42,53,63,43,43,43,43,63,63,43,43,53,52,53,63,63,53,52,63,42,42,63,63,53,42,43,43,42,63,63,53,43,53,52,42,43,53,43,42,43,53,53,63,63,43,42,62,43,43,53,43,62,63,42,42,43,63,53,43,43,63,52,52,53,43,63,53,53,42,43,52,42,43,43,43,63,53,63,42,62,53,53,63,
63,52,53,63,42,52,62,43,43,53,63,42,53,42,43,63,53,43,63,63,63,43,62,52,63,42,42,52,53,52,43,52,53,43,43,63,62,43,63,52,42,62,43,52,42,43,53,42,62,52,63,52,53,53,42,62,63,52,43,52,43,42,42,63,52,53,63,42,53,42,42,43,52,63,53,63,43,53,43,42,62,53,53,43,63,52,42,43,53,52,42,42,52,52,52,62,53,63,53,63,
52,63,53,42,42,53,63,43,53,53,42,63,43,53,42,63,62,43,63,63,53,62,52,53,42,53,53,53,63,43,63,63,43,43,63,53,62,62,52,63,52,63,43,43,53,43,52,42,53,42,43,63,53,43,52,42,43,62,63,62,43,42,42,53,42,53,53,63,43,63,63,42,62,63,52,42,43,63,63,63,42,42,63,63,63,42,63,62,43,62,42,63,43,62,63,62,62,63,63,62,
52,42,52,42,53,63,42,43,52,52,52,43,62,42,53,52,42,42,63,62,43,42,52,52,42,63,63,42,42,63,62,53,53,63,53,42,42,43,42,63,43,42,62,43,53,52,53,42,53,52,63,43,63,62,43,63,52,43,63,42,43,42,62,53,53,42,62,52,53,63,42,63,52,43,52,62,52,62,52,43,42,43,43,53,63,63,52,63,43,63,43,63,52,63,63,42,63,52,53,42,
62,62,43,62,42,62,63,52,53,43,42,42,42,52,53,43,62,42,62,42,43,53,52,63,62,43,43,52,42,62,52,43,43,43,42,53,62,42,43,53,42,53,52,43,63,42,52,42,53,53,53,53,43,43,43,53,52,43,52,53,53,62,42,62,63,42,53,42,53,52,53,62,43,42,53,62,63,63,53,63,52,62,42,42,63,43,42,53,43,52,42,62,52,62,63,63,53,42,42,42,
53,63,63,62,42,63,62,42,52,42,63,42,52,42,53,53,43,63,53,62,43,52,63,42,42,63,63,42,62,53,43,53,63,53,62,52,62,62,42,43,63,52,62,53,42,63,43,43,43,63,53,63,43,43,43,63,52,53,63,43,43,63,63,42,63,62,62,43,53,43,43,52,63,62,43,62,53,42,63,43,42,53,62,43,63,62,43,43,43,42,53,62,63,63,53,53,52,43,53,63,
52,53,53,63,43,63,52,53,42,42,42,43,63,62,42,43,42,43,42,53,43,42,62,42,42,52,63,62,42,42,42,62,53,42,43,43,62,43,62,53,43,43,43,53,52,63,52,53,42,52,63,63,43,53,42,42,53,63,43,53,53,53,42,52,52,53,42,43,42,52,62,52,63,43,52,53,53,43,63,53,42,62,63,43,43,43,43,42,52,53,43,42,43,42,52,53,53,62,42,43,
42,42,63,62,42,43,43,63,53,43,42,63,53,43,62,62,62,52,43,53,42,62,53,53,62,63,63,53,42,52,42,43,53,42,63,63,63,42,43,42,53,43,53,43,52,62,42,43,42,42,42,42,43,43,52,62,53,53,53,42,42,42,63,42,43,52,53,62,53,43,63,43,42,62,63,43,63,42,53,53,53,42,43,52,63,53,43,63,52,43,53,43,52,42,43,62,63,63,42,42,
42,63,43,53,53,62,52,63,53,43,42,53,53,63,62,52,42,52,63,63,62,53,53,53,42,42,52,43,43,42,43,53,62,43,62,43,42,43,63,53,43,43,63,63,43,42,43,62,43,43,53,43,43,42,63,42,42,63,53,63,43,53,52,42,63,42,53,53,63,52,42,42,53,52,63,53,42,52,42,52,42,43,63,63,63,43,42,43,53,42,42,52,53,52,63,43,52,62,63,43,
42,42,63,63,52,53,62,63,42,52,43,63,63,53,43,52,62,43,62,43,53,63,63,53,43,43,62,42,62,53,62,52,63,52,53,63,43,42,53,62,53,42,43,53,53,42,42,52,52,43,63,53,53,52,63,43,53,53,42,52,63,53,63,43,53,62,43,53,62,52,43,63,53,52,43,53,43,43,63,63,43,43,63,62,42,42,42,63,52,43,43,62,52,63,52,63,42,63,42,42,
43,43,53,42,52,43,63,53,42,52,43,42,43,42,42,42,52,63,43,52,53,52,53,42,62,42,63,53,43,53,52,53,63,53,42,62,53,53,43,62,42,43,43,53,53,63,53,53,62,63,53,43,43,43,52,63,43,43,53,62,62,52,63,62,43,53,53,43,42,62,63,43,63,52,43,52,53,42,42,53,52,52,42,62,63,43,43,43,63,63,43,42,42,62,63,53,63,42,53,53,
63,52,62,53,53,53,43,62,53,63,63,63,42,42,62,53,42,63,63,42,62,63,43,63,42,43,42,63,42,42,52,63,62,53,63,42,43,52,62,43,63,43,52,62,53,43,53,62,53,62,42,42,52,43,52,52,63,52,42,53,52,43,52,53,42,63,63,62,63,43,42,62,43,62,52,53,53,43,43,63,63,53,62,53,42,53,53,42,63,53,52,43,42,43,42,62,53,62,53,53,
42,53,52,63,52,42,42,62,63,43,53,42,63,43,43,42,43,52,43,43,52,53,42,43,43,43,62,42,63,62,63,42,42,42,63,53,62,52,62,42,63,43,43,42,43,63,42,52,43,43,42,53,53,63,63,43,52,42,63,53,63,62,63,63,43,42,63,43,63,63,42,53,43,42,43,62,42,42,42,43,63,43,52,43,43,43,63,43,63,53,43,42,63,43,42,42,62,62,53,63,
42,52,53,42,42,53,53,42,62,43,52,43,63,62,62,62,42,62,53,42,63,43,53,53,53,42,42,63,43,42,43,52,53,52,63,43,53,63,42,62,53,43,43,43,52,42,43,43,63,53,42,63,53,42,52,53,42,53,42,42,53,43,53,63,42,53,63,42,42,62,53,63,63,43,63,42,63,42,63,52,63,62,53,62,53,63,52,63,63,43,43,53,63,63,63,53,63,42,63,63,
42,42,43,63,63,53,53,43,53,52,53,63,63,62,63,53,42,43,42,53,62,52,52,62,43,63,62,63,62,63,42,63,53,42,43,42,52,43,43,53,43,62,52,62,52,43,42,62,52,42,53,43,42,62,42,63,43,53,42,63,62,52,62,42,62,43,52,52,53,52,42,53,53,43,43,63,53,62,63,63,63,42,52,43,53,62,62,43,43,42,63,42,43,42,53,42,43,42,43,42,
63,52,53,53,52,43,53,42,63,42,42,53,42,52,43,43,42,43,42,63,62,53,43,43,42,52,53,62,62,63,42,42,52,62,42,42,43,63,62,43,42,42,63,43,62,42,53,43,63,42,53,62,63,62,42,63,43,53,63,52,53,42,43,63,43,42,53,42,63,43,62,52,53,42,53,62,52,42,63,52,62,42,53,42,53,62,63,42,43,52,42,63,53,43,63,43,43,42,63,53,
63,52,63,53,43,43,53,63,63,52,52,63,43,62,52,62,53,52,52,53,43,63,62,62,63,63,63,52,53,63,43,62,53,53,53,63,53,63,43,62,42,43,43,42,62,42,43,43,42,53,62,43,43,53,53,52,42,43,62,42,43,43,43,63,53,62,43,62,43,63,43,63,53,42,43,52,42,42,52,42,42,63,52,53,52,43,52,42,42,42,42,52,53,52,43,63,42,53,43,62,
63,63,42,62,53,43,42,63,42,62,62,63,42,42,63,53,52,42,62,42,43,63,53,53,63,52,63,42,53,42,53,43,53,53,63,53,43,63,53,42,63,53,63,42,53,42,53,43,42,53,63,63,43,42,42,53,52,42,42,63,52,42,53,52,43,53,62,43,42,43,63,53,42,63,42,43,53,43,43,63,52,63,43,63,52,42,52,42,62,43,63,63,52,42,43,53,53,52,63,53,
52,53,42,42,63,52,63,63,62,63,52,63,43,43,52,63,53,63,63,53,63,52,42,63,43,63,42,63,63,53,63,53,42,63,43,53,63,63,62,63,63,63,63,62,62,43,63,62,43,43,43,42,42,62,42,43,43,62,43,52,43,42,62,42,52,42,63,63,62,53,62,63,53,63,43,52,63,42,63,62,43,43,43,42,43,62,63,43,63,63,63,53,42,63,63,63,63,43,43,63,
63,53,43,63,42,42,53,63,63,52,43,63,42,43,53,43,43,62,53,42,62,43,43,53,62,43,42,52,43,63,43,52,42,62,53,63,42,52,52,42,63,43,43,52,53,42,43,53,43,52,53,42,52,63,62,53,43,53,63,43,42,63,63,52,53,43,42,42,63,62,63,53,63,52,42,53,42,42,42,53,63,43,43,42,42,63,63,62,53,63,63,63,43,42,53,63,63,63,53,53,
53,63,53,43,42,63,62,42,53,52,43,52,52,63,53,53,52,53,52,53,52,43,53,42,42,63,43,42,52,63,63,53,53,63,43,42,63,53,53,42,53,63,53,53,63,43,52,63,52,42,43,63,62,63,43,43,43,63,42,43,63,63,42,62,52,43,42,52,43,52,53,53,43,52,42,62,42,42,63,42,43,52,62,52,63,62,43,42,53,42,53,52,52,42,52,63,63,63,63,63,
53,52,43,43,53,63,53,53,63,62,53,63,53,63,63,43,42,43,42,63,52,42,53,63,53,62,43,63,42,42,42,43,53,42,63,42,52,63,52,53,43,63,63,43,42,63,63,43,52,42,43,53,52,43,53,62,42,43,43,63,42,63,43,63,52,42,53,43,42,52,43,43,63,42,52,43,63,42,53,53,63,42,52,63,53,63,52,62,62,52,43,63,53,43,43,53,62,43,42,52,
53,63,42,63,43,53,43,42,53,63,53,63,63,52,63,43,43,43,53,63,63,52,53,63,42,42,43,42,43,43,43,53,62,62,43,53,53,43,63,42,52,52,43,63,63,63,53,42,63,43,62,42,42,43,43,52,63,42,43,63,63,62,63,63,52,43,42,42,42,63,53,63,43,63,42,42,42,63,62,62,52,53,62,43,53,42,52,63,42,43,53,42,53,53,52,52,43,53,63,53,
63,43,62,53,62,42,53,53,43,63,53,42,42,42,42,53,62,43,43,53,62,43,63,62,63,53,52,42,62,53,63,63,43,43,43,42,63,43,53,52,52,52,62,53,43,53,63,42,53,63,43,63,53,52,53,43,43,53,52,52,42,52,43,42,52,63,43,63,53,53,42,42,53,53,42,63,53,63,43,53,52,53,52,62,53,43,63,62,52,42,63,53,53,53,53,43,42,43,62,52,
42,53,52,42,52,52,63,62,53,62,62,42,53,52,42,63,43,43,62,42,42,63,42,62,52,42,42,52,42,43,43,42,42,53,53,52,42,42,42,53,42,53,53,63,42,43,52,63,62,53,43,52,43,62,42,42,42,43,62,52,43,63,43,42,43,63,43,42,43,52,53,43,43,63,42,53,42,43,42,42,52,63,42,43,52,63,63,53,43,42,53,43,53,42,43,42,62,53,43,63,
63,63,62,42,62,52,42,63,42,43,53,53,52,63,62,53,63,42,52,43,43,62,63,62,63,43,53,62,43,42,52,52,52,42,43,63,62,53,63,52,53,53,42,63,62,53,63,42,43,42,53,62,53,53,53,63,62,62,63,63,43,63,62,53,43,53,42,53,62,63,63,63,53,63,43,43,43,42,42,52,62,42,53,43,43,63,53,43,63,63,53,63,53,53,63,53,63,62,52,43,
53,42,53,53,53,53,63,52,42,53,53,63,42,43,52,62,52,63,43,43,53,42,42,43,52,43,43,53,43,53,42,42,63,63,53,42,52,42,43,63,53,63,62,42,43,43,52,53,42,43,53,42,43,63,43,63,43,42,52,52,43,53,42,43,42,53,43,52,63,43,63,43,62,63,42,62,53,63,42,43,42,43,53,63,53,43,43,52,53,42,52,53,43,42,62,62,62,62,43,52,
43,53,42,52,42,43,63,52,43,43,42,52,52,52,62,43,62,43,53,63,43,42,42,43,43,42,63,53,53,63,62,63,63,42,63,62,63,63,63,63,42,63,43,52,62,63,43,43,63,62,53,62,42,52,52,43,63,53,63,53,43,52,43,42,42,43,53,53,63,43,53,52,43,53,62,63,62,62,42,63,43,53,43,42,43,43,52,53,52,43,42,63,42,62,42,43,62,53,53,42,
62,52,53,42,63,62,62,43,53,42,53,43,42,42,63,43,42,53,42,42,43,52,52,43,42,62,63,42,42,42,42,63,63,63,42,52,53,43,53,53,42,52,42,53,62,63,63,42,52,43,42,62,52,53,43,43,42,43,43,43,63,53,63,62,63,42,42,63,63,52,63,42,63,42,63,62,43,53,62,62,63,53,63,42,43,42,63,42,53,52,53,63,52,43,62,43,53,63,42,42,
63,53,63,43,53,42,52,62,43,53,42,63,43,42,42,52,53,43,63,63,53,42,42,62,52,42,42,53,52,62,63,53,42,42,63,42,42,62,43,53,42,53,52,52,43,53,43,43,42,53,62,43,42,42,53,53,53,53,42,43,63,63,42,42,53,63,63,42,62,42,53,43,43,42,63,42,53,53,43,63,63,62,42,63,42,42,63,62,42,53,63,42,63,43,42,53,53,53,52,63,
42,52,42,62,52,62,43,43,63,43,52,42,62,42,53,63,53,42,63,53,53,53,43,63,42,43,63,43,52,43,53,42,52,63,42,43,42,42,43,53,53,52,53,63,53,52,63,62,53,63,43,62,42,53,43,53,63,42,53,43,63,63,53,62,63,63,63,52,53,53,42,53,52,42,42,63,42,63,43,43,62,52,43,52,62,42,52,42,53,43,63,53,43,63,42,42,43,53,53,63,
63,42,52,43,52,53,42,42,62,53,63,62,63,43,53,43,42,62,52,63,53,63,43,63,42,53,43,53,53,42,63,53,42,52,52,62,52,63,63,63,53,62,43,43,53,43,53,63,43,53,63,53,42,62,53,63,42,43,52,43,43,63,62,42,53,52,43,53,42,53,43,42,53,63,43,53,63,43,42,53,43,53,53,52,53,43,43,42,43,53,62,63,63,53,63,53,53,62,52,63,
43,42,63,43,52,53,52,52,42,63,42,63,52,63,42,62,43,53,42,63,43,43,53,53,52,52,43,63,42,63,43,43,42,43,42,43,63,62,52,43,53,42,53,42,63,42,43,63,63,43,62,63,43,43,43,62,42,42,52,63,43,43,42,62,63,53,43,43,62,52,53,43,63,63,42,53,62,42,62,52,43,53,42,53,62,42,42,52,63,63,63,42,42,42,53,63,63,62,42,43,
63,42,53,43,43,63,43,63,63,43,53,63,42,42,53,63,43,52,53,43,52,63,53,52,62,53,52,42,42,42,43,53,52,63,43,63,53,63,62,53,63,43,42,43,53,42,43,42,43,42,43,63,53,53,42,52,53,43,62,43,53,62,42,53,43,43,43,42,63,42,62,62,62,63,43,62,42,42,43,53,63,53,63,63,62,62,63,62,43,42,53,53,63,52,53,53,63,63,43,42,
53,42,43,63,53,63,63,42,42,53,43,42,52,53,63,63,43,53,42,52,63,63,42,63,63,63,62,62,63,53,63,53,63,42,63,63,43,53,53,62,43,42,63,53,53,42,63,62,42,43,63,53,42,42,52,63,42,43,62,53,52,43,52,43,62,53,43,43,63,42,63,62,43,53,62,43,42,43,42,63,43,63,43,43,53,53,53,63,62,63,62,62,43,42,43,62,63,42,42,42,
63,53,42,43,62,42,52,63,42,62,42,42,62,43,42,42,63,62,52,63,42,53,53,53,43,52,53,62,42,42,63,53,52,53,53,52,43,53,43,42,62,42,42,43,53,63,42,63,52,42,42,63,52,53,53,53,53,42,42,62,43,43,62,43,63,42,43,43,42,42,42,42,42,52,62,53,52,43,52,43,53,62,43,62,62,63,52,52,52,63,42,42,43,62,52,43,43,62,63,43,
42,53,43,53,63,43,53,43,42,42,42,63,43,43,43,42,63,43,52,43,43,63,63,42,43,53,63,53,43,52,43,42,42,42,43,63,42,63,62,52,42,53,42,52,62,42,63,53,43,62,53,53,42,63,42,63,42,63,43,52,63,63,52,63,43,52,52,43,42,63,52,53,43,43,53,43,42,43,63,52,53,52,42,53,53,63,43,43,52,52,62,63,62,43,53,53,42,52,43,52,
62,63,63,53,62,63,42,43,43,43,42,63,42,42,43,43,53,42,42,42,63,52,62,52,53,63,62,63,42,62,43,43,52,63,52,52,53,42,52,42,63,53,42,52,53,42,62,62,43,63,63,62,43,43,43,43,43,62,63,43,42,43,53,43,43,42,53,63,43,53,43,63,43,42,53,63,63,43,63,52,43,62,43,43,53,43,63,63,52,53,43,53,52,62,42,53,53,53,62,63,
53,53,43,53,53,62,62,43,43,53,53,63,53,53,53,42,63,43,63,52,63,53,43,62,53,53,63,43,63,63,42,42,52,53,63,62,53,42,42,53,53,42,43,53,42,42,53,62,52,63,42,63,53,63,63,63,52,42,62,42,43,43,43,63,62,43,63,63,63,43,63,62,53,53,63,62,53,63,53,42,63,52,42,42,42,63,42,43,53,63,43,43,52,42,63,53,43,42,63,53,
43,42,42,42,43,53,43,52,43,63,63,42,62,62,43,62,53,43,43,42,63,43,53,43,52,63,63,42,63,43,53,43,42,42,62,52,63,43,52,53,43,53,62,43,42,53,53,42,52,63,42,53,63,63,43,42,63,53,43,63,43,53,43,63,42,42,63,63,63,53,62,63,42,53,43,43,63,62,63,42,53,52,53,62,53,42,43,42,53,42,52,63,42,52,43,63,52,53,63,63,
63,62,53,63,53,53,52,42,53,42,52,63,42,42,43,63,62,63,63,62,52,43,62,43,42,53,43,42,52,43,53,53,43,42,42,53,53,63,52,63,63,63,53,53,42,63,43,53,62,52,42,43,43,63,52,63,53,43,52,62,42,42,53,53,63,63,42,53,62,43,52,63,42,43,42,63,42,53,43,43,43,62,42,53,63,42,52,43,53,42,52,53,42,63,43,63,52,63,43,63,
62,62,42,52,43,63,53,62,63,62,53,42,53,53,63,52,63,62,53,52,53,63,43,53,53,53,63,62,53,62,63,63,42,53,42,62,42,43,43,53,63,43,62,63,63,43,43,43,42,63,63,52,43,42,43,43,52,53,43,43,63,43,62,42,63,53,63,42,52,53,62,63,63,53,42,52,42,52,42,63,62,52,63,42,63,42,62,63,42,43,53,42,43,63,53,52,52,63,63,42,
53,63,43,62,52,42,43,63,43,42,42,63,62,53,53,63,42,43,42,53,53,43,53,53,53,43,53,63,52,63,52,52,43,42,53,42,53,63,42,62,62,52,42,63,43,53,53,63,43,43,62,42,42,52,53,62,52,43,53,63,63,43,43,53,62,53,63,42,42,63,53,53,52,53,62,62,53,53,53,42,42,42,62,63,62,63,62,42,53,52,42,63,53,53,42,53,42,52,53,42
</data>
 </layer>
</map>
