<?xml version="1.0" encoding="UTF-8"?>
<map version="1.10" tiledversion="1.11.2" orientation="orthogonal" renderorder="right-down" width="160" height="90" tilewidth="16" tileheight="16" infinite="0" nextlayerid="3" nextobjectid="1">
 <tileset firstgid="1" source="../tilesets/grass.tsx"/>
 <tileset firstgid="962" source="../tilesets/island.tsx"/>
 <layer id="1" name="Tile Layer 1" width="160" height="90">
  <data encoding="csv">
96,66,65,66,34,35,36,35,34,35,36,96,65,96,64,36,95,96,33,64,95,96,34,36,95,65,66,36,64,35,35,36,65,66,65,96,34,95,35,95,95,64,36,35,33,35,36,34,34,34,66,95,34,96,96,96,34,36,65,35,34,66,36,36,34,35,33,65,36,35,33,95,64,36,35,65,95,35,65,66,96,66,95,35,66,95,34,95,95,96,66,95,96,95,35,66,64,66,35,64,64,36,96,95,35,66,95,64,36,35,33,64,96,65,95,34,34,95,33,65,35,35,95,96,36,33,64,96,95,96,34,33,66,64,65,66,33,33,34,35,34,35,66,34,66,66,33,96,96,34,66,34,66,95,96,34,95,34,34,66,
95,65,64,34,33,36,66,95,34,64,35,33,95,34,35,66,33,35,96,34,36,64,36,66,33,64,34,34,36,64,66,35,65,35,34,36,33,65,35,35,34,36,65,35,96,36,65,36,65,33,34,66,34,34,34,64,65,35,64,34,34,33,34,34,33,36,66,34,95,66,64,36,36,35,66,35,36,65,95,66,33,64,36,35,64,95,95,33,65,33,34,33,64,33,96,33,95,64,64,64,36,33,96,36,33,96,64,33,96,66,96,64,36,33,65,34,35,36,65,65,34,36,33,33,95,66,65,96,96,95,66,35,34,66,65,65,96,33,95,64,35,66,34,34,64,96,95,34,33,64,33,35,36,65,35,34,36,66,66,35,
36,36,34,34,66,35,35,36,33,34,96,36,34,35,34,96,36,36,66,33,34,64,64,66,34,35,64,35,96,95,33,36,64,33,66,95,95,34,34,95,65,95,95,35,66,34,95,96,95,64,65,64,66,33,36,64,65,64,65,66,65,33,95,65,35,66,65,35,96,65,33,36,33,33,36,96,35,64,66,33,96,33,33,34,96,35,96,64,34,95,64,95,34,64,36,95,64,96,65,64,36,64,33,96,66,35,95,96,64,35,66,34,35,95,65,33,95,95,66,64,36,34,34,34,33,96,33,34,65,96,66,66,95,36,96,95,35,96,65,33,95,64,35,64,96,34,35,36,96,66,64,35,66,96,34,96,95,34,36,64,
96,36,66,34,36,35,36,95,36,64,95,66,65,33,64,34,35,65,33,34,95,64,66,34,96,64,96,95,64,64,65,65,96,36,34,35,33,35,35,35,64,34,36,95,33,33,66,36,66,65,64,95,66,95,65,35,34,36,33,65,64,34,36,64,36,64,95,36,96,35,95,33,96,64,64,64,33,64,64,64,95,64,35,66,95,35,95,95,34,64,33,35,64,66,36,36,66,33,96,64,95,35,66,36,36,95,34,66,33,64,66,36,66,35,33,33,95,34,33,36,65,66,35,33,96,95,96,66,35,36,65,66,35,35,34,65,96,35,65,33,65,66,96,96,66,95,64,33,36,64,33,33,34,96,64,34,33,33,36,65,
34,34,35,95,33,95,36,64,96,36,34,65,33,65,65,36,34,33,36,36,65,36,35,36,36,96,95,96,66,36,36,95,64,36,66,34,95,36,65,66,66,33,36,66,36,65,35,35,66,96,34,64,65,65,35,35,65,36,34,34,35,64,36,35,36,33,96,65,64,66,95,36,64,65,64,33,95,36,66,33,36,36,96,95,95,65,66,64,34,95,33,66,35,36,35,95,34,33,33,35,65,96,96,34,95,95,95,35,33,95,65,64,36,66,66,95,33,34,35,96,35,66,64,36,35,96,65,64,64,64,33,34,95,34,66,95,33,64,95,96,65,66,96,66,65,95,65,64,35,64,95,66,66,66,66,66,95,35,65,96,
35,66,64,36,64,64,34,65,36,33,65,66,66,36,33,35,35,96,66,96,33,65,66,66,64,35,96,65,95,33,66,64,36,96,36,66,33,65,64,96,95,96,35,95,95,35,35,96,65,33,66,64,95,96,64,64,95,35,36,64,33,96,96,33,35,95,66,33,35,33,96,66,95,34,95,36,65,34,35,36,66,34,95,36,35,64,36,35,66,66,66,33,66,96,35,65,66,66,36,34,34,33,95,96,96,34,65,66,64,64,95,36,95,66,95,35,35,96,34,66,64,96,34,36,66,36,36,34,95,96,36,95,64,64,96,95,35,36,34,64,34,66,64,64,34,35,96,95,35,65,35,36,64,64,36,34,96,66,95,66,
36,34,66,33,35,35,34,34,65,34,36,96,33,64,33,95,95,35,33,96,95,35,34,36,65,35,36,95,36,96,65,65,35,96,65,35,35,33,33,64,96,34,96,34,36,66,33,65,35,34,95,66,96,95,96,35,34,95,95,95,34,95,33,95,96,65,65,34,36,33,34,96,34,95,64,33,64,66,66,64,35,34,66,95,64,33,96,66,33,65,35,36,65,34,65,95,65,35,95,65,35,96,33,34,66,34,65,96,64,64,33,34,66,65,36,64,64,96,34,96,33,95,95,65,35,65,64,35,65,33,64,66,95,36,34,65,66,33,34,96,96,33,35,34,96,96,35,35,33,64,33,66,95,65,35,66,64,64,35,36,
65,36,66,96,34,34,66,66,96,33,95,95,34,33,36,96,65,35,66,95,33,35,64,36,64,36,65,95,64,35,96,96,66,36,66,33,65,65,35,33,36,96,65,96,65,36,35,65,95,65,35,65,66,65,96,34,64,33,36,35,34,66,36,34,66,33,95,34,96,33,34,64,34,96,33,34,64,64,35,33,66,35,96,36,64,66,34,33,36,95,33,96,65,36,66,33,65,34,95,35,95,36,66,35,66,65,95,34,33,66,35,34,33,33,66,35,95,66,36,65,33,95,66,36,64,35,95,33,34,66,66,35,36,36,34,34,33,65,64,33,65,96,65,96,65,35,34,64,96,33,64,64,95,95,35,35,65,34,35,35,
96,64,95,34,66,65,96,34,34,66,34,66,36,36,95,66,95,34,33,64,33,66,64,95,36,95,96,34,33,66,65,96,36,33,95,96,36,96,66,34,36,33,95,35,65,65,95,36,96,35,36,96,36,95,64,95,66,34,96,66,33,35,65,96,66,35,95,33,65,64,34,96,96,96,34,34,34,64,64,66,65,95,95,96,36,36,33,66,34,96,96,35,35,34,36,34,95,35,34,66,65,64,34,95,95,96,35,35,34,66,34,34,34,96,35,95,95,95,35,35,95,95,36,64,36,34,35,34,65,95,35,33,35,66,35,66,65,95,64,66,35,66,66,66,96,95,33,34,96,34,35,34,64,36,66,33,64,34,33,35,
34,35,96,34,95,33,34,35,36,95,36,65,36,96,36,95,33,65,34,96,66,34,64,36,64,95,33,65,64,35,64,35,95,33,96,95,96,33,95,35,34,36,66,64,36,96,34,96,34,66,33,36,64,64,65,66,65,66,66,33,35,96,65,33,66,34,34,36,64,34,35,33,66,34,96,96,96,95,33,33,96,35,64,35,36,35,33,64,65,35,36,33,66,33,33,64,65,95,35,33,96,33,33,66,34,36,95,95,33,65,34,64,33,96,35,95,34,35,95,65,33,33,35,35,95,96,95,65,34,64,36,96,35,65,33,65,66,33,34,65,36,34,95,64,96,36,96,95,95,66,65,95,36,34,35,64,35,34,65,95,
36,35,64,95,96,35,64,35,34,66,36,95,65,96,95,66,66,64,64,65,36,66,36,66,33,34,66,65,65,65,33,64,35,33,66,65,96,95,35,33,96,65,36,34,66,95,33,64,95,34,66,36,33,65,96,36,35,66,95,35,66,35,96,96,65,36,96,66,34,65,64,95,64,66,96,65,34,95,34,65,65,96,34,33,64,36,33,35,36,96,34,64,65,66,96,66,65,65,36,65,66,35,96,35,64,65,35,34,64,36,34,34,64,34,64,33,35,64,95,36,33,96,95,35,36,64,35,64,96,64,33,36,34,34,35,35,64,35,33,96,66,66,95,34,34,64,35,33,64,96,33,34,33,66,34,64,36,65,34,95,
35,35,66,64,96,36,64,34,64,33,96,33,95,34,35,95,33,95,95,35,96,66,34,65,65,96,35,33,35,33,96,96,65,64,33,33,33,34,34,95,33,96,64,34,65,34,35,35,96,65,65,95,33,65,36,95,34,33,35,64,66,35,96,65,36,64,34,34,66,65,65,65,36,65,35,34,95,64,95,65,35,35,66,36,34,34,65,33,65,64,34,65,96,64,34,33,36,34,65,35,34,64,34,35,95,33,36,95,35,34,96,66,66,35,95,35,64,34,36,34,34,95,95,96,33,34,35,36,64,34,34,66,34,36,35,65,66,36,34,65,36,35,36,65,64,65,33,66,36,33,33,35,95,64,66,33,36,65,35,64,
36,95,33,65,36,36,64,65,35,66,66,33,36,95,36,96,36,95,95,66,34,96,33,36,36,95,35,66,34,35,96,35,95,96,95,65,34,66,66,64,36,95,95,65,33,35,36,96,35,36,35,34,65,33,65,95,96,34,34,35,64,64,34,96,96,96,34,35,96,35,95,95,64,34,95,36,35,96,66,65,95,95,95,95,66,95,65,64,66,65,96,34,65,95,65,34,95,33,66,95,65,65,36,64,33,35,33,33,35,35,66,66,33,95,35,34,95,33,34,36,33,34,35,33,35,36,64,65,66,95,35,35,95,95,95,64,34,66,33,65,33,35,33,36,36,36,95,64,95,96,35,95,64,34,36,33,96,64,95,95,
64,66,36,66,65,36,64,34,95,95,65,96,34,34,65,65,95,34,35,36,34,65,96,35,64,64,35,34,33,34,65,35,95,95,96,96,34,65,36,34,66,36,64,33,34,33,36,66,96,66,34,65,33,35,33,36,33,33,34,33,34,66,35,65,96,36,95,35,33,36,65,34,36,64,36,96,35,64,34,36,34,33,35,95,33,95,95,64,36,34,66,65,34,95,66,65,95,64,96,35,35,64,34,34,96,36,65,64,33,65,33,35,34,95,66,64,34,33,64,96,35,34,36,36,96,66,36,66,65,33,65,33,96,33,95,96,95,35,34,64,64,64,66,64,34,34,35,35,64,36,66,66,96,34,66,66,33,35,65,65,
35,96,34,96,34,66,64,65,36,96,64,96,65,35,96,33,35,65,34,95,65,64,34,35,66,66,64,95,66,35,34,35,65,95,64,95,35,34,34,33,36,64,64,35,36,96,64,66,65,33,34,95,34,64,96,96,65,95,36,64,65,33,64,35,36,36,33,36,65,33,64,35,96,66,33,95,34,66,96,66,33,35,96,64,33,33,36,33,95,64,34,33,35,33,36,65,96,95,64,36,36,66,36,33,64,96,66,36,96,66,64,95,33,34,96,65,64,33,96,33,36,64,64,96,35,66,66,36,95,33,35,36,35,35,34,65,95,33,36,66,33,34,36,34,34,95,36,64,34,95,36,96,35,66,95,64,64,95,36,35,
64,36,36,64,34,35,36,64,66,95,36,66,36,33,95,65,96,35,34,96,35,64,35,95,95,64,35,35,34,95,36,33,36,33,95,33,34,35,33,35,64,35,36,36,36,64,35,35,34,36,96,36,66,34,96,35,95,95,96,65,64,64,96,33,66,64,35,64,65,34,35,96,36,64,65,95,65,35,95,96,66,64,64,64,35,66,34,64,64,65,64,36,66,66,33,66,36,95,36,95,65,66,33,34,95,34,66,96,36,33,33,66,36,65,34,64,96,64,36,35,64,36,34,33,65,36,34,33,35,65,64,35,34,34,95,96,64,36,96,95,33,33,35,36,35,33,95,33,66,65,64,66,34,35,64,36,65,65,36,35,
66,64,64,36,95,66,96,35,96,35,35,35,66,96,96,95,96,96,35,65,95,95,36,36,34,34,33,36,65,95,33,36,33,33,66,65,33,64,66,95,36,66,65,35,96,34,35,64,64,33,34,64,95,36,65,64,33,96,66,96,96,66,34,64,65,36,95,36,34,66,33,33,33,66,66,66,33,66,65,95,36,65,65,33,96,95,66,33,96,35,95,96,95,66,36,95,34,65,64,66,35,64,96,95,36,65,33,35,35,66,33,64,66,65,36,34,34,34,96,65,34,33,35,34,65,36,33,35,34,35,34,96,34,64,65,64,65,34,36,65,65,66,34,36,36,96,95,66,95,66,33,33,35,96,36,36,66,64,64,33,
65,34,33,34,95,66,34,35,35,95,66,36,95,36,96,64,66,64,33,34,36,66,66,36,36,66,34,64,65,34,65,66,36,35,96,36,95,35,34,66,96,96,33,33,33,64,96,95,96,96,34,35,34,66,95,65,64,96,64,66,34,36,96,35,35,65,64,65,96,64,33,96,35,95,36,96,96,64,96,64,95,64,34,33,66,64,96,96,34,64,64,65,96,33,35,33,66,96,64,36,95,96,34,34,64,65,64,35,35,34,35,35,34,33,65,64,34,66,65,95,35,64,96,64,65,95,34,36,66,34,35,36,65,34,95,95,64,96,36,64,65,33,65,96,64,95,33,35,65,35,36,66,66,95,66,95,96,64,36,66,
35,95,34,36,34,36,36,33,95,65,95,64,66,66,95,34,35,95,65,35,66,34,66,34,66,35,64,34,96,96,36,34,64,64,66,33,65,36,34,36,65,66,33,35,36,36,66,36,95,34,65,64,95,64,95,65,34,65,33,96,66,66,95,66,65,35,66,96,34,65,34,95,35,33,96,96,34,66,96,66,65,35,34,66,35,65,95,36,36,36,64,35,35,66,95,64,33,36,65,66,33,33,95,66,35,65,36,33,36,95,64,33,95,36,34,36,35,36,66,95,96,64,66,36,34,65,36,95,36,96,34,66,96,65,96,95,36,96,96,36,66,36,66,96,64,65,95,34,65,66,95,64,66,33,65,36,65,33,96,96,
65,96,34,33,66,33,36,65,35,36,65,65,35,95,96,33,64,64,66,96,35,35,34,36,34,36,34,64,64,64,65,33,35,66,64,36,95,66,95,64,66,34,35,64,95,66,96,65,66,34,96,35,36,96,66,36,64,33,96,65,34,96,35,96,66,64,66,96,95,34,66,34,35,65,36,95,36,65,65,95,95,33,36,66,36,64,35,66,64,96,64,36,35,66,66,65,35,65,34,95,34,66,36,96,33,66,65,65,66,64,66,65,64,33,64,95,34,64,95,34,96,36,36,95,95,35,33,36,65,66,95,34,66,33,35,66,66,96,65,65,96,33,95,35,64,34,65,66,35,95,34,66,35,64,66,96,35,95,34,34,
33,33,36,34,65,65,65,64,33,35,65,66,64,34,36,34,64,33,33,95,33,35,35,65,35,34,34,35,64,36,33,65,64,66,36,96,34,36,34,33,95,35,96,66,65,66,95,66,64,34,35,96,96,35,33,64,35,36,33,66,33,66,35,64,96,35,33,34,64,33,66,36,33,36,35,33,35,65,96,96,35,33,35,34,64,96,96,33,65,64,65,96,35,36,66,36,64,64,95,33,65,66,33,66,65,95,35,65,96,64,66,96,64,35,36,64,65,36,33,96,65,95,66,33,33,65,64,95,35,35,33,65,96,66,34,35,96,33,96,66,96,66,36,35,34,64,96,33,36,35,33,96,66,36,66,33,66,96,35,34,
95,36,95,33,65,35,33,66,65,33,66,36,95,66,33,34,36,96,33,96,64,35,96,96,34,96,95,36,96,95,34,33,35,33,34,35,65,65,33,64,96,36,66,36,65,33,96,64,36,95,65,96,35,95,66,66,33,36,66,35,35,65,66,96,64,66,66,96,33,64,66,66,35,34,35,35,33,96,95,65,65,64,65,36,66,34,66,35,34,33,36,66,33,96,96,33,36,96,64,33,35,36,34,96,96,65,36,36,33,95,66,36,34,35,34,36,65,34,66,35,66,35,96,65,95,96,33,64,65,96,34,96,35,95,96,34,34,34,34,33,34,34,65,33,95,65,95,35,64,96,96,96,96,35,34,35,66,96,96,64,
34,35,65,34,35,65,34,34,65,96,96,95,95,95,65,66,64,64,66,66,65,36,35,96,34,33,96,95,65,95,33,35,95,34,33,34,66,64,64,65,33,35,95,96,36,64,66,96,35,34,64,33,35,66,96,65,64,64,33,64,35,65,66,96,34,64,35,95,36,36,66,64,35,36,36,65,96,64,35,66,34,65,33,36,96,34,66,36,36,35,64,33,36,66,64,34,65,96,33,95,35,95,96,36,35,36,35,96,66,66,65,35,65,95,34,65,66,36,34,34,65,65,33,36,33,66,64,96,95,66,35,64,96,64,36,34,66,66,65,66,35,66,64,34,34,64,33,36,66,36,36,64,34,35,36,36,65,35,66,65,
33,35,65,64,36,64,33,66,36,36,64,35,95,66,33,35,65,35,96,95,95,64,64,66,65,96,64,96,34,34,65,64,64,66,96,33,65,34,34,66,36,64,35,35,64,36,35,96,36,66,64,95,95,64,66,64,65,33,65,34,65,34,65,33,96,95,34,33,36,33,64,34,96,66,96,96,33,96,65,96,66,34,65,35,96,65,34,35,35,64,96,34,35,64,36,96,35,64,95,34,34,66,65,64,66,66,96,95,65,33,95,64,64,66,95,65,95,34,35,65,96,95,95,65,33,64,66,64,33,33,95,96,66,33,36,36,33,96,34,34,95,65,65,36,34,65,35,35,66,34,33,33,33,34,34,34,66,33,65,33,
35,33,95,65,34,36,95,64,96,96,65,95,64,64,95,65,66,35,65,34,65,64,34,66,96,96,33,95,35,64,36,34,66,95,66,65,66,33,35,65,96,66,66,96,95,34,65,66,96,34,36,95,36,64,35,96,96,34,66,96,33,36,33,96,96,95,66,65,95,36,95,64,35,34,64,64,33,36,65,35,36,33,35,34,33,65,65,64,66,36,35,66,66,95,95,36,36,64,96,65,34,64,66,95,34,95,33,66,95,66,33,96,95,96,35,96,33,33,64,35,34,65,95,65,36,66,33,34,34,33,96,66,95,95,33,64,65,65,66,35,95,36,34,66,95,34,33,35,96,65,36,34,34,33,35,96,35,36,33,65,
36,36,34,64,34,96,34,33,95,96,36,34,66,65,95,33,65,64,95,65,65,65,35,33,33,33,35,64,33,66,35,96,64,34,95,96,35,65,65,66,34,65,33,35,64,34,64,34,65,33,34,66,95,34,64,64,96,65,36,64,34,65,65,95,66,36,95,33,34,96,36,34,64,35,66,66,36,34,36,95,33,65,35,35,36,34,65,35,66,95,96,65,65,36,35,95,34,65,96,35,95,95,66,66,65,96,33,34,64,34,33,95,36,66,65,95,35,66,33,96,65,96,35,65,33,96,34,36,66,36,95,36,95,33,36,65,96,64,36,96,65,34,64,36,64,36,36,66,64,65,64,65,34,36,66,96,66,96,33,66,
35,95,33,65,96,96,66,96,36,33,33,65,66,35,96,34,65,33,96,65,96,65,36,66,35,33,66,33,65,64,33,36,65,95,66,33,34,34,95,66,36,34,36,34,35,34,65,65,33,96,33,64,96,34,64,34,96,33,35,65,65,33,35,64,33,66,96,36,35,35,64,64,96,95,95,36,96,65,66,36,36,65,34,34,35,96,36,66,66,96,66,95,95,65,36,95,36,65,35,36,35,66,64,65,33,36,34,96,36,96,95,33,35,66,64,64,33,33,33,34,35,95,35,64,64,65,66,35,65,36,33,96,66,35,64,66,35,35,33,36,35,64,35,36,96,65,36,96,33,96,96,95,36,35,64,64,35,66,96,65,
34,66,34,34,36,34,66,65,64,66,35,35,35,65,33,34,64,35,96,36,64,66,34,35,95,33,35,34,33,65,96,36,34,33,96,66,96,65,35,64,36,36,34,65,65,96,65,96,64,33,95,33,95,34,33,96,95,34,35,96,33,35,95,66,96,95,36,65,96,35,95,34,64,34,33,95,64,35,64,35,64,66,35,66,95,33,35,34,34,33,35,35,33,96,96,65,95,35,66,33,66,96,36,64,34,36,35,96,66,34,34,36,64,33,96,95,64,66,66,64,65,95,96,35,64,66,65,33,34,33,64,64,36,36,66,36,65,96,66,66,35,36,95,35,96,34,95,35,64,96,65,65,33,36,64,95,95,35,64,34,
95,95,65,66,33,66,35,34,34,64,66,64,66,65,35,35,36,95,64,65,66,36,64,96,96,66,96,34,66,66,34,34,64,65,96,95,33,64,95,64,96,33,33,96,65,36,96,96,35,66,64,64,65,36,96,35,66,95,95,34,95,65,34,64,95,66,95,34,35,66,65,96,33,96,33,65,64,35,96,64,64,66,96,34,65,65,33,64,36,65,64,33,34,34,65,65,66,36,33,96,65,95,34,66,36,35,36,36,65,36,95,65,33,95,95,66,95,33,34,96,36,33,64,66,66,35,64,64,95,36,35,33,33,96,65,64,95,64,33,33,65,66,96,36,35,66,96,33,33,34,96,96,64,36,64,66,96,33,34,95,
64,65,66,36,96,36,65,33,95,65,36,36,64,35,64,65,65,35,34,65,36,35,36,96,66,33,36,64,65,35,33,35,95,95,34,96,36,96,66,34,96,95,36,65,66,33,64,95,34,66,96,95,65,35,95,95,33,66,96,34,34,95,36,64,95,96,33,36,33,65,95,35,64,66,65,34,66,36,35,66,35,35,33,36,95,34,36,64,33,35,66,65,35,36,66,66,36,65,95,36,64,96,96,65,64,33,33,36,35,35,36,34,34,34,33,34,65,34,34,35,35,96,66,36,65,36,34,33,34,35,65,36,36,36,36,36,36,96,35,35,96,35,35,96,95,36,64,35,33,96,36,65,33,96,66,96,36,95,36,65,
95,33,33,34,64,33,34,65,36,34,34,36,66,34,35,36,66,66,64,34,33,65,35,96,64,96,33,35,33,64,34,35,33,64,95,96,65,34,35,34,34,64,36,65,95,96,95,65,65,96,36,33,96,34,36,34,36,33,36,96,66,34,66,66,36,95,36,35,66,66,96,34,35,66,36,66,96,95,95,64,95,96,34,34,64,36,34,66,96,36,33,66,95,64,34,96,64,96,66,35,96,64,36,66,95,95,95,95,96,65,96,64,95,33,65,33,65,64,96,35,35,33,35,64,64,35,35,96,66,96,35,64,34,64,66,66,65,33,33,34,96,34,65,66,64,34,66,35,33,36,64,95,36,96,33,36,65,95,96,96,
34,35,35,96,96,66,33,64,66,95,33,35,33,95,33,66,95,96,36,35,95,33,95,35,35,34,36,34,66,35,36,95,36,33,34,65,65,66,36,34,66,33,96,65,34,95,96,36,66,96,35,64,65,33,96,34,34,33,64,65,35,64,65,34,35,66,96,33,36,65,95,64,66,96,64,36,95,96,65,34,64,64,35,66,65,35,35,64,96,34,95,33,95,33,66,35,33,36,66,34,36,33,36,64,65,34,95,36,33,36,96,96,35,34,33,64,36,35,35,65,36,96,95,64,95,34,96,66,66,36,34,64,65,36,65,96,64,65,96,34,96,65,34,64,96,95,96,33,64,64,96,34,35,64,66,95,33,35,34,64,
35,36,96,65,33,34,36,64,35,66,36,34,33,35,66,34,36,65,66,95,36,34,64,33,36,34,33,95,33,66,66,95,33,33,33,36,64,35,65,33,35,65,64,33,34,33,96,35,96,64,36,64,66,64,34,34,65,34,96,36,95,65,36,95,96,96,36,96,66,95,33,36,66,35,64,66,96,33,65,36,36,66,96,95,65,35,35,36,64,33,66,35,33,64,36,36,33,33,96,65,35,34,33,65,35,95,34,95,64,96,35,64,36,34,36,33,64,66,95,36,96,65,96,95,65,33,96,66,65,34,65,66,64,66,64,95,95,66,34,34,34,65,66,96,35,65,35,33,64,34,95,35,65,64,95,34,35,95,35,64,
96,95,65,66,66,66,95,65,96,95,95,64,96,34,65,65,36,96,66,33,64,65,65,35,64,95,36,64,34,36,33,96,33,65,64,33,64,66,95,33,34,96,33,66,36,34,36,96,34,64,64,95,34,96,33,95,33,36,66,33,65,35,65,36,36,65,33,96,35,34,64,66,36,96,66,65,36,95,95,36,96,65,95,66,36,95,64,36,96,34,95,65,36,35,65,35,66,66,96,34,65,64,34,36,64,95,34,33,65,35,64,96,33,33,36,66,33,36,64,34,33,64,64,33,65,65,36,64,64,64,66,64,33,36,64,36,95,95,65,35,64,34,66,95,33,33,36,35,66,66,34,66,66,64,96,34,95,36,33,66,
96,36,33,96,34,66,34,64,95,35,66,36,64,34,64,96,36,95,66,96,96,35,96,35,96,34,95,96,35,65,64,65,66,95,95,36,64,36,65,96,36,36,34,65,64,65,65,33,33,95,33,65,36,66,36,95,34,64,35,35,35,33,33,33,66,95,95,64,66,96,66,64,95,66,65,35,65,64,96,95,95,36,34,35,36,95,96,35,66,65,35,96,66,35,36,66,36,35,65,66,96,96,95,96,33,96,34,65,64,33,33,34,34,35,33,65,36,35,95,65,34,34,96,33,33,96,95,95,64,66,35,66,33,95,66,33,65,64,36,33,36,36,33,64,36,95,96,34,35,33,34,95,33,36,34,96,64,95,36,64,
65,65,35,36,35,64,64,96,33,65,35,34,34,95,66,96,36,64,64,35,64,33,33,95,35,35,64,33,34,64,65,34,96,95,33,96,64,95,33,36,64,36,66,96,34,64,95,96,33,65,33,36,35,96,64,65,34,34,96,35,64,33,64,33,96,34,33,96,95,33,65,95,36,95,95,66,66,96,33,95,96,65,65,66,96,66,65,34,36,65,36,96,66,66,95,35,35,95,64,96,96,36,36,95,64,33,66,35,34,66,35,65,96,64,65,33,66,95,65,33,96,96,34,65,35,34,65,33,34,34,66,34,96,34,66,65,36,65,33,33,65,33,33,96,95,65,95,96,96,65,33,36,64,95,66,65,34,34,65,36,
64,66,36,96,33,35,34,96,96,96,64,35,34,34,65,65,66,95,35,65,35,65,65,96,36,35,95,65,35,34,65,33,36,34,34,36,64,35,64,65,95,34,64,36,36,64,95,34,35,95,36,35,96,96,35,35,66,66,64,33,35,66,36,36,35,95,96,65,96,65,95,64,64,65,95,66,66,66,96,36,33,66,34,35,65,66,96,95,96,65,33,65,95,33,95,64,64,33,34,34,65,96,64,95,36,65,64,96,66,33,34,34,33,96,64,95,96,34,66,96,33,33,66,33,96,95,64,95,33,35,64,64,33,33,96,66,64,36,66,35,95,95,64,36,64,33,36,36,65,65,35,36,95,64,33,33,36,35,35,64,
65,35,66,66,36,65,95,64,96,36,35,35,33,95,64,64,33,34,66,95,36,66,35,66,36,35,36,66,66,95,96,36,34,33,35,64,35,65,95,64,34,35,36,34,96,66,34,64,95,33,95,64,33,96,33,95,64,36,33,36,65,96,66,35,36,33,95,66,95,36,34,34,95,36,35,33,33,96,35,34,34,96,36,34,64,65,64,95,96,34,36,36,36,65,96,33,36,95,34,34,66,66,95,95,64,34,34,66,33,66,64,65,34,33,64,33,35,64,64,65,36,34,34,95,65,66,65,96,66,66,35,96,34,34,35,33,96,65,33,34,66,64,66,65,66,96,35,35,35,96,33,34,34,34,95,96,64,96,66,66,
65,36,66,95,35,96,96,95,35,65,65,36,95,64,64,64,65,65,36,95,35,64,64,34,36,35,96,66,35,33,64,96,95,35,36,64,36,66,64,66,34,66,66,36,34,33,35,96,36,66,96,34,36,66,95,64,33,96,64,65,34,95,34,95,35,36,34,33,96,95,96,33,35,96,96,34,64,34,95,64,36,33,36,65,95,35,64,34,34,33,65,36,66,95,96,34,64,95,33,65,36,33,95,66,95,35,95,33,95,64,33,95,96,65,95,65,95,64,33,66,96,34,33,33,95,65,36,34,66,33,65,64,64,96,33,35,95,35,33,65,96,96,64,36,66,36,96,35,34,66,33,95,33,95,34,95,33,64,66,66,
34,36,36,96,36,34,66,65,65,66,34,33,36,96,95,35,66,95,65,36,96,96,34,95,36,35,65,35,34,95,35,36,96,66,33,64,64,34,95,36,96,66,95,95,95,33,65,66,95,33,36,36,96,64,95,95,64,66,96,66,33,95,65,65,64,66,65,34,36,95,65,64,36,33,65,35,64,95,35,34,36,65,34,95,95,34,66,66,96,34,34,95,95,66,33,34,95,35,65,65,33,36,95,95,36,96,95,65,95,66,33,36,65,33,96,33,36,33,34,65,65,96,36,35,35,65,95,35,33,95,65,34,66,36,33,66,66,65,66,36,65,33,34,36,65,65,66,65,65,65,64,64,36,34,33,95,35,96,34,34,
36,64,36,33,96,34,95,96,96,35,66,35,33,95,34,95,64,34,33,66,34,64,33,95,95,64,64,33,35,66,34,34,96,96,64,66,65,34,35,36,64,36,65,95,96,65,66,36,64,33,64,36,36,96,33,64,65,34,34,33,65,65,35,33,35,95,64,33,96,35,35,33,66,96,35,95,35,96,34,65,64,36,66,65,95,34,66,66,36,65,95,96,33,66,64,95,66,33,35,36,64,66,34,96,33,65,36,95,33,66,66,95,96,96,35,64,66,95,95,33,66,36,33,65,95,95,95,36,36,95,36,36,64,96,65,34,95,34,35,35,65,36,33,65,66,33,95,66,96,34,34,34,33,33,64,65,95,66,66,64,
96,96,34,33,95,95,34,95,95,96,34,96,36,64,35,66,96,96,35,35,95,65,66,64,64,64,95,96,96,34,95,64,36,33,95,95,34,33,35,34,35,33,96,33,65,66,64,64,96,35,65,66,36,34,34,36,65,35,66,35,34,33,95,35,36,36,65,64,33,33,65,36,33,33,64,35,64,95,33,33,66,36,96,65,33,36,65,36,66,36,35,35,35,34,95,34,35,36,66,66,96,96,35,33,64,64,95,64,65,33,33,66,65,36,95,36,95,65,34,33,36,66,66,64,95,36,96,95,96,33,65,95,96,66,64,34,65,33,33,66,95,34,95,36,64,34,96,64,34,96,64,65,96,96,36,35,36,95,36,66,
95,96,35,33,33,96,96,33,64,33,35,35,35,95,36,64,34,35,34,95,34,35,96,96,36,33,35,33,65,36,36,34,33,36,66,35,95,65,65,64,33,35,33,65,35,34,95,96,35,96,36,33,35,64,64,36,33,95,35,34,64,64,36,95,33,65,36,35,95,33,33,95,33,64,96,64,64,34,64,35,34,96,96,64,66,96,33,65,64,35,66,95,33,95,65,36,35,35,36,64,36,65,34,65,95,36,96,65,34,96,95,66,66,96,95,35,64,64,95,34,65,33,33,33,34,65,66,35,95,65,36,33,35,64,66,35,36,34,96,65,95,64,36,95,36,64,95,66,64,64,95,36,34,64,66,96,66,36,66,34,
33,96,36,96,66,95,65,34,36,66,35,36,64,66,35,33,33,65,35,66,35,64,33,64,33,66,96,35,66,36,65,66,95,35,96,36,34,36,34,35,33,64,34,66,96,34,66,36,65,96,96,96,33,34,96,36,33,34,36,34,96,95,64,33,64,65,34,96,65,36,65,96,64,36,66,95,34,64,65,96,36,33,64,65,35,65,36,64,96,66,96,36,66,33,36,35,65,36,33,66,95,66,66,36,96,35,36,65,66,33,95,95,66,36,34,36,34,35,34,95,66,34,66,36,95,35,36,33,33,34,66,64,35,66,66,95,96,35,66,36,33,64,33,65,35,96,33,95,64,65,65,65,34,64,65,34,64,33,64,33,
34,65,33,66,33,35,33,65,66,36,36,36,33,35,33,64,96,64,65,64,65,35,33,66,95,34,65,35,66,65,65,35,64,36,96,36,33,66,95,95,34,66,36,36,36,36,95,36,34,66,66,66,36,65,64,66,64,95,34,35,35,66,36,64,33,34,66,66,66,96,95,95,64,64,36,33,64,36,35,34,36,36,33,64,34,35,33,36,65,95,34,36,96,33,35,96,35,65,36,65,33,65,36,95,33,66,96,36,34,64,64,64,34,95,66,95,64,64,95,35,96,65,35,64,35,33,35,34,36,95,66,33,66,96,64,34,66,95,66,96,64,96,65,36,96,36,95,95,65,66,35,66,64,66,66,64,33,66,34,66,
65,65,96,34,95,35,64,35,96,33,36,35,95,33,95,66,95,33,35,35,34,65,33,96,64,66,66,66,65,36,95,65,95,35,96,33,96,96,65,66,64,65,35,36,36,34,66,96,35,66,33,35,65,95,34,66,96,36,34,36,36,34,33,35,96,95,64,35,36,65,64,66,65,64,96,66,66,33,35,66,96,95,64,36,65,65,66,35,36,33,65,96,35,36,34,95,95,95,33,36,33,96,33,33,96,95,64,33,66,33,96,36,95,35,36,34,66,96,35,96,33,65,96,95,96,34,66,34,33,33,34,66,34,33,66,96,36,96,35,95,96,36,36,34,96,96,33,64,35,33,35,96,34,36,96,35,66,96,65,65,
65,36,33,66,64,95,66,36,66,33,66,95,34,36,66,34,35,35,96,96,66,66,95,66,35,34,65,64,35,65,65,96,35,35,64,35,96,95,96,66,64,66,35,36,33,64,33,35,96,96,34,65,35,96,65,96,95,33,66,66,33,64,96,34,35,95,64,95,33,36,34,36,36,33,34,36,34,96,66,66,33,95,95,33,66,35,34,34,66,33,66,96,95,96,64,64,95,33,96,95,64,35,65,33,65,65,33,34,95,96,64,66,34,95,95,34,96,66,35,36,66,35,65,96,65,36,95,96,66,95,66,34,33,64,36,35,33,95,33,36,65,96,35,34,35,33,33,65,96,65,64,96,66,66,33,36,95,64,34,65,
33,33,66,66,64,34,34,96,35,35,66,65,66,95,36,96,96,96,34,95,33,66,35,33,34,33,64,65,66,35,33,66,34,95,35,95,95,33,33,65,96,96,65,34,35,96,96,36,95,33,65,95,95,35,34,36,34,65,96,33,33,66,34,95,65,66,33,65,96,95,33,66,65,66,64,66,96,96,36,65,64,66,64,65,64,36,65,66,33,66,65,64,36,35,95,33,64,64,35,33,34,65,35,36,65,34,35,64,64,96,65,35,66,34,36,64,96,65,33,66,96,96,35,34,66,33,64,64,95,64,35,34,95,65,36,95,95,33,66,96,35,65,95,36,33,35,33,35,66,35,95,66,34,96,36,34,35,33,33,66,
34,35,95,96,65,95,35,33,65,96,33,34,64,64,65,66,64,95,36,33,36,34,66,36,96,33,66,96,64,33,36,64,34,33,36,33,35,36,66,34,35,34,65,66,34,64,34,66,96,34,96,34,65,35,33,95,35,64,34,96,33,36,64,66,66,96,65,33,64,64,33,34,66,36,34,66,96,96,66,65,33,36,64,34,64,35,35,66,95,95,33,95,33,33,64,35,36,33,66,33,33,66,66,66,66,65,66,95,64,35,64,95,95,65,96,65,34,34,35,96,95,33,34,33,33,33,36,66,35,35,95,66,33,95,36,66,33,64,33,33,34,64,64,65,65,64,96,33,64,66,35,64,66,66,65,66,65,33,65,35,
96,96,96,96,33,33,95,36,66,64,33,33,95,33,95,96,35,96,65,36,66,33,34,66,65,95,33,35,66,36,36,95,95,33,95,34,36,33,65,34,66,65,96,66,64,96,65,64,65,35,96,36,33,66,96,36,64,35,65,96,66,35,34,66,96,66,65,65,35,65,33,35,64,96,35,65,65,95,66,96,36,66,36,34,34,64,96,95,65,66,66,95,36,36,35,35,95,95,65,66,35,96,65,96,95,66,36,65,35,35,66,64,33,66,33,35,34,35,65,35,64,35,65,96,66,36,96,64,64,33,96,65,34,64,33,34,66,35,95,34,95,65,66,65,34,95,96,65,65,66,95,35,34,66,95,34,95,96,34,95,
64,36,65,65,66,64,95,34,36,33,64,95,33,95,65,33,34,96,34,66,95,95,35,34,65,66,66,33,96,66,34,66,65,95,33,65,65,34,95,34,35,35,95,65,64,66,65,96,64,96,34,95,34,65,66,35,66,35,33,34,66,64,33,96,33,96,36,33,95,35,65,66,96,96,36,35,95,64,65,95,95,33,35,95,66,33,65,95,33,66,96,96,36,34,34,96,33,96,95,64,35,36,95,64,33,64,96,36,65,34,34,36,65,64,36,96,36,96,33,34,64,33,95,33,95,34,64,96,64,66,33,95,34,34,36,65,35,36,66,95,66,64,35,96,95,34,33,95,65,95,66,96,64,36,64,36,64,65,65,96,
36,96,95,34,66,36,64,35,33,33,65,36,96,65,35,34,95,33,64,33,64,33,95,66,66,65,64,34,65,36,36,34,64,33,33,95,34,34,65,35,64,34,34,64,36,95,33,34,64,36,95,36,35,64,65,34,35,96,95,34,33,33,66,65,96,36,95,34,95,36,66,34,35,96,96,36,65,96,36,66,36,64,65,95,65,34,34,95,36,96,66,96,96,36,64,33,35,95,35,34,35,33,65,33,35,35,33,65,95,64,65,33,96,64,95,96,95,66,95,36,33,36,64,66,95,95,35,64,35,95,64,34,96,96,64,34,96,95,65,66,33,66,36,64,64,64,65,65,34,33,35,65,95,36,36,95,95,34,36,95,
95,34,64,96,66,36,66,33,33,64,35,95,65,95,65,66,96,64,36,36,33,95,66,35,66,65,35,33,34,96,95,96,66,36,36,33,34,66,64,64,96,33,33,36,34,34,34,95,96,66,66,36,66,64,66,34,95,35,64,65,66,66,65,95,95,35,34,35,36,33,33,65,35,96,36,64,34,36,95,35,65,35,36,66,65,35,65,64,66,33,95,96,66,34,33,95,35,96,66,36,66,64,33,95,66,65,66,95,35,33,65,65,36,36,64,36,36,95,95,65,64,36,36,33,34,65,96,95,64,35,33,66,33,95,33,65,96,65,65,95,65,66,95,36,96,36,33,33,65,64,65,64,95,96,35,66,65,64,64,35,
64,96,33,34,33,33,35,33,96,66,64,96,95,95,36,64,66,95,66,64,96,33,33,65,64,34,33,33,35,64,66,34,33,95,95,33,35,33,35,65,95,65,64,34,65,96,95,96,64,33,34,66,65,96,64,36,34,33,66,95,95,64,66,95,64,66,95,95,95,33,95,36,36,66,66,36,95,96,33,33,96,34,96,66,95,65,34,34,34,35,34,66,36,36,66,96,95,36,95,96,34,65,96,35,66,65,65,95,66,96,95,96,36,65,95,36,64,96,36,95,35,65,95,65,64,66,64,66,36,33,64,64,36,96,65,66,36,33,66,66,35,65,95,36,35,35,95,64,96,34,34,66,34,34,33,96,35,33,96,33,
33,33,66,66,96,34,33,95,36,33,35,33,65,96,96,65,95,95,33,33,35,95,35,64,33,35,36,64,64,34,96,66,64,66,33,65,36,33,64,66,95,96,96,65,35,64,33,64,64,96,96,36,66,64,36,36,35,64,34,95,36,64,34,66,65,95,66,33,35,33,64,65,96,36,65,64,35,35,33,36,34,66,65,35,33,64,33,64,96,66,36,35,35,95,65,96,66,64,66,95,66,35,33,66,34,66,34,95,64,36,36,65,34,65,33,95,95,65,96,36,66,65,34,36,65,64,34,95,64,66,35,34,95,64,96,95,34,64,66,33,64,65,36,64,34,33,65,64,96,96,95,34,95,95,33,33,64,35,96,65,
96,65,66,35,35,65,33,65,36,96,65,95,96,96,64,64,96,34,65,66,35,34,35,35,64,66,96,33,35,64,95,33,34,66,36,35,65,64,64,95,34,35,65,96,96,34,96,95,66,95,33,33,34,35,35,34,96,64,35,64,96,95,36,33,35,35,66,33,95,34,66,96,95,36,66,66,95,34,64,64,66,96,65,33,95,35,64,36,65,66,95,64,34,33,33,36,96,95,35,66,34,66,95,95,66,66,64,96,66,64,34,34,96,35,65,34,35,35,95,35,35,36,95,95,96,64,66,64,66,64,95,66,33,96,65,36,65,65,36,64,34,96,95,96,65,65,35,64,65,66,65,35,95,96,66,35,66,95,65,65,
95,66,65,33,34,35,36,66,66,36,36,96,65,95,96,36,65,64,35,96,96,65,33,65,96,64,66,35,96,66,36,65,95,95,95,65,65,33,34,96,33,96,36,36,34,65,65,36,64,35,35,64,34,36,36,95,65,36,34,33,65,95,33,35,33,35,64,35,65,33,33,34,95,64,65,64,65,34,66,95,36,65,36,35,34,65,65,35,64,36,36,35,96,66,65,33,66,96,96,36,66,35,36,96,34,33,34,34,36,95,35,95,66,65,95,33,66,95,65,95,96,34,35,36,95,66,33,96,96,96,95,65,35,33,34,34,64,64,33,65,33,36,36,96,35,35,96,33,64,34,64,96,33,36,36,35,36,65,96,33,
66,65,36,65,66,64,65,96,96,96,33,35,34,95,35,35,33,33,34,65,95,96,95,65,33,96,66,64,33,66,65,66,65,65,34,65,96,64,34,36,65,33,34,64,66,35,65,34,66,65,64,64,33,35,95,35,36,95,95,35,36,66,34,35,66,34,35,35,95,35,96,65,34,36,95,96,36,33,65,34,34,96,36,96,64,64,34,96,33,66,35,35,36,96,36,96,34,66,96,66,36,34,95,36,96,66,66,96,33,66,33,33,96,35,36,95,95,96,34,35,36,95,33,34,65,34,64,33,96,33,33,96,34,36,34,64,96,96,66,65,35,34,33,36,65,64,96,65,95,64,34,34,95,64,65,35,96,95,65,36,
34,64,35,33,65,36,35,33,33,66,33,96,95,66,64,95,95,66,33,35,95,34,35,33,66,33,64,96,64,64,96,95,33,95,95,96,64,66,95,65,65,96,36,64,36,64,36,96,65,65,65,36,66,66,95,96,95,66,65,95,33,64,64,34,36,96,35,64,96,95,34,64,65,96,64,35,64,95,33,35,33,96,64,65,36,64,64,33,66,36,96,33,33,64,66,66,96,66,96,96,36,36,36,64,36,66,35,96,35,95,64,35,33,34,66,33,66,34,34,33,96,36,96,36,64,34,95,64,33,64,34,66,65,96,34,65,95,34,33,35,34,65,36,66,65,95,35,34,66,66,95,66,66,96,65,35,34,36,36,65,
65,95,36,64,35,95,64,66,65,96,64,35,65,36,64,34,66,95,36,65,35,35,96,96,33,36,66,64,96,36,95,95,35,96,36,36,36,95,96,66,34,95,95,35,64,33,64,65,64,95,64,65,66,33,96,35,95,34,33,64,65,34,95,33,96,96,35,95,66,66,33,36,96,35,65,33,64,96,95,34,96,35,66,33,64,66,64,64,65,36,66,36,35,65,33,96,33,64,66,95,35,95,64,64,66,33,66,95,96,95,95,96,65,64,36,36,36,64,65,36,95,33,36,95,96,64,65,35,96,36,96,35,95,96,33,65,95,95,96,96,65,33,34,64,35,36,36,64,33,36,95,35,95,34,96,65,64,95,96,35,
35,33,65,34,95,96,34,36,65,64,96,34,64,64,64,36,64,95,96,96,35,33,66,95,36,64,95,36,33,95,34,35,65,66,65,66,33,64,96,65,34,34,36,65,65,34,34,36,36,35,95,33,64,33,64,36,34,34,33,65,34,64,33,36,36,35,95,33,95,96,33,36,65,95,66,95,34,64,34,64,95,95,66,64,64,95,65,96,34,96,66,64,33,34,35,95,33,95,34,65,33,65,35,34,36,96,65,65,33,35,36,35,33,96,95,34,64,64,66,34,96,65,96,64,95,96,36,34,33,34,95,34,65,65,95,33,34,34,64,96,35,33,96,34,95,95,34,35,34,35,96,33,36,66,95,95,35,34,66,66,
95,33,64,65,36,36,95,66,34,35,65,33,34,65,35,96,34,34,95,66,33,64,64,65,95,34,35,64,35,96,33,95,35,35,65,33,36,33,65,66,34,65,33,64,65,35,33,96,95,64,35,96,33,34,64,34,33,35,35,35,95,35,65,36,96,66,36,95,34,95,33,35,65,96,35,34,96,34,65,33,65,33,95,35,34,65,96,66,34,65,95,35,36,33,33,64,95,96,35,36,64,35,96,33,34,33,65,96,96,34,34,35,95,96,65,33,65,65,65,33,65,65,66,64,65,95,34,96,36,34,33,33,35,66,65,64,96,96,35,64,36,95,35,36,66,95,95,64,64,95,36,35,64,96,33,35,66,65,34,34,
95,66,66,96,95,33,35,95,64,65,35,36,64,65,33,65,36,34,64,65,95,96,95,95,95,96,65,64,95,34,34,35,36,95,35,33,66,36,96,64,96,35,35,35,66,35,34,35,65,66,95,95,35,64,96,35,36,35,64,36,65,33,34,33,64,65,34,96,96,65,64,36,95,64,65,95,65,34,66,35,36,35,36,34,95,36,96,33,95,36,34,33,36,95,95,33,66,95,36,35,36,66,95,64,35,64,36,35,64,66,35,96,66,96,95,64,36,95,96,35,66,36,96,34,64,34,65,66,95,33,96,64,66,36,34,95,36,95,35,64,95,95,33,66,96,34,64,36,65,95,95,65,34,65,33,35,35,35,66,36,
35,96,35,65,66,96,65,36,33,36,35,35,64,33,95,64,96,36,33,35,36,33,36,95,36,64,35,33,35,33,36,34,34,96,36,66,66,33,95,64,35,35,95,34,95,36,35,34,64,36,66,34,64,34,95,65,34,33,35,35,65,65,95,64,35,96,64,65,35,95,96,33,33,36,96,36,36,35,35,95,96,35,33,95,65,35,96,96,66,35,66,65,64,35,33,65,64,34,35,34,33,35,95,95,35,65,34,33,64,34,66,34,35,36,33,35,33,65,34,95,33,34,66,36,34,36,36,66,95,96,33,33,64,34,33,36,33,64,95,65,64,35,36,65,36,66,34,64,36,66,65,36,66,34,66,65,96,33,96,64,
34,35,65,64,95,65,95,65,95,95,65,64,96,96,95,95,96,36,66,65,36,35,36,64,64,35,35,34,64,96,65,65,96,64,95,66,96,95,34,65,36,36,64,65,35,33,95,66,66,34,95,34,95,95,34,96,95,64,96,66,64,33,66,36,64,65,33,36,96,33,34,96,36,65,96,34,96,64,35,96,33,33,95,95,36,35,35,66,96,64,35,65,33,66,33,33,35,96,95,34,65,95,33,34,33,96,96,34,66,33,33,96,35,36,65,34,66,95,35,95,35,35,65,66,96,96,34,33,34,34,33,64,95,33,96,65,35,65,66,66,65,95,64,33,66,33,95,64,35,64,64,35,33,96,33,64,96,33,36,33,
34,36,66,95,95,33,34,35,34,64,65,66,64,65,66,33,64,35,66,34,34,33,36,95,66,65,33,34,96,34,34,34,66,64,65,96,96,35,65,95,35,35,34,33,36,34,33,36,64,64,66,36,64,96,33,33,65,95,33,96,64,35,95,35,96,96,66,34,65,34,95,66,65,33,35,33,34,34,65,96,96,33,95,64,64,34,33,36,95,64,35,96,96,95,33,35,34,33,35,35,66,35,34,95,33,64,64,35,36,66,64,34,33,64,33,35,35,95,34,95,34,96,34,95,35,66,66,35,35,65,95,34,34,36,34,96,95,66,96,34,96,96,64,65,64,36,65,96,35,64,65,35,64,34,66,36,95,96,34,64,
95,66,95,95,66,33,95,33,65,34,35,35,95,95,96,36,34,35,95,95,96,35,65,64,96,34,65,35,66,34,36,65,33,35,35,33,95,66,96,34,64,65,34,35,95,65,36,33,36,64,96,35,66,35,66,36,64,35,96,64,96,95,33,66,35,64,95,36,95,36,33,95,66,36,36,36,66,35,64,64,96,35,96,33,65,33,35,66,36,36,96,36,64,96,66,66,96,35,35,36,35,33,96,96,34,65,95,33,95,35,66,65,36,35,95,64,96,36,33,34,36,96,96,35,35,65,65,36,64,95,36,95,95,96,34,95,65,36,95,66,65,95,34,64,96,66,33,95,34,33,65,34,95,36,65,36,66,34,66,96,
64,35,96,34,66,64,34,65,34,95,96,64,65,95,64,65,33,96,64,33,64,65,35,33,96,64,36,34,34,65,95,33,64,33,35,96,35,64,65,65,34,95,65,96,35,95,35,34,96,36,95,96,65,65,65,34,66,34,96,95,65,34,34,34,35,33,36,96,35,35,64,66,96,96,95,35,66,96,36,95,96,96,33,36,65,34,64,95,65,95,64,65,95,96,96,96,64,35,33,33,35,66,33,36,96,64,64,95,65,64,66,33,36,65,95,95,33,96,96,33,33,35,96,36,35,35,34,33,96,66,65,64,96,35,35,33,64,36,34,36,65,65,33,65,33,95,36,65,66,34,64,35,95,95,34,95,36,96,65,95,
36,65,65,96,66,34,95,35,34,35,64,36,96,64,36,96,33,36,35,34,36,64,35,95,64,65,66,34,34,36,36,64,64,95,95,33,65,64,35,95,34,34,35,34,96,65,36,65,34,64,33,96,35,64,36,34,36,64,95,64,34,96,66,34,96,34,35,64,65,64,36,34,34,96,34,34,66,36,35,66,95,64,35,36,66,34,95,33,96,36,66,64,96,36,66,36,64,33,95,95,96,35,33,65,66,95,35,65,36,66,33,36,36,34,64,34,96,64,34,34,96,36,65,66,65,35,36,33,66,33,33,64,96,36,96,95,34,96,34,96,34,64,65,96,65,65,95,36,96,66,36,66,35,36,35,96,33,95,96,34,
95,65,95,96,34,65,66,36,65,35,64,95,35,65,34,36,66,33,33,65,96,64,36,95,36,34,64,34,65,34,33,64,95,66,95,65,95,34,64,65,34,35,36,65,35,35,33,65,96,34,66,35,66,64,33,34,36,96,33,35,35,65,66,64,64,36,95,33,33,35,96,64,96,35,36,36,65,66,96,34,96,65,66,95,66,33,34,34,33,66,36,65,96,36,96,65,35,66,66,64,34,34,64,64,96,96,36,35,95,95,96,35,96,34,66,96,65,66,34,95,66,66,33,34,64,96,35,96,66,35,34,36,96,66,35,95,65,66,65,65,66,66,35,64,33,36,34,33,36,35,35,64,36,33,66,64,64,35,33,64,
66,65,64,95,66,35,33,66,95,33,36,66,33,95,33,66,64,64,64,95,35,96,65,64,66,65,66,95,64,33,36,66,34,95,35,33,95,65,33,95,33,65,36,65,36,65,33,96,64,64,33,35,65,36,95,65,65,95,33,64,35,35,64,36,34,95,33,64,33,66,33,33,66,33,34,96,36,35,64,95,35,96,65,65,35,34,64,96,64,35,36,34,36,65,33,34,66,35,64,36,34,96,96,35,96,33,64,34,66,65,95,36,64,35,64,96,34,64,34,65,34,96,64,33,36,64,35,36,35,35,34,35,33,33,33,64,66,95,65,35,64,64,33,36,34,33,34,95,64,96,66,35,36,96,66,35,64,35,64,34,
64,35,33,36,66,96,34,65,35,95,64,34,66,65,33,64,64,65,33,64,95,95,35,66,66,35,33,36,36,95,96,95,95,66,64,33,35,66,36,95,65,64,65,95,64,96,64,95,95,65,65,36,66,66,33,64,95,35,66,65,36,64,95,64,33,96,34,36,96,95,33,35,95,36,95,35,64,36,64,96,33,36,96,95,66,66,36,95,33,65,35,33,33,66,36,33,66,34,65,96,33,95,96,35,35,35,35,64,34,65,33,33,96,66,95,96,64,65,35,34,34,96,36,95,36,33,66,96,65,34,36,33,95,65,34,65,96,36,35,34,36,64,95,96,66,33,33,95,34,95,65,95,95,65,34,95,96,34,36,35,
65,33,36,36,96,36,64,64,33,64,95,36,95,35,33,96,65,36,34,66,66,34,35,64,65,96,34,65,36,64,65,65,64,95,64,34,64,96,36,96,33,36,34,64,66,36,95,96,66,36,36,65,35,34,35,33,34,64,95,34,35,36,65,35,33,95,36,95,35,66,64,35,96,65,64,34,33,96,33,36,66,35,35,65,34,33,95,66,36,96,95,64,95,64,35,33,33,66,35,66,96,34,95,96,36,33,64,64,96,36,33,66,64,65,33,65,65,65,33,65,66,33,33,34,95,36,66,96,66,64,64,36,36,64,95,36,34,66,36,35,64,64,66,35,35,33,36,33,95,35,34,96,96,36,36,35,35,65,96,66,
65,36,36,95,34,64,65,35,65,66,64,96,95,66,33,36,35,33,36,66,35,33,33,65,65,65,36,64,66,34,33,64,34,35,95,95,65,34,35,96,65,64,65,65,64,36,34,36,35,34,33,34,95,35,34,96,66,65,35,33,36,33,36,66,34,33,33,36,66,36,64,64,66,95,95,66,33,36,65,36,35,34,65,65,96,33,33,95,65,95,65,95,66,35,95,95,96,33,96,34,33,66,95,36,64,36,96,96,34,36,96,66,36,66,65,64,33,36,34,65,64,66,96,64,36,65,35,36,64,34,64,64,96,96,66,35,35,66,34,36,64,66,96,35,35,64,64,66,36,96,64,36,95,35,66,64,33,36,33,96,
96,36,33,34,95,66,33,35,96,65,33,33,35,34,96,65,33,96,96,95,64,36,35,36,96,36,96,36,65,64,33,96,64,35,66,65,95,36,33,96,66,34,64,65,64,64,95,96,35,34,33,33,96,65,34,66,35,34,33,65,35,64,64,95,95,36,35,96,65,65,66,35,34,64,33,35,66,34,33,66,34,64,64,36,36,34,34,34,35,36,33,95,35,96,95,33,35,95,33,34,64,36,95,96,36,66,64,33,95,36,66,65,96,66,95,96,35,95,34,35,64,65,66,95,36,66,34,33,36,66,96,65,36,34,36,96,64,33,33,36,34,64,35,35,96,66,96,35,65,35,33,66,33,95,33,34,33,96,64,34,
64,35,65,36,34,96,65,34,64,33,65,96,95,95,33,33,35,34,66,66,36,33,66,66,96,33,35,64,64,66,35,64,64,95,66,95,36,35,95,34,35,33,64,34,95,35,65,36,35,66,36,33,33,34,64,36,33,35,66,64,33,35,66,34,96,66,95,35,33,64,66,34,96,66,64,33,95,65,64,66,64,36,66,35,33,35,66,66,34,33,95,35,66,66,64,65,34,64,66,36,95,33,64,65,66,66,36,96,66,36,64,34,95,95,64,36,33,96,64,34,96,96,36,33,96,96,35,35,95,36,64,64,66,64,64,66,64,65,66,34,35,65,66,34,64,64,96,96,34,35,35,36,66,36,34,35,34,35,34,66,
64,96,96,66,95,33,95,33,96,35,96,35,95,33,33,64,96,66,66,34,95,33,64,96,36,64,34,65,33,95,33,95,64,96,35,66,35,95,65,33,65,95,64,34,95,95,96,65,36,33,34,35,33,35,33,35,35,36,36,64,96,33,65,65,36,34,64,34,95,66,95,65,33,34,34,35,36,96,33,95,65,95,36,95,66,34,66,95,65,95,36,34,34,65,64,64,96,34,35,64,96,36,66,95,95,65,64,95,35,35,64,65,34,66,66,34,66,64,34,34,64,64,34,35,36,36,95,36,96,35,66,95,64,34,64,96,36,96,36,33,34,65,33,33,36,35,33,64,36,95,65,64,95,64,66,34,64,95,34,66,
96,35,33,34,96,65,66,66,65,95,95,96,95,35,96,34,96,96,34,35,96,36,33,35,65,66,65,66,36,64,34,34,96,65,65,33,96,95,34,96,33,34,66,64,36,64,35,33,96,96,65,34,95,65,96,34,64,66,34,95,34,34,64,64,66,35,33,64,95,36,34,33,36,36,36,64,95,33,35,64,35,64,64,96,96,95,36,33,95,95,34,35,64,34,96,66,96,96,96,96,96,66,36,95,34,66,64,35,95,66,64,64,96,66,66,36,95,34,35,35,95,34,35,64,95,34,36,35,33,36,36,33,66,65,65,96,95,66,36,65,64,33,65,95,64,35,36,95,66,95,34,33,33,96,96,64,96,35,96,33,
65,64,36,33,95,36,66,34,66,36,96,35,34,34,35,34,96,34,33,35,65,65,34,35,64,66,66,64,66,96,35,96,36,33,34,96,96,33,64,35,35,36,36,35,64,66,34,35,95,66,96,96,95,66,65,36,35,33,66,34,66,66,96,95,65,65,33,64,95,66,36,36,96,36,96,65,33,35,95,33,96,33,35,35,65,96,35,95,96,36,66,65,65,64,36,34,65,64,65,35,33,65,33,65,95,35,66,65,33,36,66,65,35,64,64,96,35,33,33,33,66,33,96,34,33,96,96,66,35,66,33,96,34,34,65,35,34,65,64,36,36,95,34,64,64,95,35,33,96,96,66,96,95,95,34,95,35,35,95,96,
65,36,36,35,96,64,96,95,96,35,95,96,95,34,96,96,35,64,33,65,66,36,35,33,34,36,35,33,34,35,66,36,35,65,34,66,95,64,64,33,64,34,66,66,36,66,66,33,36,96,66,33,95,33,96,66,35,36,35,36,34,95,34,35,64,65,95,65,96,96,34,34,36,66,64,33,64,33,34,66,34,36,65,35,65,66,95,96,64,34,33,35,64,96,95,95,33,35,33,66,65,95,34,33,34,33,35,65,66,65,64,96,95,64,66,35,65,64,33,95,36,35,95,33,34,65,96,64,96,96,35,34,36,66,36,95,33,66,96,96,64,95,35,64,66,96,65,65,95,95,34,34,33,36,33,35,96,64,66,33,
96,96,65,65,34,96,95,66,64,66,35,65,66,36,95,64,95,66,34,65,95,34,33,33,64,96,64,66,35,64,36,66,65,64,36,96,64,36,95,66,66,64,64,35,35,95,66,64,35,64,36,66,64,33,34,95,33,66,64,64,96,65,64,34,34,36,66,96,95,65,65,64,64,64,95,64,65,64,66,35,64,96,36,33,66,33,35,33,34,64,65,66,66,36,96,65,65,65,96,65,34,64,64,35,95,65,36,66,36,35,34,66,36,35,95,34,64,34,35,66,95,95,64,33,64,64,66,34,95,96,64,66,95,66,65,33,96,33,66,36,35,35,66,34,36,66,35,64,34,65,36,96,35,34,96,96,35,64,66,35,
66,95,64,36,64,65,34,36,66,64,95,34,33,95,95,36,34,65,66,36,36,33,95,96,95,64,36,65,65,64,35,34,95,33,34,35,64,65,35,96,65,65,96,66,33,65,65,34,35,64,66,96,65,96,65,35,33,35,65,34,65,36,65,66,35,65,66,65,65,95,64,34,95,35,34,36,65,95,34,33,66,33,95,34,33,66,35,65,33,96,33,95,33,66,35,95,36,64,66,34,66,33,95,33,64,33,34,66,34,66,64,96,95,66,36,95,36,35,65,35,64,96,65,66,66,65,96,95,34,35,65,96,95,66,35,36,36,33,64,96,35,34,33,65,36,64,36,35,33,65,66,65,34,96,35,36,36,65,64,34,
96,34,35,35,95,95,65,33,34,34,35,66,33,65,64,33,95,34,66,35,95,65,95,95,36,96,95,96,34,95,35,36,35,34,66,96,96,66,64,66,35,65,34,33,65,96,33,96,35,65,64,33,34,65,95,35,95,95,36,34,33,66,66,65,33,64,33,34,65,33,35,66,36,36,36,36,64,95,95,65,95,64,64,36,64,35,35,95,35,64,34,36,36,65,95,35,65,96,95,95,65,66,95,96,96,96,34,66,34,34,36,36,34,36,33,36,36,95,35,65,65,96,33,34,35,96,66,95,64,66,34,33,64,33,35,66,64,35,36,95,64,34,66,65,34,66,65,34,33,35,35,34,66,64,65,35,95,96,95,33,
96,66,34,36,33,96,36,34,34,36,95,36,96,66,34,35,64,35,64,66,65,33,34,65,96,35,65,64,64,66,34,36,36,33,96,36,36,35,34,33,35,36,34,96,34,34,36,96,95,66,96,34,66,66,96,64,33,33,33,96,33,36,36,34,34,96,35,35,34,66,36,35,35,95,34,65,66,35,96,34,33,65,33,95,95,66,33,65,33,96,33,35,35,65,95,65,65,34,96,36,35,65,96,65,66,36,95,34,34,96,35,95,64,96,34,95,95,34,33,96,65,35,66,33,36,95,95,96,34,96,33,36,65,96,36,35,66,34,66,34,95,34,64,34,64,65,35,66,34,64,95,64,96,64,66,35,95,66,34,95,
36,95,96,95,36,65,65,66,95,95,35,65,66,34,64,36,95,36,96,33,35,65,34,36,64,36,65,64,36,35,64,34,96,96,34,66,66,35,33,64,95,96,95,36,65,95,66,66,35,65,34,66,35,35,33,64,36,64,64,96,66,34,36,34,96,34,36,35,66,64,34,34,96,64,96,96,65,36,95,34,34,35,95,36,66,33,65,36,64,65,34,34,36,66,96,95,96,36,64,64,34,35,34,34,66,35,33,33,36,36,65,33,65,66,36,36,95,35,65,65,95,96,66,64,96,64,64,36,66,66,35,96,66,34,34,65,64,65,36,35,33,36,96,33,33,96,96,65,34,33,66,35,35,64,34,96,95,64,95,95,
95,34,34,95,35,33,34,64,95,65,96,96,35,34,66,35,95,33,35,35,34,96,66,35,35,95,35,36,65,66,35,34,34,34,65,95,96,65,33,35,36,34,33,35,33,35,66,95,95,35,64,36,36,35,65,33,65,35,34,95,36,65,34,65,65,65,96,35,34,96,96,96,34,36,34,34,64,95,95,36,33,65,66,95,35,95,33,36,95,33,33,34,33,66,33,66,33,33,96,34,95,95,33,34,95,65,34,95,36,36,64,95,33,66,96,35,64,95,35,33,36,64,35,96,36,65,96,35,36,96,36,36,34,96,95,66,96,33,36,96,65,34,64,64,64,34,33,33,95,35,34,33,34,95,65,95,65,64,36,65,
65,66,66,65,35,35,34,65,65,95,64,66,95,64,64,96,66,33,36,66,64,36,35,35,33,36,66,33,66,65,64,34,36,64,36,36,66,95,64,95,36,33,65,66,33,36,33,96,36,35,95,35,35,95,95,64,65,36,66,33,35,65,96,36,35,36,36,65,65,65,35,66,65,33,66,65,33,36,65,95,64,36,34,34,95,33,64,33,95,95,34,96,65,66,34,64,64,64,96,34,96,65,33,66,34,64,34,96,64,65,36,96,36,96,33,66,34,35,65,36,36,66,36,65,95,64,35,34,33,65,36,64,33,36,35,65,66,33,95,34,36,66,35,65,34,35,66,65,95,66,36,36,33,96,36,34,65,66,65,64,
35,33,34,64,95,34,96,35,65,65,35,35,66,64,96,35,35,65,36,34,66,33,34,33,33,33,95,35,34,96,36,35,96,95,65,64,36,64,95,64,66,33,95,65,96,35,36,96,33,64,34,33,36,96,34,96,66,66,33,34,95,64,95,34,36,34,35,33,96,34,33,96,34,95,96,65,95,35,34,64,36,65,96,33,34,95,65,35,35,33,95,66,35,36,35,66,95,35,36,36,33,64,34,96,34,36,64,34,96,36,65,65,65,96,66,66,96,65,96,95,65,36,33,96,34,65,96,95,35,66,64,35,66,33,96,96,36,64,64,35,66,34,35,95,64,36,95,96,64,64,36,66,65,65,33,33,65,35,35,36,
35,33,33,33,35,96,65,33,36,96,36,36,66,64,96,96,35,33,65,34,95,36,35,64,36,35,65,65,64,96,96,35,35,36,36,36,96,33,36,96,96,36,35,34,64,64,34,35,66,33,95,34,95,96,35,35,34,64,66,34,64,66,33,36,64,33,35,95,34,66,33,96,95,96,96,36,34,34,33,34,65,35,64,64,33,96,64,35,35,65,66,35,95,36,96,64,96,95,96,36,95,35,64,95,33,35,95,64,36,95,64,35,34,33,66,34,64,64,66,66,96,34,64,66,34,34,66,35,36,96,66,35,65,35,36,34,95,64,65,64,66,36,96,33,36,36,33,33,66,36,34,35,96,64,65,35,64,35,66,66,
95,36,66,95,36,33,33,96,34,33,96,96,65,35,35,35,34,33,36,33,33,95,64,96,34,33,66,64,36,96,34,34,33,96,34,35,34,35,35,65,95,36,64,95,34,66,34,35,96,64,35,34,34,95,33,64,34,66,65,66,65,36,95,64,96,34,66,34,35,65,35,64,36,35,36,65,36,66,34,35,34,33,35,36,95,65,96,65,35,96,95,34,66,66,34,35,33,35,96,65,66,34,34,66,64,33,33,33,64,33,96,65,34,36,95,95,64,95,95,66,34,95,66,65,95,95,64,34,36,64,96,65,34,33,66,36,33,66,34,64,64,64,96,96,96,35,33,64,66,65,35,64,95,36,96,64,36,34,95,34
</data>
 </layer>
 <layer id="2" name="Tile Layer 2" width="160" height="90">
  <data encoding="csv">
39,39,39,39,39,39,39,39,39,39,39,39,39,39,39,39,39,39,39,39,39,39,39,39,39,39,39,39,39,39,39,39,39,39,39,39,39,39,39,39,39,39,39,39,39,39,39,39,39,39,39,39,39,39,39,39,39,39,39,39,39,39,39,39,39,39,39,39,39,39,39,39,39,39,39,39,39,39,39,39,39,39,39,39,39,39,39,39,39,39,39,39,39,39,39,39,39,39,39,39,39,39,39,39,39,39,39,39,39,39,39,39,39,39,39,39,39,39,39,39,39,39,39,39,39,39,39,39,39,39,39,39,39,39,39,39,39,39,39,39,39,39,39,39,39,39,39,39,39,39,39,39,39,39,39,39,39,39,39,39,
39,39,39,39,39,39,39,39,39,39,39,39,39,39,39,39,39,39,39,39,39,39,39,39,39,39,39,39,39,39,39,39,39,39,39,39,39,39,39,39,39,39,39,39,39,39,39,39,39,39,39,39,39,39,39,39,39,39,39,39,39,39,39,39,39,39,39,39,39,39,39,39,39,39,39,39,39,39,39,39,39,39,39,39,39,39,39,39,39,39,39,39,39,39,39,39,39,39,39,39,39,39,39,39,39,39,39,39,39,39,39,39,39,39,39,39,39,39,39,39,39,39,39,39,39,39,39,39,39,39,39,39,39,39,39,39,39,39,39,39,39,39,39,39,39,39,39,39,39,39,39,39,39,39,39,39,39,39,39,39,
39,39,39,39,39,39,39,39,39,39,39,39,39,39,39,39,39,39,39,39,39,39,39,39,39,39,39,39,39,39,39,39,39,39,39,39,39,39,39,39,39,39,39,39,39,39,39,39,39,39,39,39,39,39,39,39,39,39,39,39,39,39,39,39,39,39,39,39,39,39,39,39,39,39,39,39,39,39,39,39,39,39,39,39,39,39,39,39,39,39,39,39,39,39,39,39,39,39,39,39,39,39,39,39,39,39,39,39,39,39,39,39,39,39,39,39,39,39,39,39,39,39,39,39,39,39,39,39,39,39,39,39,39,39,39,39,39,39,39,39,39,39,39,39,39,39,39,39,39,39,39,39,39,39,39,39,39,39,39,39,
39,39,39,39,39,39,39,39,39,39,39,39,39,39,39,39,39,39,39,39,39,39,39,39,39,39,39,39,39,39,39,39,39,39,39,39,39,39,39,39,39,39,39,39,39,39,39,39,39,39,39,39,39,39,39,39,39,39,39,39,39,39,39,39,39,39,39,39,39,39,39,39,39,39,39,39,39,39,39,39,39,39,39,39,39,39,39,39,39,39,39,39,39,39,39,39,39,39,39,39,39,39,39,39,39,39,39,39,39,39,39,39,39,39,39,39,39,39,39,39,39,39,39,39,39,39,39,39,39,39,39,39,39,39,39,39,39,39,39,39,39,39,39,39,39,39,39,39,39,39,39,39,39,39,39,39,39,39,39,39,
39,39,39,39,39,39,39,39,39,39,39,39,39,39,39,39,39,39,39,39,39,39,39,39,39,39,39,39,39,39,39,39,39,39,39,39,39,39,39,39,39,39,39,39,39,39,39,39,39,39,39,39,39,39,39,39,39,39,39,39,39,39,39,39,39,39,39,39,39,39,39,39,39,39,39,39,39,39,39,39,39,39,39,39,39,39,39,39,39,39,39,39,39,39,39,39,39,39,39,39,39,39,39,39,39,39,39,39,39,39,39,39,39,39,39,39,39,39,39,39,39,39,39,39,39,39,39,39,39,39,39,39,39,39,39,39,39,39,39,39,39,39,39,39,39,39,39,39,39,39,39,39,39,39,39,39,39,39,39,39,
39,39,39,39,39,39,39,39,39,39,39,39,39,39,39,39,39,39,39,39,39,39,39,39,39,39,39,39,39,39,39,39,39,39,39,39,39,39,39,39,39,39,39,39,39,39,39,39,39,39,39,39,39,39,39,39,39,39,39,39,39,39,39,39,39,39,39,39,39,39,39,39,39,39,39,39,39,39,39,39,39,39,39,39,39,39,39,39,39,39,39,39,39,39,39,39,39,39,39,39,39,39,39,39,39,39,39,39,39,39,39,39,39,39,39,39,39,39,39,39,39,39,39,39,39,39,39,39,39,39,39,39,39,39,39,39,39,39,39,39,39,39,39,39,39,39,39,39,39,39,39,39,39,39,39,39,39,39,39,39,
39,39,39,39,39,39,39,39,39,39,39,39,39,39,39,39,39,39,39,39,39,39,39,39,39,39,39,39,39,39,39,39,39,39,39,39,39,39,39,39,39,39,39,39,39,39,39,39,39,39,39,39,39,39,39,39,39,39,39,39,39,39,39,39,39,39,39,39,39,39,39,39,39,39,39,39,39,39,39,39,39,39,39,39,39,39,39,39,39,39,39,39,39,39,39,39,39,39,39,39,39,39,39,39,39,39,39,39,39,39,39,39,39,39,39,39,39,39,39,39,39,39,39,39,39,39,39,39,39,39,39,39,39,39,39,39,39,39,39,39,39,39,39,39,39,39,39,39,39,39,39,39,39,39,39,39,39,39,39,39,
39,39,39,39,39,39,39,39,39,39,39,39,39,39,39,39,39,39,39,39,39,39,39,39,39,39,39,39,39,39,39,39,39,39,39,39,39,39,39,39,39,39,39,39,39,39,39,39,39,39,39,39,39,39,39,39,39,39,39,39,39,39,39,39,39,39,39,39,39,39,39,39,39,39,39,39,39,39,39,39,39,39,39,39,39,39,39,39,39,39,39,39,39,39,39,39,39,39,39,39,39,39,39,39,39,39,39,39,39,39,39,39,39,39,39,39,39,39,39,39,39,39,39,39,39,39,39,39,39,39,39,39,39,39,39,39,39,39,39,39,39,39,39,39,39,39,39,39,39,39,39,39,39,39,39,39,39,39,39,39,
39,39,39,39,39,39,39,39,39,39,39,39,39,39,39,39,39,39,39,39,39,39,39,39,39,39,39,39,39,39,39,39,39,39,39,39,39,39,39,39,39,39,39,39,39,39,39,39,39,39,39,39,39,39,39,39,39,39,39,39,39,39,39,39,39,39,39,39,39,39,39,39,39,39,39,39,39,39,39,39,39,39,39,39,39,39,39,39,39,39,39,39,39,39,39,39,39,39,39,39,39,39,39,39,39,39,39,39,39,39,39,39,39,39,39,39,39,39,39,39,39,39,39,39,39,39,39,39,39,39,39,39,39,39,39,39,39,39,39,39,39,39,39,39,39,39,39,39,39,39,39,39,39,39,39,39,39,39,39,39,
39,39,39,39,39,39,39,39,39,39,39,39,39,39,39,39,39,39,39,39,39,39,39,39,39,39,39,39,39,39,39,39,39,39,39,39,39,39,39,39,39,39,39,39,39,39,39,39,39,39,39,39,39,39,39,39,39,39,39,39,39,39,39,39,39,39,39,39,39,39,39,39,39,39,39,39,39,39,39,39,39,39,39,39,39,39,39,39,39,39,39,39,39,39,39,39,39,39,39,39,39,39,39,39,39,39,39,39,39,39,39,39,39,39,39,39,39,39,39,39,39,39,39,39,39,39,39,39,39,39,39,39,39,39,39,39,39,39,39,39,39,39,39,39,39,39,39,39,39,39,39,39,39,39,39,39,39,39,39,39,
39,39,39,39,39,39,39,39,39,39,39,39,39,39,39,39,39,39,39,39,39,39,39,39,39,39,39,39,39,39,39,39,39,39,39,39,39,39,39,39,39,39,39,39,39,39,39,39,39,39,39,39,39,39,39,39,39,39,39,39,39,39,39,39,39,39,39,39,39,39,39,39,39,39,39,39,39,39,39,39,39,39,39,39,39,39,39,39,39,39,39,39,39,39,39,39,39,39,39,39,39,39,39,39,39,39,39,39,39,39,39,39,39,39,39,39,39,39,39,39,39,39,39,39,39,39,39,39,39,39,39,39,39,39,39,39,39,39,39,39,39,39,39,39,39,39,39,39,39,39,39,39,39,39,39,39,39,39,39,39,
39,39,39,39,39,39,39,39,39,39,39,39,39,39,39,39,39,39,39,39,39,39,39,39,39,39,39,39,39,39,39,39,39,39,39,39,39,39,39,39,39,39,39,39,39,39,39,39,39,39,39,39,39,39,39,39,39,39,39,39,39,39,39,39,39,39,39,39,39,39,39,39,39,39,39,39,39,39,39,39,39,39,39,39,39,39,39,39,39,39,39,39,39,39,39,39,39,39,39,39,39,39,39,39,39,39,39,39,39,39,39,39,39,39,39,39,39,39,39,39,39,39,39,39,39,39,39,39,39,39,39,39,39,39,39,39,39,39,39,39,39,39,39,39,39,39,39,39,39,39,39,39,39,39,39,39,39,39,39,39,
39,39,39,39,39,39,39,39,39,39,39,39,39,39,39,39,39,39,39,39,39,39,39,39,39,39,39,39,39,39,39,39,39,39,39,39,39,39,39,39,39,39,39,39,39,39,39,39,39,39,39,39,39,39,39,39,39,39,39,39,39,39,39,39,39,39,39,39,39,39,39,39,39,39,39,39,39,39,39,39,39,39,39,39,39,39,39,39,39,39,39,39,39,39,39,39,39,39,39,39,39,39,39,39,39,39,39,39,39,39,39,39,39,39,39,39,39,39,39,39,39,39,39,39,39,39,39,39,39,39,39,39,39,39,39,39,39,39,39,39,39,39,39,39,39,39,39,39,39,39,39,39,39,39,39,39,39,39,39,39,
39,39,39,39,39,39,39,39,39,39,39,39,39,39,39,39,39,39,39,39,39,39,39,39,39,39,39,39,39,39,39,39,39,39,39,39,39,39,39,39,39,39,39,39,39,39,39,39,39,39,39,39,39,39,39,39,39,39,39,39,39,39,39,39,39,39,39,39,39,39,39,39,39,39,39,39,39,39,39,39,39,39,39,39,39,39,39,39,39,39,39,39,39,39,39,39,39,39,39,39,39,39,39,39,39,39,39,39,39,39,39,39,39,39,39,39,39,39,39,39,39,39,39,39,39,39,39,39,39,39,39,39,39,39,39,39,39,39,39,39,39,39,39,39,39,39,39,39,39,39,39,39,39,39,39,39,39,39,39,39,
39,39,39,39,39,39,39,39,39,39,39,39,39,39,39,39,39,39,39,39,39,39,39,39,39,39,39,39,39,39,39,39,39,39,39,39,39,39,39,39,39,39,39,39,39,39,39,39,39,39,39,39,39,39,39,39,39,39,39,39,39,39,39,39,39,39,39,39,39,39,39,39,39,39,39,39,39,39,39,39,39,39,39,39,39,39,39,39,39,39,39,39,39,39,39,39,39,39,39,39,39,39,39,39,39,39,39,39,39,39,39,39,39,39,39,39,39,39,39,39,39,39,39,39,39,39,39,39,39,39,39,39,39,39,39,39,39,39,39,39,39,39,39,39,39,39,39,39,39,39,39,39,39,39,39,39,39,39,39,39,
39,39,39,39,39,39,39,39,39,39,39,39,39,39,39,39,39,39,39,39,39,39,39,39,39,39,39,39,39,39,39,39,39,39,39,39,39,39,39,39,39,39,39,39,39,39,39,39,39,39,39,39,39,39,39,39,39,39,39,39,39,39,39,39,39,39,39,39,39,39,39,39,39,39,39,39,39,39,39,39,39,39,39,39,39,39,39,39,39,39,39,39,39,39,39,39,39,39,39,39,39,39,39,39,39,39,39,39,39,39,39,39,39,39,39,39,39,39,39,39,39,39,39,39,39,39,39,39,39,39,39,39,39,39,39,39,39,39,39,39,39,39,39,39,39,39,39,39,39,39,39,39,39,39,39,39,39,39,39,39,
39,39,39,39,39,39,39,39,39,39,39,39,39,39,39,39,39,39,39,39,39,39,39,39,39,39,39,39,39,39,39,39,39,39,39,39,39,39,39,39,39,39,39,39,39,39,39,39,39,39,39,39,39,39,39,39,39,39,39,39,39,39,39,39,39,39,39,39,39,39,39,39,39,39,39,39,39,39,39,39,39,39,39,39,39,39,39,39,39,39,39,39,39,39,39,39,39,39,39,39,39,39,39,39,39,39,39,39,39,39,39,39,39,39,39,39,39,39,39,39,39,39,39,39,39,39,39,39,39,39,39,39,39,39,39,39,39,39,39,39,39,39,39,39,39,39,39,39,39,39,39,39,39,39,39,39,39,39,39,39,
39,39,39,39,39,39,39,39,39,39,39,39,39,39,39,39,39,39,39,39,39,39,39,39,39,39,39,39,39,39,39,39,39,39,39,39,39,39,39,39,39,39,39,39,39,39,39,39,39,39,39,39,39,39,39,39,39,39,39,39,39,39,39,39,39,39,39,39,39,39,39,39,39,39,39,39,39,39,39,39,39,39,39,39,39,39,39,39,39,39,39,39,39,39,39,39,39,39,39,39,39,39,39,39,39,39,39,39,39,39,39,39,39,39,39,39,39,39,39,39,39,39,39,39,39,39,39,39,39,39,39,39,39,39,39,39,39,39,39,39,39,39,39,39,39,39,39,39,39,39,39,39,39,39,39,39,39,39,39,39,
39,39,39,39,39,39,39,39,39,39,39,39,39,39,39,39,39,39,39,39,39,39,39,39,39,39,39,39,39,39,39,39,39,39,39,39,39,39,39,39,39,39,39,39,39,39,39,39,39,39,39,39,39,39,39,39,39,39,39,39,39,39,39,39,39,39,39,39,39,39,39,39,39,39,39,39,39,39,39,39,39,39,39,39,39,39,39,39,39,39,39,39,39,39,39,39,39,39,39,39,39,39,39,39,39,39,39,39,39,39,39,39,39,39,39,39,39,39,39,39,39,39,39,39,39,39,39,39,39,39,39,39,39,39,39,39,39,39,39,39,39,39,39,39,39,39,39,39,39,39,39,39,39,39,39,39,39,39,39,39,
39,39,39,39,39,39,39,39,39,39,39,39,39,39,39,39,39,39,39,39,39,39,39,39,39,39,39,39,39,39,39,39,39,39,39,39,39,39,39,39,39,39,39,39,39,39,39,39,39,39,39,39,39,39,39,39,39,39,39,39,39,39,39,39,39,39,39,39,39,39,39,39,39,39,39,39,39,39,39,39,39,39,39,39,39,39,39,39,39,39,39,39,39,39,39,39,39,39,39,39,39,39,39,39,39,39,39,39,39,39,39,39,39,39,39,39,39,39,39,39,39,39,39,39,39,39,39,39,39,39,39,39,39,39,39,39,39,39,39,39,39,39,39,39,39,39,39,39,39,39,39,39,39,39,39,39,39,39,39,39,
39,39,39,39,39,39,39,39,39,39,39,39,39,39,39,39,39,39,39,2435,2436,2437,2438,2439,2440,2441,2442,2443,2444,2445,2446,2447,2448,2449,2450,2451,2452,2453,2454,2455,2456,2457,2458,2459,2460,2461,2462,2463,2464,2465,2466,2467,2468,2469,2470,2471,2472,2473,2474,2475,2476,2477,2478,2479,2480,2481,2482,2483,2484,2485,2486,2487,2488,2489,2490,2491,2492,2493,2494,2495,2496,2497,2498,2499,2500,2501,2502,2503,2504,2505,2506,2507,2508,2509,2510,2511,2512,2513,2514,2515,2516,2517,2518,2519,2520,2521,2522,2523,2524,2525,2526,2527,2528,2529,2530,39,39,39,39,39,39,39,39,39,39,39,39,39,39,39,39,39,39,39,39,39,39,39,39,39,39,39,39,39,39,39,39,39,39,39,39,39,39,39,39,39,39,39,39,39,
39,39,39,39,39,39,39,39,39,39,39,39,39,39,39,39,39,39,39,2595,2596,2597,2598,2599,2600,2601,2602,2603,2604,2605,2606,2607,2608,2609,2610,2611,2612,2613,2614,2615,2616,2617,2618,2619,2620,2621,2622,2623,2624,2625,2626,2627,2628,2629,2630,2631,2632,2633,2634,2635,2636,2637,2638,2639,2640,2641,2642,2643,2644,2645,2646,2647,2648,2649,2650,2651,2652,2653,2654,2655,2656,2657,2658,2659,2660,2661,2662,2663,2664,2665,2666,2667,2668,2669,2670,2671,2672,2673,2674,2675,2676,2677,2678,2679,2680,2681,2682,2683,2684,2685,2686,2687,2688,2689,2690,39,39,39,39,39,39,39,39,39,39,39,39,39,39,39,39,39,39,39,39,39,39,39,39,39,39,39,39,39,39,39,39,39,39,39,39,39,39,39,39,39,39,39,39,39,
39,39,39,39,39,39,39,39,39,39,39,39,39,39,39,39,39,39,39,2755,2756,2757,2758,2759,2760,2761,2762,2763,2764,2765,2766,2767,2768,2769,2770,2771,2772,2773,2774,2775,2776,2777,2778,2779,2780,2781,2782,2783,2784,2785,2786,2787,2788,2789,2790,2791,2792,2793,2794,2795,2796,2797,2798,2799,2800,2801,2802,2803,2804,2805,2806,2807,2808,2809,2810,2811,2812,2813,2814,2815,2816,2817,2818,2819,2820,2821,2822,2823,2824,2825,2826,2827,2828,2829,2830,2831,2832,2833,2834,2835,2836,2837,2838,2839,2840,2841,2842,2843,2844,2845,2846,2847,2848,2849,2850,39,39,39,39,39,39,39,39,39,39,39,39,39,39,39,39,39,39,39,39,39,39,39,39,39,39,39,39,39,39,39,39,39,39,39,39,39,39,39,39,39,39,39,39,39,
39,39,39,39,39,39,39,39,39,39,39,39,39,39,39,39,39,39,39,2915,2916,2917,2918,2919,2920,2921,2922,2923,2924,2925,2926,2927,2928,2929,2930,2931,2932,2933,2934,2935,2936,2937,2938,2939,2940,2941,2942,2943,2944,2945,2946,2947,2948,2949,2950,2951,2952,2953,2954,2955,2956,2957,2958,2959,2960,2961,2962,2963,2964,2965,2966,2967,2968,2969,2970,2971,2972,2973,2974,2975,2976,2977,2978,2979,2980,2981,2982,2983,2984,2985,2986,2987,2988,2989,2990,2991,2992,2993,2994,2995,2996,2997,2998,2999,3000,3001,3002,3003,3004,3005,3006,3007,3008,3009,3010,39,39,39,39,39,39,39,39,39,39,39,39,39,39,39,39,39,39,39,39,39,39,39,39,39,39,39,39,39,39,39,39,39,39,39,39,39,39,39,39,39,39,39,39,39,
39,39,39,39,39,39,39,39,39,39,39,39,39,39,39,39,39,39,39,3075,3076,3077,3078,3079,3080,3081,3082,3083,3084,3085,3086,3087,3088,3089,3090,3091,3092,3093,3094,3095,3096,3097,3098,3099,3100,3101,3102,3103,3104,3105,3106,3107,3108,3109,3110,3111,3112,3113,3114,3115,3116,3117,3118,3119,3120,3121,3122,3123,3124,3125,3126,3127,3128,3129,3130,3131,3132,3133,3134,3135,3136,3137,3138,3139,3140,3141,3142,3143,3144,3145,3146,3147,3148,3149,3150,3151,3152,3153,3154,3155,3156,3157,3158,3159,3160,3161,3162,3163,3164,3165,3166,3167,3168,3169,3170,39,39,39,39,39,39,39,39,39,39,39,39,39,39,39,39,39,39,39,39,39,39,39,39,39,39,39,39,39,39,39,39,39,39,39,39,39,39,39,39,39,39,39,39,39,
39,39,39,39,39,39,39,39,39,39,39,39,39,39,39,39,39,39,39,3235,3236,3237,3238,3239,3240,3241,3242,3243,3244,3245,3246,3247,3248,3249,3250,3251,3252,3253,3254,3255,3256,3257,3258,3259,3260,3261,3262,3263,3264,3265,3266,3267,3268,3269,3270,3271,3272,3273,3274,3275,3276,3277,3278,3279,3280,3281,3282,3283,3284,3285,3286,3287,3288,3289,3290,3291,3292,3293,3294,3295,3296,3297,3298,3299,3300,3301,3302,3303,3304,3305,3306,3307,3308,3309,3310,3311,3312,3313,3314,3315,3316,3317,3318,3319,3320,3321,3322,3323,3324,3325,3326,3327,3328,3329,3330,39,39,39,39,39,39,39,39,39,39,39,39,39,39,39,39,39,39,39,39,39,39,39,39,39,39,39,39,39,39,39,39,39,39,39,39,39,39,39,39,39,39,39,39,39,
39,39,39,39,39,39,39,39,39,39,39,39,39,39,39,39,39,39,39,3395,3396,3397,3398,3399,3400,3401,3402,3403,3404,3405,3406,3407,3408,3409,3410,3411,3412,3413,3414,3415,3416,3417,3418,3419,3420,3421,3422,3423,3424,3425,3426,3427,3428,3429,3430,3431,3432,3433,3434,3435,3436,3437,3438,3439,3440,3441,3442,3443,3444,3445,3446,3447,3448,3449,3450,3451,3452,3453,3454,3455,3456,3457,3458,3459,3460,3461,3462,3463,3464,3465,3466,3467,3468,3469,3470,3471,3472,3473,3474,3475,3476,3477,3478,3479,3480,3481,3482,3483,3484,3485,3486,3487,3488,3489,3490,39,39,39,39,39,39,39,39,39,39,39,39,39,39,39,39,39,39,39,39,39,39,39,39,39,39,39,39,39,39,39,39,39,39,39,39,39,39,39,39,39,39,39,39,39,
39,39,39,39,39,39,39,39,39,39,39,39,39,39,39,39,39,39,39,3555,3556,3557,3558,3559,3560,3561,3562,3563,3564,3565,3566,3567,3568,3569,3570,3571,3572,3573,3574,3575,3576,3577,3578,3579,3580,3581,3582,3583,3584,3585,3586,3587,3588,3589,3590,3591,3592,3593,3594,3595,3596,3597,3598,3599,3600,3601,3602,3603,3604,3605,3606,3607,3608,3609,3610,3611,3612,3613,3614,3615,3616,3617,3618,3619,3620,3621,3622,3623,3624,3625,3626,3627,3628,3629,3630,3631,3632,3633,3634,3635,3636,3637,3638,3639,3640,3641,3642,3643,3644,3645,3646,3647,3648,3649,3650,39,39,39,39,39,39,39,39,39,39,39,39,39,39,39,39,39,39,39,39,39,39,39,39,39,39,39,39,39,39,39,39,39,39,39,39,39,39,39,39,39,39,39,39,39,
39,39,39,39,39,39,39,39,39,39,39,39,39,39,39,39,39,39,39,3715,3716,3717,3718,3719,3720,3721,3722,3723,3724,3725,3726,3727,3728,3729,3730,3731,3732,3733,3734,3735,3736,3737,3738,3739,3740,3741,3742,3743,3744,3745,3746,3747,3748,3749,3750,3751,3752,3753,3754,3755,3756,3757,3758,3759,3760,3761,3762,3763,3764,3765,3766,3767,3768,3769,3770,3771,3772,3773,3774,3775,3776,3777,3778,3779,3780,3781,3782,3783,3784,3785,3786,3787,3788,3789,3790,3791,3792,3793,3794,3795,3796,3797,3798,3799,3800,3801,3802,3803,3804,3805,3806,3807,3808,3809,3810,39,39,39,39,39,39,39,39,39,39,39,39,39,39,39,39,39,39,39,39,39,39,39,39,39,39,39,39,39,39,39,39,39,39,39,39,39,39,39,39,39,39,39,39,39,
39,39,39,39,39,39,39,39,39,39,39,39,39,39,39,39,39,39,39,3875,3876,3877,3878,3879,3880,3881,3882,3883,3884,3885,3886,3887,3888,3889,3890,3891,3892,3893,3894,3895,3896,3897,3898,3899,3900,3901,3902,3903,3904,3905,3906,3907,3908,3909,3910,3911,3912,3913,3914,3915,3916,3917,3918,3919,3920,3921,3922,3923,3924,3925,3926,3927,3928,3929,3930,3931,3932,3933,3934,3935,3936,3937,3938,3939,3940,3941,3942,3943,3944,3945,3946,3947,3948,3949,3950,3951,3952,3953,3954,3955,3956,3957,3958,3959,3960,3961,3962,3963,3964,3965,3966,3967,3968,3969,3970,39,39,39,39,39,39,39,39,39,39,39,39,39,39,39,39,39,39,39,39,39,39,39,39,39,39,39,39,39,39,39,39,39,39,39,39,39,39,39,39,39,39,39,39,39,
39,39,39,39,39,39,39,39,39,39,39,39,39,39,39,39,39,39,39,4035,4036,4037,4038,4039,4040,4041,4042,4043,4044,4045,4046,4047,4048,4049,4050,4051,4052,4053,4054,4055,4056,4057,4058,4059,4060,4061,4062,4063,4064,4065,4066,4067,4068,4069,4070,4071,4072,4073,4074,4075,4076,4077,4078,4079,4080,4081,4082,4083,4084,4085,4086,4087,4088,4089,4090,4091,4092,4093,4094,4095,4096,4097,4098,4099,4100,4101,4102,4103,4104,4105,4106,4107,4108,4109,4110,4111,4112,4113,4114,4115,4116,4117,4118,4119,4120,4121,4122,4123,4124,4125,4126,4127,4128,4129,4130,39,39,39,39,39,39,39,39,39,39,39,39,39,39,39,39,39,39,39,39,39,39,39,39,39,39,39,39,39,39,39,39,39,39,39,39,39,39,39,39,39,39,39,39,39,
39,39,39,39,39,39,39,39,39,39,39,39,39,39,39,39,39,39,39,4195,4196,4197,4198,4199,4200,4201,4202,4203,4204,4205,4206,4207,4208,4209,4210,4211,4212,4213,4214,4215,4216,4217,4218,4219,4220,4221,4222,4223,4224,4225,4226,4227,4228,4229,4230,4231,4232,4233,4234,4235,4236,4237,4238,4239,4240,4241,4242,4243,4244,4245,4246,4247,4248,4249,4250,4251,4252,4253,4254,4255,4256,4257,4258,4259,4260,4261,4262,4263,4264,4265,4266,4267,4268,4269,4270,4271,4272,4273,4274,4275,4276,4277,4278,4279,4280,4281,4282,4283,4284,4285,4286,4287,4288,4289,4290,39,39,39,39,39,39,39,39,39,39,39,39,39,39,39,39,39,39,39,39,39,39,39,39,39,39,39,39,39,39,39,39,39,39,39,39,39,39,39,39,39,39,39,39,39,
39,39,39,39,39,39,39,39,39,39,39,39,39,39,39,39,39,39,39,4355,4356,4357,4358,4359,4360,4361,4362,4363,4364,4365,4366,4367,4368,4369,4370,4371,4372,4373,4374,4375,4376,4377,4378,4379,4380,4381,4382,4383,4384,4385,4386,4387,4388,4389,4390,4391,4392,4393,4394,4395,4396,4397,4398,4399,4400,4401,4402,4403,4404,4405,4406,4407,4408,4409,4410,4411,4412,4413,4414,4415,4416,4417,4418,4419,4420,4421,4422,4423,4424,4425,4426,4427,4428,4429,4430,4431,4432,4433,4434,4435,4436,4437,4438,4439,4440,4441,4442,4443,4444,4445,4446,4447,4448,4449,4450,39,39,39,39,39,39,39,39,39,39,39,39,39,39,39,39,39,39,39,39,39,39,39,39,39,39,39,39,39,39,39,39,39,39,39,39,39,39,39,39,39,39,39,39,39,
39,39,39,39,39,39,39,39,39,39,39,39,39,39,39,39,39,39,39,4515,4516,4517,4518,4519,4520,4521,4522,4523,4524,4525,4526,4527,4528,4529,4530,4531,4532,4533,4534,4535,4536,4537,4538,4539,4540,4541,4542,4543,4544,4545,4546,4547,4548,4549,4550,4551,4552,4553,4554,4555,4556,4557,4558,4559,4560,4561,4562,4563,4564,4565,4566,4567,4568,4569,4570,4571,4572,4573,4574,4575,4576,4577,4578,4579,4580,4581,4582,4583,4584,4585,4586,4587,4588,4589,4590,4591,4592,4593,4594,4595,4596,4597,4598,4599,4600,4601,4602,4603,4604,4605,4606,4607,4608,4609,4610,39,39,39,39,39,39,39,39,39,39,39,39,39,39,39,39,39,39,39,39,39,39,39,39,39,39,39,39,39,39,39,39,39,39,39,39,39,39,39,39,39,39,39,39,39,
39,39,39,39,39,39,39,39,39,39,39,39,39,39,39,39,39,39,39,4675,4676,4677,4678,4679,4680,4681,4682,4683,4684,4685,4686,4687,4688,4689,4690,4691,4692,4693,4694,4695,4696,4697,4698,4699,4700,4701,4702,4703,4704,4705,4706,4707,4708,4709,4710,4711,4712,4713,4714,4715,4716,4717,4718,4719,4720,4721,4722,4723,4724,4725,4726,4727,4728,4729,4730,4731,4732,4733,4734,4735,4736,4737,4738,4739,4740,4741,4742,4743,4744,4745,4746,4747,4748,4749,4750,4751,4752,4753,4754,4755,4756,4757,4758,4759,4760,4761,4762,4763,4764,4765,4766,4767,4768,4769,4770,39,39,39,39,39,39,39,39,39,39,39,39,39,39,39,39,39,39,39,39,39,39,39,39,39,39,39,39,39,39,39,39,39,39,39,39,39,39,39,39,39,39,39,39,39,
39,39,39,39,39,39,39,39,39,39,39,39,39,39,39,39,39,39,39,4835,4836,4837,4838,4839,4840,4841,4842,4843,4844,4845,4846,4847,4848,4849,4850,4851,4852,4853,4854,4855,4856,4857,4858,4859,4860,4861,4862,4863,4864,4865,4866,4867,4868,4869,4870,4871,4872,4873,4874,4875,4876,4877,4878,4879,4880,4881,4882,4883,4884,4885,4886,4887,4888,4889,4890,4891,4892,4893,4894,4895,4896,4897,4898,4899,4900,4901,4902,4903,4904,4905,4906,4907,4908,4909,4910,4911,4912,4913,4914,4915,4916,4917,4918,4919,4920,4921,4922,4923,4924,4925,4926,4927,4928,4929,4930,39,39,39,39,39,39,39,39,39,39,39,39,39,39,39,39,39,39,39,39,39,39,39,39,39,39,39,39,39,39,39,39,39,39,39,39,39,39,39,39,39,39,39,39,39,
39,39,39,39,39,39,39,39,39,39,39,39,39,39,39,39,39,39,39,4995,4996,4997,4998,4999,5000,5001,5002,5003,5004,5005,5006,5007,5008,5009,5010,5011,5012,5013,5014,5015,5016,5017,5018,5019,5020,5021,5022,5023,5024,5025,5026,5027,5028,5029,5030,5031,5032,5033,5034,5035,5036,5037,5038,5039,5040,5041,5042,5043,5044,5045,5046,5047,5048,5049,5050,5051,5052,5053,5054,5055,5056,5057,5058,5059,5060,5061,5062,5063,5064,5065,5066,5067,5068,5069,5070,5071,5072,5073,5074,5075,5076,5077,5078,5079,5080,5081,5082,5083,5084,5085,5086,5087,5088,5089,5090,39,39,39,39,39,39,39,39,39,39,39,39,39,39,39,39,39,39,39,39,39,39,39,39,39,39,39,39,39,39,39,39,39,39,39,39,39,39,39,39,39,39,39,39,39,
39,39,39,39,39,39,39,39,39,39,39,39,39,39,39,39,39,39,39,5155,5156,5157,5158,5159,5160,5161,5162,5163,5164,5165,5166,5167,5168,5169,5170,5171,5172,5173,5174,5175,5176,5177,5178,5179,5180,5181,5182,5183,5184,5185,5186,5187,5188,5189,5190,5191,5192,5193,5194,5195,5196,5197,5198,5199,5200,5201,5202,5203,5204,5205,5206,5207,5208,5209,5210,5211,5212,5213,5214,5215,5216,5217,5218,5219,5220,5221,5222,5223,5224,5225,5226,5227,5228,5229,5230,5231,5232,5233,5234,5235,5236,5237,5238,5239,5240,5241,5242,5243,5244,5245,5246,5247,5248,5249,5250,39,39,39,39,39,39,39,39,39,39,39,39,39,39,39,39,39,39,39,39,39,39,39,39,39,39,39,39,39,39,39,39,39,39,39,39,39,39,39,39,39,39,39,39,39,
39,39,39,39,39,39,39,39,39,39,39,39,39,39,39,39,39,39,39,5315,5316,5317,5318,5319,5320,5321,5322,5323,5324,5325,5326,5327,5328,5329,5330,5331,5332,5333,5334,5335,5336,5337,5338,5339,5340,5341,5342,5343,5344,5345,5346,5347,5348,5349,5350,5351,5352,5353,5354,5355,5356,5357,5358,5359,5360,5361,5362,5363,5364,5365,5366,5367,5368,5369,5370,5371,5372,5373,5374,5375,5376,5377,5378,5379,5380,5381,5382,5383,5384,5385,5386,5387,5388,5389,5390,5391,5392,5393,5394,5395,5396,5397,5398,5399,5400,5401,5402,5403,5404,5405,5406,5407,5408,5409,5410,39,39,39,39,39,39,39,39,39,39,39,39,39,39,39,39,39,39,39,39,39,39,39,39,39,39,39,39,39,39,39,39,39,39,39,39,39,39,39,39,39,39,39,39,39,
39,39,39,39,39,39,39,39,39,39,39,39,39,39,39,39,39,39,39,5475,5476,5477,5478,5479,5480,5481,5482,5483,5484,5485,5486,5487,5488,5489,5490,5491,5492,5493,5494,5495,5496,5497,5498,5499,5500,5501,5502,5503,5504,5505,5506,5507,5508,5509,5510,5511,5512,5513,5514,5515,5516,5517,5518,5519,5520,5521,5522,5523,5524,5525,5526,5527,5528,5529,5530,5531,5532,5533,5534,5535,5536,5537,5538,5539,5540,5541,5542,5543,5544,5545,5546,5547,5548,5549,5550,5551,5552,5553,5554,5555,5556,5557,5558,5559,5560,5561,5562,5563,5564,5565,5566,5567,5568,5569,5570,39,39,39,39,39,39,39,39,39,39,39,39,39,39,39,39,39,39,39,39,39,39,39,39,39,39,39,39,39,39,39,39,39,39,39,39,39,39,39,39,39,39,39,39,39,
39,39,39,39,39,39,39,39,39,39,39,39,39,39,39,39,39,39,39,5635,5636,5637,5638,5639,5640,5641,5642,5643,5644,5645,5646,5647,5648,5649,5650,5651,5652,5653,5654,5655,5656,5657,5658,5659,5660,5661,5662,5663,5664,5665,5666,5667,5668,5669,5670,5671,5672,5673,5674,5675,5676,5677,5678,5679,5680,5681,5682,5683,5684,5685,5686,5687,5688,5689,5690,5691,5692,5693,5694,5695,5696,5697,5698,5699,5700,5701,5702,5703,5704,5705,5706,5707,5708,5709,5710,5711,5712,5713,5714,5715,5716,5717,5718,5719,5720,5721,5722,5723,5724,5725,5726,5727,5728,5729,5730,39,39,39,39,39,39,39,39,39,39,39,39,39,39,39,39,39,39,39,39,39,39,39,39,39,39,39,39,39,39,39,39,39,39,39,39,39,39,39,39,39,39,39,39,39,
39,39,39,39,39,39,39,39,39,39,39,39,39,39,39,39,39,39,39,5795,5796,5797,5798,5799,5800,5801,5802,5803,5804,5805,5806,5807,5808,5809,5810,5811,5812,5813,5814,5815,5816,5817,5818,5819,5820,5821,5822,5823,5824,5825,5826,5827,5828,5829,5830,5831,5832,5833,5834,5835,5836,5837,5838,5839,5840,5841,5842,5843,5844,5845,5846,5847,5848,5849,5850,5851,5852,5853,5854,5855,5856,5857,5858,5859,5860,5861,5862,5863,5864,5865,5866,5867,5868,5869,5870,5871,5872,5873,5874,5875,5876,5877,5878,5879,5880,5881,5882,5883,5884,5885,5886,5887,5888,5889,5890,39,39,39,39,39,39,39,39,39,39,39,39,39,39,39,39,39,39,39,39,39,39,39,39,39,39,39,39,39,39,39,39,39,39,39,39,39,39,39,39,39,39,39,39,39,
39,39,39,39,39,39,39,39,39,39,39,39,39,39,39,39,39,39,39,5955,5956,5957,5958,5959,5960,5961,5962,5963,5964,5965,5966,5967,5968,5969,5970,5971,5972,5973,5974,5975,5976,5977,5978,5979,5980,5981,5982,5983,5984,5985,5986,5987,5988,5989,5990,5991,5992,5993,5994,5995,5996,5997,5998,5999,6000,6001,6002,6003,6004,6005,6006,6007,6008,6009,6010,6011,6012,6013,6014,6015,6016,6017,6018,6019,6020,6021,6022,6023,6024,6025,6026,6027,6028,6029,6030,6031,6032,6033,6034,6035,6036,6037,6038,6039,6040,6041,6042,6043,6044,6045,6046,6047,6048,6049,6050,39,39,39,39,39,39,39,39,39,39,39,39,39,39,39,39,39,39,39,39,39,39,39,39,39,39,39,39,39,39,39,39,39,39,39,39,39,39,39,39,39,39,39,39,39,
39,39,39,39,39,39,39,39,39,39,39,39,39,39,39,39,39,39,39,6115,6116,6117,6118,6119,6120,6121,6122,6123,6124,6125,6126,6127,6128,6129,6130,6131,6132,6133,6134,6135,6136,6137,6138,6139,6140,6141,6142,6143,6144,6145,6146,6147,6148,6149,6150,6151,6152,6153,6154,6155,6156,6157,6158,6159,6160,6161,6162,6163,6164,6165,6166,6167,6168,6169,6170,6171,6172,6173,6174,6175,6176,6177,6178,6179,6180,6181,6182,6183,6184,6185,6186,6187,6188,6189,6190,6191,6192,6193,6194,6195,6196,6197,6198,6199,6200,6201,6202,6203,6204,6205,6206,6207,6208,6209,6210,39,39,39,39,39,39,39,39,39,39,39,39,39,39,39,39,39,39,39,39,39,39,39,39,39,39,39,39,39,39,39,39,39,39,39,39,39,39,39,39,39,39,39,39,39,
39,39,39,39,39,39,39,39,39,39,39,39,39,39,39,39,39,39,39,6275,6276,6277,6278,6279,6280,6281,6282,6283,6284,6285,6286,6287,6288,6289,6290,6291,6292,6293,6294,6295,6296,6297,6298,6299,6300,6301,6302,6303,6304,6305,6306,6307,6308,6309,6310,6311,6312,6313,6314,6315,6316,6317,6318,6319,6320,6321,6322,6323,6324,6325,6326,6327,6328,6329,6330,6331,6332,6333,6334,6335,6336,6337,6338,6339,6340,6341,6342,6343,6344,6345,6346,6347,6348,6349,6350,6351,6352,6353,6354,6355,6356,6357,6358,6359,6360,6361,6362,6363,6364,6365,6366,6367,6368,6369,6370,39,39,39,39,39,39,39,39,39,39,39,39,39,39,39,39,39,39,39,39,39,39,39,39,39,39,39,39,39,39,39,39,39,39,39,39,39,39,39,39,39,39,39,39,39,
39,39,39,39,39,39,39,39,39,39,39,39,39,39,39,39,39,39,39,6435,6436,6437,6438,6439,6440,6441,6442,6443,6444,6445,6446,6447,6448,6449,6450,6451,6452,6453,6454,6455,6456,6457,6458,6459,6460,6461,6462,6463,6464,6465,6466,6467,6468,6469,6470,6471,6472,6473,6474,6475,6476,6477,6478,6479,6480,6481,6482,6483,6484,6485,6486,6487,6488,6489,6490,6491,6492,6493,6494,6495,6496,6497,6498,6499,6500,6501,6502,6503,6504,6505,6506,6507,6508,6509,6510,6511,6512,6513,6514,6515,6516,6517,6518,6519,6520,6521,6522,6523,6524,6525,6526,6527,6528,6529,6530,39,39,39,39,39,39,39,39,39,39,39,39,39,39,39,39,39,39,39,39,39,39,39,39,39,39,39,39,39,39,39,39,39,39,39,39,39,39,39,39,39,39,39,39,39,
39,39,39,39,39,39,39,39,39,39,39,39,39,39,39,39,39,39,39,6595,6596,6597,6598,6599,6600,6601,6602,6603,6604,6605,6606,6607,6608,6609,6610,6611,6612,6613,6614,6615,6616,6617,6618,6619,6620,6621,6622,6623,6624,6625,6626,6627,6628,6629,6630,6631,6632,6633,6634,6635,6636,6637,6638,6639,6640,6641,6642,6643,6644,6645,6646,6647,6648,6649,6650,6651,6652,6653,6654,6655,6656,6657,6658,6659,6660,6661,6662,6663,6664,6665,6666,6667,6668,6669,6670,6671,6672,6673,6674,6675,6676,6677,6678,6679,6680,6681,6682,6683,6684,6685,6686,6687,6688,6689,6690,39,39,39,39,39,39,39,39,39,39,39,39,39,39,39,39,39,39,39,39,39,39,39,39,39,39,39,39,39,39,39,39,39,39,39,39,39,39,39,39,39,39,39,39,39,
39,39,39,39,39,39,39,39,39,39,39,39,39,39,39,39,39,39,39,6755,6756,6757,6758,6759,6760,6761,6762,6763,6764,6765,6766,6767,6768,6769,6770,6771,6772,6773,6774,6775,6776,6777,6778,6779,6780,6781,6782,6783,6784,6785,6786,6787,6788,6789,6790,6791,6792,6793,6794,6795,6796,6797,6798,6799,6800,6801,6802,6803,6804,6805,6806,6807,6808,6809,6810,6811,6812,6813,6814,6815,6816,6817,6818,6819,6820,6821,6822,6823,6824,6825,6826,6827,6828,6829,6830,6831,6832,6833,6834,6835,6836,6837,6838,6839,6840,6841,6842,6843,6844,6845,6846,6847,6848,6849,6850,39,39,39,39,39,39,39,39,39,39,39,39,39,39,39,39,39,39,39,39,39,39,39,39,39,39,39,39,39,39,39,39,39,39,39,39,39,39,39,39,39,39,39,39,39,
39,39,39,39,39,39,39,39,39,39,39,39,39,39,39,39,39,39,39,6915,6916,6917,6918,6919,6920,6921,6922,6923,6924,6925,6926,6927,6928,6929,6930,6931,6932,6933,6934,6935,6936,6937,6938,6939,6940,6941,6942,6943,6944,6945,6946,6947,6948,6949,6950,6951,6952,6953,6954,6955,6956,6957,6958,6959,6960,6961,6962,6963,6964,6965,6966,6967,6968,6969,6970,6971,6972,6973,6974,6975,6976,6977,6978,6979,6980,6981,6982,6983,6984,6985,6986,6987,6988,6989,6990,6991,6992,6993,6994,6995,6996,6997,6998,6999,7000,7001,7002,7003,7004,7005,7006,7007,7008,7009,7010,39,39,39,39,39,39,39,39,39,39,39,39,39,39,39,39,39,39,39,39,39,39,39,39,39,39,39,39,39,39,39,39,39,39,39,39,39,39,39,39,39,39,39,39,39,
39,39,39,39,39,39,39,39,39,39,39,39,39,39,39,39,39,39,39,7075,7076,7077,7078,7079,7080,7081,7082,7083,7084,7085,7086,7087,7088,7089,7090,7091,7092,7093,7094,7095,7096,7097,7098,7099,7100,7101,7102,7103,7104,7105,7106,7107,7108,7109,7110,7111,7112,7113,7114,7115,7116,7117,7118,7119,7120,7121,7122,7123,7124,7125,7126,7127,7128,7129,7130,7131,7132,7133,7134,7135,7136,7137,7138,7139,7140,7141,7142,7143,7144,7145,7146,7147,7148,7149,7150,7151,7152,7153,7154,7155,7156,7157,7158,7159,7160,7161,7162,7163,7164,7165,7166,7167,7168,7169,7170,39,39,39,39,39,39,39,39,39,39,39,39,39,39,39,39,39,39,39,39,39,39,39,39,39,39,39,39,39,39,39,39,39,39,39,39,39,39,39,39,39,39,39,39,39,
39,39,39,39,39,39,39,39,39,39,39,39,39,39,39,39,39,39,39,7235,7236,7237,7238,7239,7240,7241,7242,7243,7244,7245,7246,7247,7248,7249,7250,7251,7252,7253,7254,7255,7256,7257,7258,7259,7260,7261,7262,7263,7264,7265,7266,7267,7268,7269,7270,7271,7272,7273,7274,7275,7276,7277,7278,7279,7280,7281,7282,7283,7284,7285,7286,7287,7288,7289,7290,7291,7292,7293,7294,7295,7296,7297,7298,7299,7300,7301,7302,7303,7304,7305,7306,7307,7308,7309,7310,7311,7312,7313,7314,7315,7316,7317,7318,7319,7320,7321,7322,7323,7324,7325,7326,7327,7328,7329,7330,39,39,39,39,39,39,39,39,39,39,39,39,39,39,39,39,39,39,39,39,39,39,39,39,39,39,39,39,39,39,39,39,39,39,39,39,39,39,39,39,39,39,39,39,39,
39,39,39,39,39,39,39,39,39,39,39,39,39,39,39,39,39,39,39,7395,7396,7397,7398,7399,7400,7401,7402,7403,7404,7405,7406,7407,7408,7409,7410,7411,7412,7413,7414,7415,7416,7417,7418,7419,7420,7421,7422,7423,7424,7425,7426,7427,7428,7429,7430,7431,7432,7433,7434,7435,7436,7437,7438,7439,7440,7441,7442,7443,7444,7445,7446,7447,7448,7449,7450,7451,7452,7453,7454,7455,7456,7457,7458,7459,7460,7461,7462,7463,7464,7465,7466,7467,7468,7469,7470,7471,7472,7473,7474,7475,7476,7477,7478,7479,7480,7481,7482,7483,7484,7485,7486,7487,7488,7489,7490,39,39,39,39,39,39,39,39,39,39,39,39,39,39,39,39,39,39,39,39,39,39,39,39,39,39,39,39,39,39,39,39,39,39,39,39,39,39,39,39,39,39,39,39,39,
39,39,39,39,39,39,39,39,39,39,39,39,39,39,39,39,39,39,39,7555,7556,7557,7558,7559,7560,7561,7562,7563,7564,7565,7566,7567,7568,7569,7570,7571,7572,7573,7574,7575,7576,7577,7578,7579,7580,7581,7582,7583,7584,7585,7586,7587,7588,7589,7590,7591,7592,7593,7594,7595,7596,7597,7598,7599,7600,7601,7602,7603,7604,7605,7606,7607,7608,7609,7610,7611,7612,7613,7614,7615,7616,7617,7618,7619,7620,7621,7622,7623,7624,7625,7626,7627,7628,7629,7630,7631,7632,7633,7634,7635,7636,7637,7638,7639,7640,7641,7642,7643,7644,7645,7646,7647,7648,7649,7650,39,39,39,39,39,39,39,39,39,39,39,39,39,39,39,39,39,39,39,39,39,39,39,39,39,39,39,39,39,39,39,39,39,39,39,39,39,39,39,39,39,39,39,39,39,
39,39,39,39,39,39,39,39,39,39,39,39,39,39,39,39,39,39,39,7715,7716,7717,7718,7719,7720,7721,7722,7723,7724,7725,7726,7727,7728,7729,7730,7731,7732,7733,7734,7735,7736,7737,7738,7739,7740,7741,7742,7743,7744,7745,7746,7747,7748,7749,7750,7751,7752,7753,7754,7755,7756,7757,7758,7759,7760,7761,7762,7763,7764,7765,7766,7767,7768,7769,7770,7771,7772,7773,7774,7775,7776,7777,7778,7779,7780,7781,7782,7783,7784,7785,7786,7787,7788,7789,7790,7791,7792,7793,7794,7795,7796,7797,7798,7799,7800,7801,7802,7803,7804,7805,7806,7807,7808,7809,7810,39,39,39,39,39,39,39,39,39,39,39,39,39,39,39,39,39,39,39,39,39,39,39,39,39,39,39,39,39,39,39,39,39,39,39,39,39,39,39,39,39,39,39,39,39,
39,39,39,39,39,39,39,39,39,39,39,39,39,39,39,39,39,39,39,7875,7876,7877,7878,7879,7880,7881,7882,7883,7884,7885,7886,7887,7888,7889,7890,7891,7892,7893,7894,7895,7896,7897,7898,7899,7900,7901,7902,7903,7904,7905,7906,7907,7908,7909,7910,7911,7912,7913,7914,7915,7916,7917,7918,7919,7920,7921,7922,7923,7924,7925,7926,7927,7928,7929,7930,7931,7932,7933,7934,7935,7936,7937,7938,7939,7940,7941,7942,7943,7944,7945,7946,7947,7948,7949,7950,7951,7952,7953,7954,7955,7956,7957,7958,7959,7960,7961,7962,7963,7964,7965,7966,7967,7968,7969,7970,39,39,39,39,39,39,39,39,39,39,39,39,39,39,39,39,39,39,39,39,39,39,39,39,39,39,39,39,39,39,39,39,39,39,39,39,39,39,39,39,39,39,39,39,39,
39,39,39,39,39,39,39,39,39,39,39,39,39,39,39,39,39,39,39,8035,8036,8037,8038,8039,8040,8041,8042,8043,8044,8045,8046,8047,8048,8049,8050,8051,8052,8053,8054,8055,8056,8057,8058,8059,8060,8061,8062,8063,8064,8065,8066,8067,8068,8069,8070,8071,8072,8073,8074,8075,8076,8077,8078,8079,8080,8081,8082,8083,8084,8085,8086,8087,8088,8089,8090,8091,8092,8093,8094,8095,8096,8097,8098,8099,8100,8101,8102,8103,8104,8105,8106,8107,8108,8109,8110,8111,8112,8113,8114,8115,8116,8117,8118,8119,8120,8121,8122,8123,8124,8125,8126,8127,8128,8129,8130,39,39,39,39,39,39,39,39,39,39,39,39,39,39,39,39,39,39,39,39,39,39,39,39,39,39,39,39,39,39,39,39,39,39,39,39,39,39,39,39,39,39,39,39,39,
39,39,39,39,39,39,39,39,39,39,39,39,39,39,39,39,39,39,39,8195,8196,8197,8198,8199,8200,8201,8202,8203,8204,8205,8206,8207,8208,8209,8210,8211,8212,8213,8214,8215,8216,8217,8218,8219,8220,8221,8222,8223,8224,8225,8226,8227,8228,8229,8230,8231,8232,8233,8234,8235,8236,8237,8238,8239,8240,8241,8242,8243,8244,8245,8246,8247,8248,8249,8250,8251,8252,8253,8254,8255,8256,8257,8258,8259,8260,8261,8262,8263,8264,8265,8266,8267,8268,8269,8270,8271,8272,8273,8274,8275,8276,8277,8278,8279,8280,8281,8282,8283,8284,8285,8286,8287,8288,8289,8290,39,39,39,39,39,39,39,39,39,39,39,39,39,39,39,39,39,39,39,39,39,39,39,39,39,39,39,39,39,39,39,39,39,39,39,39,39,39,39,39,39,39,39,39,39,
39,39,39,39,39,39,39,39,39,39,39,39,39,39,39,39,39,39,39,8355,8356,8357,8358,8359,8360,8361,8362,8363,8364,8365,8366,8367,8368,8369,8370,8371,8372,8373,8374,8375,8376,8377,8378,8379,8380,8381,8382,8383,8384,8385,8386,8387,8388,8389,8390,8391,8392,8393,8394,8395,8396,8397,8398,8399,8400,8401,8402,8403,8404,8405,8406,8407,8408,8409,8410,8411,8412,8413,8414,8415,8416,8417,8418,8419,8420,8421,8422,8423,8424,8425,8426,8427,8428,8429,8430,8431,8432,8433,8434,8435,8436,8437,8438,8439,8440,8441,8442,8443,8444,8445,8446,8447,8448,8449,8450,39,39,39,39,39,39,39,39,39,39,39,39,39,39,39,39,39,39,39,39,39,39,39,39,39,39,39,39,39,39,39,39,39,39,39,39,39,39,39,39,39,39,39,39,39,
39,39,39,39,39,39,39,39,39,39,39,39,39,39,39,39,39,39,39,8515,8516,8517,8518,8519,8520,8521,8522,8523,8524,8525,8526,8527,8528,8529,8530,8531,8532,8533,8534,8535,8536,8537,8538,8539,8540,8541,8542,8543,8544,8545,8546,8547,8548,8549,8550,8551,8552,8553,8554,8555,8556,8557,8558,8559,8560,8561,8562,8563,8564,8565,8566,8567,8568,8569,8570,8571,8572,8573,8574,8575,8576,8577,8578,8579,8580,8581,8582,8583,8584,8585,8586,8587,8588,8589,8590,8591,8592,8593,8594,8595,8596,8597,8598,8599,8600,8601,8602,8603,8604,8605,8606,8607,8608,8609,8610,39,39,39,39,39,39,39,39,39,39,39,39,39,39,39,39,39,39,39,39,39,39,39,39,39,39,39,39,39,39,39,39,39,39,39,39,39,39,39,39,39,39,39,39,39,
39,39,39,39,39,39,39,39,39,39,39,39,39,39,39,39,39,39,39,8675,8676,8677,8678,8679,8680,8681,8682,8683,8684,8685,8686,8687,8688,8689,8690,8691,8692,8693,8694,8695,8696,8697,8698,8699,8700,8701,8702,8703,8704,8705,8706,8707,8708,8709,8710,8711,8712,8713,8714,8715,8716,8717,8718,8719,8720,8721,8722,8723,8724,8725,8726,8727,8728,8729,8730,8731,8732,8733,8734,8735,8736,8737,8738,8739,8740,8741,8742,8743,8744,8745,8746,8747,8748,8749,8750,8751,8752,8753,8754,8755,8756,8757,8758,8759,8760,8761,8762,8763,8764,8765,8766,8767,8768,8769,8770,39,39,39,39,39,39,39,39,39,39,39,39,39,39,39,39,39,39,39,39,39,39,39,39,39,39,39,39,39,39,39,39,39,39,39,39,39,39,39,39,39,39,39,39,39,
39,39,39,39,39,39,39,39,39,39,39,39,39,39,39,39,39,39,39,8835,8836,8837,8838,8839,8840,8841,8842,8843,8844,8845,8846,8847,8848,8849,8850,8851,8852,8853,8854,8855,8856,8857,8858,8859,8860,8861,8862,8863,8864,8865,8866,8867,8868,8869,8870,8871,8872,8873,8874,8875,8876,8877,8878,8879,8880,8881,8882,8883,8884,8885,8886,8887,8888,8889,8890,8891,8892,8893,8894,8895,8896,8897,8898,8899,8900,8901,8902,8903,8904,8905,8906,8907,8908,8909,8910,8911,8912,8913,8914,8915,8916,8917,8918,8919,8920,8921,8922,8923,8924,8925,8926,8927,8928,8929,8930,39,39,39,39,39,39,39,39,39,39,39,39,39,39,39,39,39,39,39,39,39,39,39,39,39,39,39,39,39,39,39,39,39,39,39,39,39,39,39,39,39,39,39,39,39,
39,39,39,39,39,39,39,39,39,39,39,39,39,39,39,39,39,39,39,8995,8996,8997,8998,8999,9000,9001,9002,9003,9004,9005,9006,9007,9008,9009,9010,9011,9012,9013,9014,9015,9016,9017,9018,9019,9020,9021,9022,9023,9024,9025,9026,9027,9028,9029,9030,9031,9032,9033,9034,9035,9036,9037,9038,9039,9040,9041,9042,9043,9044,9045,9046,9047,9048,9049,9050,9051,9052,9053,9054,9055,9056,9057,9058,9059,9060,9061,9062,9063,9064,9065,9066,9067,9068,9069,9070,9071,9072,9073,9074,9075,9076,9077,9078,9079,9080,9081,9082,9083,9084,9085,9086,9087,9088,9089,9090,39,39,39,39,39,39,39,39,39,39,39,39,39,39,39,39,39,39,39,39,39,39,39,39,39,39,39,39,39,39,39,39,39,39,39,39,39,39,39,39,39,39,39,39,39,
39,39,39,39,39,39,39,39,39,39,39,39,39,39,39,39,39,39,39,9155,9156,9157,9158,9159,9160,9161,9162,9163,9164,9165,9166,9167,9168,9169,9170,9171,9172,9173,9174,9175,9176,9177,9178,9179,9180,9181,9182,9183,9184,9185,9186,9187,9188,9189,9190,9191,9192,9193,9194,9195,9196,9197,9198,9199,9200,9201,9202,9203,9204,9205,9206,9207,9208,9209,9210,9211,9212,9213,9214,9215,9216,9217,9218,9219,9220,9221,9222,9223,9224,9225,9226,9227,9228,9229,9230,9231,9232,9233,9234,9235,9236,9237,9238,9239,9240,9241,9242,9243,9244,9245,9246,9247,9248,9249,9250,39,39,39,39,39,39,39,39,39,39,39,39,39,39,39,39,39,39,39,39,39,39,39,39,39,39,39,39,39,39,39,39,39,39,39,39,39,39,39,39,39,39,39,39,39,
39,39,39,39,39,39,39,39,39,39,39,39,39,39,39,39,39,39,39,9315,9316,9317,9318,9319,9320,9321,9322,9323,9324,9325,9326,9327,9328,9329,9330,9331,9332,9333,9334,9335,9336,9337,9338,9339,9340,9341,9342,9343,9344,9345,9346,9347,9348,9349,9350,9351,9352,9353,9354,9355,9356,9357,9358,9359,9360,9361,9362,9363,9364,9365,9366,9367,9368,9369,9370,9371,9372,9373,9374,9375,9376,9377,9378,9379,9380,9381,9382,9383,9384,9385,9386,9387,9388,9389,9390,9391,9392,9393,9394,9395,9396,9397,9398,9399,9400,9401,9402,9403,9404,9405,9406,9407,9408,9409,9410,39,39,39,39,39,39,39,39,39,39,39,39,39,39,39,39,39,39,39,39,39,39,39,39,39,39,39,39,39,39,39,39,39,39,39,39,39,39,39,39,39,39,39,39,39,
39,39,39,39,39,39,39,39,39,39,39,39,39,39,39,39,39,39,39,9475,9476,9477,9478,9479,9480,9481,9482,9483,9484,9485,9486,9487,9488,9489,9490,9491,9492,9493,9494,9495,9496,9497,9498,9499,9500,9501,9502,9503,9504,9505,9506,9507,9508,9509,9510,9511,9512,9513,9514,9515,9516,9517,9518,9519,9520,9521,9522,9523,9524,9525,9526,9527,9528,9529,9530,9531,9532,9533,9534,9535,9536,9537,9538,9539,9540,9541,9542,9543,9544,9545,9546,9547,9548,9549,9550,9551,9552,9553,9554,9555,9556,9557,9558,9559,9560,9561,9562,9563,9564,9565,9566,9567,9568,9569,9570,39,39,39,39,39,39,39,39,39,39,39,39,39,39,39,39,39,39,39,39,39,39,39,39,39,39,39,39,39,39,39,39,39,39,39,39,39,39,39,39,39,39,39,39,39,
39,39,39,39,39,39,39,39,39,39,39,39,39,39,39,39,39,39,39,9635,9636,9637,9638,9639,9640,9641,9642,9643,9644,9645,9646,9647,9648,9649,9650,9651,9652,9653,9654,9655,9656,9657,9658,9659,9660,9661,9662,9663,9664,9665,9666,9667,9668,9669,9670,9671,9672,9673,9674,9675,9676,9677,9678,9679,9680,9681,9682,9683,9684,9685,9686,9687,9688,9689,9690,9691,9692,9693,9694,9695,9696,9697,9698,9699,9700,9701,9702,9703,9704,9705,9706,9707,9708,9709,9710,9711,9712,9713,9714,9715,9716,9717,9718,9719,9720,9721,9722,9723,9724,9725,9726,9727,9728,9729,9730,39,39,39,39,39,39,39,39,39,39,39,39,39,39,39,39,39,39,39,39,39,39,39,39,39,39,39,39,39,39,39,39,39,39,39,39,39,39,39,39,39,39,39,39,39,
39,39,39,39,39,39,39,39,39,39,39,39,39,39,39,39,39,39,39,9795,9796,9797,9798,9799,9800,9801,9802,9803,9804,9805,9806,9807,9808,9809,9810,9811,9812,9813,9814,9815,9816,9817,9818,9819,9820,9821,9822,9823,9824,9825,9826,9827,9828,9829,9830,9831,9832,9833,9834,9835,9836,9837,9838,9839,9840,9841,9842,9843,9844,9845,9846,9847,9848,9849,9850,9851,9852,9853,9854,9855,9856,9857,9858,9859,9860,9861,9862,9863,9864,9865,9866,9867,9868,9869,9870,9871,9872,9873,9874,9875,9876,9877,9878,9879,9880,9881,9882,9883,9884,9885,9886,9887,9888,9889,9890,39,39,39,39,39,39,39,39,39,39,39,39,39,39,39,39,39,39,39,39,39,39,39,39,39,39,39,39,39,39,39,39,39,39,39,39,39,39,39,39,39,39,39,39,39,
39,39,39,39,39,39,39,39,39,39,39,39,39,39,39,39,39,39,39,9955,9956,9957,9958,9959,9960,9961,9962,9963,9964,9965,9966,9967,9968,9969,9970,9971,9972,9973,9974,9975,9976,9977,9978,9979,9980,9981,9982,9983,9984,9985,9986,9987,9988,9989,9990,9991,9992,9993,9994,9995,9996,9997,9998,9999,10000,10001,10002,10003,10004,10005,10006,10007,10008,10009,10010,10011,10012,10013,10014,10015,10016,10017,10018,10019,10020,10021,10022,10023,10024,10025,10026,10027,10028,10029,10030,10031,10032,10033,10034,10035,10036,10037,10038,10039,10040,10041,10042,10043,10044,10045,10046,10047,10048,10049,10050,39,39,39,39,39,39,39,39,39,39,39,39,39,39,39,39,39,39,39,39,39,39,39,39,39,39,39,39,39,39,39,39,39,39,39,39,39,39,39,39,39,39,39,39,39,
39,39,39,39,39,39,39,39,39,39,39,39,39,39,39,39,39,39,39,10115,10116,10117,10118,10119,10120,10121,10122,10123,10124,10125,10126,10127,10128,10129,10130,10131,10132,10133,10134,10135,10136,10137,10138,10139,10140,10141,10142,10143,10144,10145,10146,10147,10148,10149,10150,10151,10152,10153,10154,10155,10156,10157,10158,10159,10160,10161,10162,10163,10164,10165,10166,10167,10168,10169,10170,10171,10172,10173,10174,10175,10176,10177,10178,10179,10180,10181,10182,10183,10184,10185,10186,10187,10188,10189,10190,10191,10192,10193,10194,10195,10196,10197,10198,10199,10200,10201,10202,10203,10204,10205,10206,10207,10208,10209,10210,39,39,39,39,39,39,39,39,39,39,39,39,39,39,39,39,39,39,39,39,39,39,39,39,39,39,39,39,39,39,39,39,39,39,39,39,39,39,39,39,39,39,39,39,39,
39,39,39,39,39,39,39,39,39,39,39,39,39,39,39,39,39,39,39,10275,10276,10277,10278,10279,10280,10281,10282,10283,10284,10285,10286,10287,10288,10289,10290,10291,10292,10293,10294,10295,10296,10297,10298,10299,10300,10301,10302,10303,10304,10305,10306,10307,10308,10309,10310,10311,10312,10313,10314,10315,10316,10317,10318,10319,10320,10321,10322,10323,10324,10325,10326,10327,10328,10329,10330,10331,10332,10333,10334,10335,10336,10337,10338,10339,10340,10341,10342,10343,10344,10345,10346,10347,10348,10349,10350,10351,10352,10353,10354,10355,10356,10357,10358,10359,10360,10361,10362,10363,10364,10365,10366,10367,10368,10369,10370,39,39,39,39,39,39,39,39,39,39,39,39,39,39,39,39,39,39,39,39,39,39,39,39,39,39,39,39,39,39,39,39,39,39,39,39,39,39,39,39,39,39,39,39,39,
39,39,39,39,39,39,39,39,39,39,39,39,39,39,39,39,39,39,39,10435,10436,10437,10438,10439,10440,10441,10442,10443,10444,10445,10446,10447,10448,10449,10450,10451,10452,10453,10454,10455,10456,10457,10458,10459,10460,10461,10462,10463,10464,10465,10466,10467,10468,10469,10470,10471,10472,10473,10474,10475,10476,10477,10478,10479,10480,10481,10482,10483,10484,10485,10486,10487,10488,10489,10490,10491,10492,10493,10494,10495,10496,10497,10498,10499,10500,10501,10502,10503,10504,10505,10506,10507,10508,10509,10510,10511,10512,10513,10514,10515,10516,10517,10518,10519,10520,10521,10522,10523,10524,10525,10526,10527,10528,10529,10530,39,39,39,39,39,39,39,39,39,39,39,39,39,39,39,39,39,39,39,39,39,39,39,39,39,39,39,39,39,39,39,39,39,39,39,39,39,39,39,39,39,39,39,39,39,
39,39,39,39,39,39,39,39,39,39,39,39,39,39,39,39,39,39,39,10595,10596,10597,10598,10599,10600,10601,10602,10603,10604,10605,10606,10607,10608,10609,10610,10611,10612,10613,10614,10615,10616,10617,10618,10619,10620,10621,10622,10623,10624,10625,10626,10627,10628,10629,10630,10631,10632,10633,10634,10635,10636,10637,10638,10639,10640,10641,10642,10643,10644,10645,10646,10647,10648,10649,10650,10651,10652,10653,10654,10655,10656,10657,10658,10659,10660,10661,10662,10663,10664,10665,10666,10667,10668,10669,10670,10671,10672,10673,10674,10675,10676,10677,10678,10679,10680,10681,10682,10683,10684,10685,10686,10687,10688,10689,10690,39,39,39,39,39,39,39,39,39,39,39,39,39,39,39,39,39,39,39,39,39,39,39,39,39,39,39,39,39,39,39,39,39,39,39,39,39,39,39,39,39,39,39,39,39,
39,39,39,39,39,39,39,39,39,39,39,39,39,39,39,39,39,39,39,10755,10756,10757,10758,10759,10760,10761,10762,10763,10764,10765,10766,10767,10768,10769,10770,10771,10772,10773,10774,10775,10776,10777,10778,10779,10780,10781,10782,10783,10784,10785,10786,10787,10788,10789,10790,10791,10792,10793,10794,10795,10796,10797,10798,10799,10800,10801,10802,10803,10804,10805,10806,10807,10808,10809,10810,10811,10812,10813,10814,10815,10816,10817,10818,10819,10820,10821,10822,10823,10824,10825,10826,10827,10828,10829,10830,10831,10832,10833,10834,10835,10836,10837,10838,10839,10840,10841,10842,10843,10844,10845,10846,10847,10848,10849,10850,39,39,39,39,39,39,39,39,39,39,39,39,39,39,39,39,39,39,39,39,39,39,39,39,39,39,39,39,39,39,39,39,39,39,39,39,39,39,39,39,39,39,39,39,39,
39,39,39,39,39,39,39,39,39,39,39,39,39,39,39,39,39,39,39,10915,10916,10917,10918,10919,10920,10921,10922,10923,10924,10925,10926,10927,10928,10929,10930,10931,10932,10933,10934,10935,10936,10937,10938,10939,10940,10941,10942,10943,10944,10945,10946,10947,10948,10949,10950,10951,10952,10953,10954,10955,10956,10957,10958,10959,10960,10961,10962,10963,10964,10965,10966,10967,10968,10969,10970,10971,10972,10973,10974,10975,10976,10977,10978,10979,10980,10981,10982,10983,10984,10985,10986,10987,10988,10989,10990,10991,10992,10993,10994,10995,10996,10997,10998,10999,11000,11001,11002,11003,11004,11005,11006,11007,11008,11009,11010,39,39,39,39,39,39,39,39,39,39,39,39,39,39,39,39,39,39,39,39,39,39,39,39,39,39,39,39,39,39,39,39,39,39,39,39,39,39,39,39,39,39,39,39,39,
39,39,39,39,39,39,39,39,39,39,39,39,39,39,39,39,39,39,39,11075,11076,11077,11078,11079,11080,11081,11082,11083,11084,11085,11086,11087,11088,11089,11090,11091,11092,11093,11094,11095,11096,11097,11098,11099,11100,11101,11102,11103,11104,11105,11106,11107,11108,11109,11110,11111,11112,11113,11114,11115,11116,11117,11118,11119,11120,11121,11122,11123,11124,11125,11126,11127,11128,11129,11130,11131,11132,11133,11134,11135,11136,11137,11138,11139,11140,11141,11142,11143,11144,11145,11146,11147,11148,11149,11150,11151,11152,11153,11154,11155,11156,11157,11158,11159,11160,11161,11162,11163,11164,11165,11166,11167,11168,11169,11170,39,39,39,39,39,39,39,39,39,39,39,39,39,39,39,39,39,39,39,39,39,39,39,39,39,39,39,39,39,39,39,39,39,39,39,39,39,39,39,39,39,39,39,39,39,
39,39,39,39,39,39,39,39,39,39,39,39,39,39,39,39,39,39,39,11235,11236,11237,11238,11239,11240,11241,11242,11243,11244,11245,11246,11247,11248,11249,11250,11251,11252,11253,11254,11255,11256,11257,11258,11259,11260,11261,11262,11263,11264,11265,11266,11267,11268,11269,11270,11271,11272,11273,11274,11275,11276,11277,11278,11279,11280,11281,11282,11283,11284,11285,11286,11287,11288,11289,11290,11291,11292,11293,11294,11295,11296,11297,11298,11299,11300,11301,11302,11303,11304,11305,11306,11307,11308,11309,11310,11311,11312,11313,11314,11315,11316,11317,11318,11319,11320,11321,11322,11323,11324,11325,11326,11327,11328,11329,11330,39,39,39,39,39,39,39,39,39,39,39,39,39,39,39,39,39,39,39,39,39,39,39,39,39,39,39,39,39,39,39,39,39,39,39,39,39,39,39,39,39,39,39,39,39,
39,39,39,39,39,39,39,39,39,39,39,39,39,39,39,39,39,39,39,11395,11396,11397,11398,11399,11400,11401,11402,11403,11404,11405,11406,11407,11408,11409,11410,11411,11412,11413,11414,11415,11416,11417,11418,11419,11420,11421,11422,11423,11424,11425,11426,11427,11428,11429,11430,11431,11432,11433,11434,11435,11436,11437,11438,11439,11440,11441,11442,11443,11444,11445,11446,11447,11448,11449,11450,11451,11452,11453,11454,11455,11456,11457,11458,11459,11460,11461,11462,11463,11464,11465,11466,11467,11468,11469,11470,11471,11472,11473,11474,11475,11476,11477,11478,11479,11480,11481,11482,11483,11484,11485,11486,11487,11488,11489,11490,39,39,39,39,39,39,39,39,39,39,39,39,39,39,39,39,39,39,39,39,39,39,39,39,39,39,39,39,39,39,39,39,39,39,39,39,39,39,39,39,39,39,39,39,39,
39,39,39,39,39,39,39,39,39,39,39,39,39,39,39,39,39,39,39,11555,11556,11557,11558,11559,11560,11561,11562,11563,11564,11565,11566,11567,11568,11569,11570,11571,11572,11573,11574,11575,11576,11577,11578,11579,11580,11581,11582,11583,11584,11585,11586,11587,11588,11589,11590,11591,11592,11593,11594,11595,11596,11597,11598,11599,11600,11601,11602,11603,11604,11605,11606,11607,11608,11609,11610,11611,11612,11613,11614,11615,11616,11617,11618,11619,11620,11621,11622,11623,11624,11625,11626,11627,11628,11629,11630,11631,11632,11633,11634,11635,11636,11637,11638,11639,11640,11641,11642,11643,11644,11645,11646,11647,11648,11649,11650,39,39,39,39,39,39,39,39,39,39,39,39,39,39,39,39,39,39,39,39,39,39,39,39,39,39,39,39,39,39,39,39,39,39,39,39,39,39,39,39,39,39,39,39,39,
39,39,39,39,39,39,39,39,39,39,39,39,39,39,39,39,39,39,39,11715,11716,11717,11718,11719,11720,11721,11722,11723,11724,11725,11726,11727,11728,11729,11730,11731,11732,11733,11734,11735,11736,11737,11738,11739,11740,11741,11742,11743,11744,11745,11746,11747,11748,11749,11750,11751,11752,11753,11754,11755,11756,11757,11758,11759,11760,11761,11762,11763,11764,11765,11766,11767,11768,11769,11770,11771,11772,11773,11774,11775,11776,11777,11778,11779,11780,11781,11782,11783,11784,11785,11786,11787,11788,11789,11790,11791,11792,11793,11794,11795,11796,11797,11798,11799,11800,11801,11802,11803,11804,11805,11806,11807,11808,11809,11810,39,39,39,39,39,39,39,39,39,39,39,39,39,39,39,39,39,39,39,39,39,39,39,39,39,39,39,39,39,39,39,39,39,39,39,39,39,39,39,39,39,39,39,39,39,
39,39,39,39,39,39,39,39,39,39,39,39,39,39,39,39,39,39,39,11875,11876,11877,11878,11879,11880,11881,11882,11883,11884,11885,11886,11887,11888,11889,11890,11891,11892,11893,11894,11895,11896,11897,11898,11899,11900,11901,11902,11903,11904,11905,11906,11907,11908,11909,11910,11911,11912,11913,11914,11915,11916,11917,11918,11919,11920,11921,11922,11923,11924,11925,11926,11927,11928,11929,11930,11931,11932,11933,11934,11935,11936,11937,11938,11939,11940,11941,11942,11943,11944,11945,11946,11947,11948,11949,11950,11951,11952,11953,11954,11955,11956,11957,11958,11959,11960,11961,11962,11963,11964,11965,11966,11967,11968,11969,11970,39,39,39,39,39,39,39,39,39,39,39,39,39,39,39,39,39,39,39,39,39,39,39,39,39,39,39,39,39,39,39,39,39,39,39,39,39,39,39,39,39,39,39,39,39,
39,39,39,39,39,39,39,39,39,39,39,39,39,39,39,39,39,39,39,12035,12036,12037,12038,12039,12040,12041,12042,12043,12044,12045,12046,12047,12048,12049,12050,12051,12052,12053,12054,12055,12056,12057,12058,12059,12060,12061,12062,12063,12064,12065,12066,12067,12068,12069,12070,12071,12072,12073,12074,12075,12076,12077,12078,12079,12080,12081,12082,12083,12084,12085,12086,12087,12088,12089,12090,12091,12092,12093,12094,12095,12096,12097,12098,12099,12100,12101,12102,12103,12104,12105,12106,12107,12108,12109,12110,12111,12112,12113,12114,12115,12116,12117,12118,12119,12120,12121,12122,12123,12124,12125,12126,12127,12128,12129,12130,39,39,39,39,39,39,39,39,39,39,39,39,39,39,39,39,39,39,39,39,39,39,39,39,39,39,39,39,39,39,39,39,39,39,39,39,39,39,39,39,39,39,39,39,39,
39,39,39,39,39,39,39,39,39,39,39,39,39,39,39,39,39,39,39,12195,12196,12197,12198,12199,12200,12201,12202,12203,12204,12205,12206,12207,12208,12209,12210,12211,12212,12213,12214,12215,12216,12217,12218,12219,12220,12221,12222,12223,12224,12225,12226,12227,12228,12229,12230,12231,12232,12233,12234,12235,12236,12237,12238,12239,12240,12241,12242,12243,12244,12245,12246,12247,12248,12249,12250,12251,12252,12253,12254,12255,12256,12257,12258,12259,12260,12261,12262,12263,12264,12265,12266,12267,12268,12269,12270,12271,12272,12273,12274,12275,12276,12277,12278,12279,12280,12281,12282,12283,12284,12285,12286,12287,12288,12289,12290,39,39,39,39,39,39,39,39,39,39,39,39,39,39,39,39,39,39,39,39,39,39,39,39,39,39,39,39,39,39,39,39,39,39,39,39,39,39,39,39,39,39,39,39,39,
39,39,39,39,39,39,39,39,39,39,39,39,39,39,39,39,39,39,39,12355,12356,12357,12358,12359,12360,12361,12362,12363,12364,12365,12366,12367,12368,12369,12370,12371,12372,12373,12374,12375,12376,12377,12378,12379,12380,12381,12382,12383,12384,12385,12386,12387,12388,12389,12390,12391,12392,12393,12394,12395,12396,12397,12398,12399,12400,12401,12402,12403,12404,12405,12406,12407,12408,12409,12410,12411,12412,12413,12414,12415,12416,12417,12418,12419,12420,12421,12422,12423,12424,12425,12426,12427,12428,12429,12430,12431,12432,12433,12434,12435,12436,12437,12438,12439,12440,12441,12442,12443,12444,12445,12446,12447,12448,12449,12450,39,39,39,39,39,39,39,39,39,39,39,39,39,39,39,39,39,39,39,39,39,39,39,39,39,39,39,39,39,39,39,39,39,39,39,39,39,39,39,39,39,39,39,39,39,
39,39,39,39,39,39,39,39,39,39,39,39,39,39,39,39,39,39,39,12515,12516,12517,12518,12519,12520,12521,12522,12523,12524,12525,12526,12527,12528,12529,12530,12531,12532,12533,12534,12535,12536,12537,12538,12539,12540,12541,12542,12543,12544,12545,12546,12547,12548,12549,12550,12551,12552,12553,12554,12555,12556,12557,12558,12559,12560,12561,12562,12563,12564,12565,12566,12567,12568,12569,12570,12571,12572,12573,12574,12575,12576,12577,12578,12579,12580,12581,12582,12583,12584,12585,12586,12587,12588,12589,12590,12591,12592,12593,12594,12595,12596,12597,12598,12599,12600,12601,12602,12603,12604,12605,12606,12607,12608,12609,12610,39,39,39,39,39,39,39,39,39,39,39,39,39,39,39,39,39,39,39,39,39,39,39,39,39,39,39,39,39,39,39,39,39,39,39,39,39,39,39,39,39,39,39,39,39,
39,39,39,39,39,39,39,39,39,39,39,39,39,39,39,39,39,39,39,12675,12676,12677,12678,12679,12680,12681,12682,12683,12684,12685,12686,12687,12688,12689,12690,12691,12692,12693,12694,12695,12696,12697,12698,12699,12700,12701,12702,12703,12704,12705,12706,12707,12708,12709,12710,12711,12712,12713,12714,12715,12716,12717,12718,12719,12720,12721,12722,12723,12724,12725,12726,12727,12728,12729,12730,12731,12732,12733,12734,12735,12736,12737,12738,12739,12740,12741,12742,12743,12744,12745,12746,12747,12748,12749,12750,12751,12752,12753,12754,12755,12756,12757,12758,12759,12760,12761,12762,12763,12764,12765,12766,12767,12768,12769,12770,39,39,39,39,39,39,39,39,39,39,39,39,39,39,39,39,39,39,39,39,39,39,39,39,39,39,39,39,39,39,39,39,39,39,39,39,39,39,39,39,39,39,39,39,39,
39,39,39,39,39,39,39,39,39,39,39,39,39,39,39,39,39,39,39,12835,12836,12837,12838,12839,12840,12841,12842,12843,12844,12845,12846,12847,12848,12849,12850,12851,12852,12853,12854,12855,12856,12857,12858,12859,12860,12861,12862,12863,12864,12865,12866,12867,12868,12869,12870,12871,12872,12873,12874,12875,12876,12877,12878,12879,12880,12881,12882,12883,12884,12885,12886,12887,12888,12889,12890,12891,12892,12893,12894,12895,12896,12897,12898,12899,12900,12901,12902,12903,12904,12905,12906,12907,12908,12909,12910,12911,12912,12913,12914,12915,12916,12917,12918,12919,12920,12921,12922,12923,12924,12925,12926,12927,12928,12929,12930,39,39,39,39,39,39,39,39,39,39,39,39,39,39,39,39,39,39,39,39,39,39,39,39,39,39,39,39,39,39,39,39,39,39,39,39,39,39,39,39,39,39,39,39,39,
39,39,39,39,39,39,39,39,39,39,39,39,39,39,39,39,39,39,39,12995,12996,12997,12998,12999,13000,13001,13002,13003,13004,13005,13006,13007,13008,13009,13010,13011,13012,13013,13014,13015,13016,13017,13018,13019,13020,13021,13022,13023,13024,13025,13026,13027,13028,13029,13030,13031,13032,13033,13034,13035,13036,13037,13038,13039,13040,13041,13042,13043,13044,13045,13046,13047,13048,13049,13050,13051,13052,13053,13054,13055,13056,13057,13058,13059,13060,13061,13062,13063,13064,13065,13066,13067,13068,13069,13070,13071,13072,13073,13074,13075,13076,13077,13078,13079,13080,13081,13082,13083,13084,13085,13086,13087,13088,13089,13090,39,39,39,39,39,39,39,39,39,39,39,39,39,39,39,39,39,39,39,39,39,39,39,39,39,39,39,39,39,39,39,39,39,39,39,39,39,39,39,39,39,39,39,39,39,
39,39,39,39,39,39,39,39,39,39,39,39,39,39,39,39,39,39,39,13155,13156,13157,13158,13159,13160,13161,13162,13163,13164,13165,13166,13167,13168,13169,13170,13171,13172,13173,13174,13175,13176,13177,13178,13179,13180,13181,13182,13183,13184,13185,13186,13187,13188,13189,13190,13191,13192,13193,13194,13195,13196,13197,13198,13199,13200,13201,13202,13203,13204,13205,13206,13207,13208,13209,13210,13211,13212,13213,13214,13215,13216,13217,13218,13219,13220,13221,13222,13223,13224,13225,13226,13227,13228,13229,13230,13231,13232,13233,13234,13235,13236,13237,13238,13239,13240,13241,13242,13243,13244,13245,13246,13247,13248,13249,13250,39,39,39,39,39,39,39,39,39,39,39,39,39,39,39,39,39,39,39,39,39,39,39,39,39,39,39,39,39,39,39,39,39,39,39,39,39,39,39,39,39,39,39,39,39,
39,39,39,39,39,39,39,39,39,39,39,39,39,39,39,39,39,39,39,13315,13316,13317,13318,13319,13320,13321,13322,13323,13324,13325,13326,13327,13328,13329,13330,13331,13332,13333,13334,13335,13336,13337,13338,13339,13340,13341,13342,13343,13344,13345,13346,13347,13348,13349,13350,13351,13352,13353,13354,13355,13356,13357,13358,13359,13360,13361,13362,13363,13364,13365,13366,13367,13368,13369,13370,13371,13372,13373,13374,13375,13376,13377,13378,13379,13380,13381,13382,13383,13384,13385,13386,13387,13388,13389,13390,13391,13392,13393,13394,13395,13396,13397,13398,13399,13400,13401,13402,13403,13404,13405,13406,13407,13408,13409,13410,39,39,39,39,39,39,39,39,39,39,39,39,39,39,39,39,39,39,39,39,39,39,39,39,39,39,39,39,39,39,39,39,39,39,39,39,39,39,39,39,39,39,39,39,39,
39,39,39,39,39,39,39,39,39,39,39,39,39,39,39,39,39,39,39,13475,13476,13477,13478,13479,13480,13481,13482,13483,13484,13485,13486,13487,13488,13489,13490,13491,13492,13493,13494,13495,13496,13497,13498,13499,13500,13501,13502,13503,13504,13505,13506,13507,13508,13509,13510,13511,13512,13513,13514,13515,13516,13517,13518,13519,13520,13521,13522,13523,13524,13525,13526,13527,13528,13529,13530,13531,13532,13533,13534,13535,13536,13537,13538,13539,13540,13541,13542,13543,13544,13545,13546,13547,13548,13549,13550,13551,13552,13553,13554,13555,13556,13557,13558,13559,13560,13561,13562,13563,13564,13565,13566,13567,13568,13569,13570,39,39,39,39,39,39,39,39,39,39,39,39,39,39,39,39,39,39,39,39,39,39,39,39,39,39,39,39,39,39,39,39,39,39,39,39,39,39,39,39,39,39,39,39,39
</data>
 </layer>
</map>
